/* XPM */
static char *e5db0e7c157d4c37d1112207040b2abdGdhLo30ZvXe8CUwo[] = {
/* columns rows colors chars-per-pixel */
"353 285 256 2 ",
"   c None",
".  c #020101",
"X  c #0A0401",
"o  c #070801",
"O  c #0B0B03",
"+  c #0C0C0A",
"@  c #050509",
"#  c #120C02",
"$  c #140A05",
"%  c #0E1103",
"&  c #0F100A",
"*  c #131404",
"=  c #1B1303",
"-  c #1A1B05",
";  c #14140C",
":  c #1B150B",
">  c #1B1B0C",
",  c #161908",
"<  c #151412",
"1  c #1C1B14",
"2  c #1D1C1A",
"3  c #181713",
"4  c #0F0F10",
"5  c #250B00",
"6  c #231B0B",
"7  c #271905",
"8  c #361B04",
"9  c #231E15",
"0  c #321A0D",
"q  c #1E210A",
"w  c #1F2015",
"e  c #23240D",
"r  c #2A260C",
"t  c #34240C",
"y  c #3B270A",
"u  c #242314",
"i  c #2B2B15",
"p  c #24231C",
"a  c #2C2C1B",
"s  c #292616",
"d  c #3C2B13",
"f  c #362917",
"g  c #2E3118",
"h  c #33331C",
"j  c #393419",
"k  c #2B310F",
"l  c #2C2A24",
"z  c #292825",
"x  c #332D26",
"c  c #343323",
"v  c #34322C",
"b  c #3B3828",
"n  c #3C3A34",
"m  c #383734",
"M  c #2F3029",
"N  c #202020",
"B  c #461D00",
"V  c #432C0C",
"C  c #482807",
"Z  c #562B06",
"A  c #49310D",
"S  c #57330C",
"D  c #432C13",
"F  c #472D15",
"G  c #443214",
"H  c #4C3313",
"J  c #4A351B",
"K  c #533414",
"L  c #543B1B",
"P  c #5B3C1B",
"I  c #583816",
"U  c #512F13",
"Y  c #66360B",
"T  c #663C17",
"R  c #703913",
"E  c #463927",
"W  c #563C24",
"Q  c #433D36",
"!  c #603E21",
"~  c #5C411C",
"^  c #64421D",
"/  c #6C421C",
"(  c #6A4317",
")  c #73441C",
"_  c #79471B",
"`  c #714613",
"'  c #5A4327",
"]  c #484439",
"[  c #564938",
"{  c #4E4933",
"}  c #644423",
"|  c #6B4523",
" . c #6B4A24",
".. c #6C4B2B",
"X. c #64472A",
"o. c #744B24",
"O. c #7B4C24",
"+. c #744D2A",
"@. c #7B4E2B",
"#. c #744623",
"$. c #7C532B",
"%. c #795228",
"&. c #664B34",
"*. c #795635",
"=. c #6C5135",
"-. c #7E623A",
";. c #4A4844",
":. c #544D45",
">. c #595449",
",. c #595753",
"<. c #4E4E4C",
"1. c #635A4A",
"2. c #635D55",
"3. c #795C43",
"4. c #696459",
"5. c #746B59",
"6. c #716751",
"7. c #6B6864",
"8. c #746C64",
"9. c #79736A",
"0. c #7B7974",
"q. c #6D706F",
"w. c #5E615E",
"e. c #3F4037",
"r. c #85491C",
"t. c #8D501D",
"y. c #854D25",
"u. c #83542B",
"i. c #8B552C",
"p. c #8C5A2D",
"a. c #875427",
"s. c #945B2C",
"d. c #9B5C2D",
"f. c #955627",
"g. c #8C5B33",
"h. c #865935",
"j. c #945D32",
"k. c #9B5E32",
"l. c #935E3A",
"z. c #914D24",
"x. c #A45D2C",
"c. c #A25E32",
"v. c #8C6238",
"b. c #946234",
"n. c #9C6234",
"m. c #9C653A",
"M. c #98673B",
"N. c #97612E",
"B. c #A5622E",
"V. c #A36334",
"C. c #AB6534",
"Z. c #AC6935",
"A. c #A3663A",
"S. c #A56A3B",
"D. c #AC6B3B",
"F. c #A96639",
"G. c #B36D3B",
"H. c #BA6E3B",
"J. c #B36936",
"K. c #AC703D",
"L. c #B4713E",
"P. c #BB723E",
"I. c #BB763D",
"U. c #B0652C",
"Y. c #C2743E",
"T. c #C26E3E",
"R. c #9A6A44",
"E. c #926D4D",
"W. c #AC6D42",
"Q. c #A56B43",
"!. c #B56E42",
"~. c #AD7143",
"^. c #A77449",
"/. c #B47343",
"(. c #BB7442",
"). c #BD7945",
"_. c #BD7B4B",
"`. c #B6774A",
"'. c #A87A57",
"]. c #B77D52",
"[. c #857C76",
"{. c #857B69",
"}. c #835E45",
"|. c #C27543",
" X c #C37A45",
".X c #CB7C46",
"XX c #C47C4A",
"oX c #CB7E4A",
"OX c #C67646",
"+X c #D17E4A",
"@X c #C67C4E",
"#X c #B88357",
"$X c #8B8379",
"%X c #8F866F",
"&X c #B68867",
"*X c #C5814C",
"=X c #CC824C",
"-X c #CC8348",
";X c #D3834D",
":X c #D9874E",
">X c #CC8452",
",X c #C88756",
"<X c #D38552",
"1X c #D98651",
"2X c #D48A54",
"3X c #DB8A54",
"4X c #DB8D59",
"5X c #D48C5A",
"6X c #DC925B",
"7X c #D7925B",
"8X c #CE915D",
"9X c #E18D55",
"0X c #E28E59",
"qX c #E98F59",
"wX c #E4935B",
"eX c #E9955D",
"rX c #E7965B",
"tX c #DA9664",
"yX c #C8956E",
"uX c #E59A63",
"iX c #EC9B63",
"pX c #E89864",
"aX c #F29D64",
"sX c #F49F68",
"dX c #E79E71",
"fX c #D9A376",
"gX c #EBA26A",
"hX c #F4A36B",
"jX c #F8A66B",
"kX c #E9A875",
"lX c #FCAC74",
"zX c #F6AA74",
"xX c #FDB37C",
"cX c #F8B379",
"vX c #EAB07E",
"bX c #948C85",
"nX c #99938B",
"mX c #9B9794",
"MX c #8B8885",
"NX c #A39C97",
"BX c #A1978D",
"VX c #A7A29B",
"CX c #B2ADA9",
"ZX c #FCBA84",
"AX c #E8B68E",
"SX c #C3BCB2",
"DX c #D6AB8B",
"FX c #FDC38C",
"GX c #FECA95",
"HX c #FDD19C",
"JX c #CDC5B6",
"KX c #FCD5A5",
"LX c #D3D0CB",
"PX c #F6F3F0",
"IX c #E6E2D8",
"UX c #7E7B82",
/* pixels */
"                                                                                                                                                                                                                                                                                                                                                                                                                                                                                                                                                                                                                                                                                                                                  ",
"                                                                                                                                                                                                                                                                                                                                                                                                                                                                                                                                                                                                                                                                                                                                  ",
"                                                                                                                                                                                                                                                                                                                                                                                                                                                                                                                                                                                                                                                                                                                                  ",
"                                                                                                                                                                                                                                                                                                                                                                                                                                                                                                                                                                                                                                                                                                                                  ",
"                                                                                                                                                                                                                                                                                                                                                                                                                                                                                                                                                                                                                                                                                                                                  ",
"                                                                                                                                                                                                                                                                                                                                                                                                                                                                                                                                                                                                                                                                                                                                  ",
"                                                                                                                                                                                                                                                                                                                                                                                                                                                                                                                                                                                                                                                                                                                                  ",
"                                                                                                                                                                                                                                                                                                                                                                                                                                                                                                                                                                                                                                                                                                                                  ",
"                                                                                                                                                                                                                                                                                                                                                                                                                                                                                                                                                                                                                                                                                                                                  ",
"                                                                                                                                                                                                                                                                                                                                                                                                                                                                                                                                                                                                                                                                                                                                  ",
"                                                                                                                                                                                                                                                                                                                                                                                                                                                                                                                                                                                                                                                                                                                                  ",
"                                                                                                                                                                                                                                                                                                                                                                                                                                                                                                                                                                                                                                                                                                                                  ",
"                                                                                                                                                                                                                                                                                                                                                                                                                                                                                                                                                                                                                                                                                                                                  ",
"                                                                                                                                                                                                                                                                                                                                                                                                                                                                                                                                                                                                                                                                                                                                  ",
"                                                                                                                                                                                                                                                                                                                                                                                                                                                                                                                                                                                                                                                                                                                                  ",
"                                                                                                                                                                                                                                                                                                                                                                                                                                                                                                                                                                                                                                                                                                                                  ",
"                                                                                                                                                                                                                                                                                                                                                                                                                                                                                                                                                                                                                                                                                                                                  ",
"                                                                                                                                                                                                                                                                                                                                                                                                                                                                                                                                                                                                                                                                                                                                  ",
"                                                                                                                                                                                                                                                                                                                                                                                                                                                                                                                                                                                                                                                                                                                                  ",
"                                                                                                                                                                                                                                                                                                                                                                                                                                                                                                                                                                                                                                                                                                                                  ",
"                                                                                                                                                                                                                                                                                                                                                                                                                                                                                                                                                                                                                                                                                                                                  ",
"                                                                                                                                                                                                                                                                                                                                                                                                                                                                                                                                                                                                                                                                                                                                  ",
"                                                                                                                                                                                                                                                                                                                                                                                                                                                                                                                                                                                                                                                                                                                                  ",
"                                                                                                                                                                                                                                                                                                                                                                                                                                                                                                                                                                                                                                                                                                                                  ",
"                                                                                                                                                                                                                                                                                                                                                                                                                                                                                                                                                                                                                                                                                                                                  ",
"                                                                                                                                                                                                                                                                                                                                                                                                                                                                                                                                                                                                                                                                                                                                  ",
"                                                                                                                                                                                                                                                                                                                                                                                                                                                                                                                                                                                                                                                                                                                                  ",
"                                                                                                                                                                                                                                                                                                                                                                                                                                                                                                                                                                                                                                                                                                                                  ",
"                                                                                                                                                                                                                                                                                                                                                                                                                                                                                                                                                                                                                                                                                                                                  ",
"                                                                                                                                                                                                                                                                                                                                                                                                                                                                                                                                                                                                                                                                                                                                  ",
"                                                                                                                                                                                                                                                                                                                                                                                                                                                                                                                                                                                                                                                                                                                                  ",
"                                                                                                                                                                                                                                                                                                                                                                                                                                                                                                                                                                                                                                                                                                                                  ",
"                                                                                                                                                                                                                                                                                                                                                                                                                                                                                                                                                                                                                                                                                                                                  ",
"                                                                                                                                                                                                                                                                                                                                                                                                                                                                                                                                                                                                                                                                                                                                  ",
"                                                                                                                                                                                                                                                                                                                                                                                                                                                                                                                                                                                                                                                                                                                                  ",
"                                                                                                                                                                                                                                                                                                                                                                                                                                                                                                                                                                                                                                                                                                                                  ",
"                                                                                                                                                                                                                                                                                                                                                                                                                                                                                                                                                                                                                                                                                                                                  ",
"                                                                                                                                                                                                                                                                                                                                                                                                                                                                                                                                                                                                                                                                                                                                  ",
"                                                                                                                                                                                                                                                                                                                                                                                                                                                                                                                                                                                                                                                                                                                                  ",
"                                                                                                                                                                                                                                                                                                                                                                                                                                                                                                                                                                                                                                                                                                                                  ",
"                                                                                                                                                                                                                                                                                                                                                                                                                                                                                                                                                                                                                                                                                                                                  ",
"                                                                                                                                                                                                                                                                                                                                                                                                                                                                                                                                                                                                                                                                                                                                  ",
"                                                                                                                                                                                                                                                                                                                                                                                                                                                                                                                                                                                                                                                                                                                                  ",
"                                                                                                                                                                                                                                                                                                                                                    7.7.,.q.MXMX0.                                                                                                                                                                                                                                                                                                                                                                ",
"                                                                                                                                                                                                                                                                                                                                                    0.4.<.,.0.q.0.;                                                                                                                                                                                                                                                                                                                                                               ",
"                                                                                                                                                                                                                                                                                                                                                    ,.] ;.z w < 1 ; 3 <                                                                                                                                                                                                                                                                                                                                                           ",
"                                                                                                                                                                                                                                                                                                                                                    m l v & & 3 1 1 > ; &                                                                                                                                                                                                                                                                                                                                                         ",
"                                                                                                                                                                                                                                                                                                                                                  + z z z ; 3 ; ; 3 s s b b c                                                                                                                                                                                                                                                                                                                                                     ",
"                                                                                                                                                                                                                                                                                                                                                  + v M z < 1 1 1 1 > s b b b                                                                                                                                                                                                                                                                                                                                                     ",
"                                                                                                                                                                                                                                                                                                                                                  O M M x 3 3 3 < 1 : s ] ] b                                                                                                                                                                                                                                                                                                                                                     ",
"                                                                                                                                                                                                                                                                                                                                          2 & . . . w p p O o . o ; , s { { h                                                                                                                                                                                                                                                                                                                                                     ",
"                                                                                                                                                                                                                                                                                                                                        < p < . . o w w 2 O o o . ; ; u { ] h                                                                                                                                                                                                                                                                                                                                                     ",
"                                                                                                                                                                                                                                                                                                                                      < 3 w 3 O + ; l z w + O o + 3 ; , b ] b w                                                                                                                                                                                                                                                                                                                                                   ",
"                                                                                                                                                                                                                                                                                                                                    1 1 ; > 1 ; . O l p p 3 1 3 < ; * * c c b a *                                                                                                                                                                                                                                                                                                                                                 ",
"                                                                                                                                                                                                                                                                                                                                    u u > > s u 9 1 v l l 3 3 3 1 , * * h g a s >                                                                                                                                                                                                                                                                                                                                                 ",
"                                                                                                                                                                                                                                                                                                                                  O s a u u c c s > a a x s a a l 1 , , h i a s u *                                                                                                                                                                                                                                                                                                                                               ",
"                                                                                                                                                                                                                                                                                                                                u 6 a h f h 1.>.{ [ nXbX{ b b x v u 9 9 a h h c c u 1                                                                                                                                                                                                                                                                                                                                             ",
"                                                                                                                                                                                                                                                                                                                              1 > - a h f j 1.[ { [ nX$XQ a c c b s 9 6 h c c c a u 1 +                                                                                                                                                                                                                                                                                                                                           ",
"                                                                                                                                                                                                                                                                                                                            3 s e e h j j E 1.>.[ [ $X%X{ b b b b p u u c b c h a s u , O                                                                                                                                                                                                                                                                                                                                         ",
"                                                                                                                                                                                                                                                                                                                            p x a i b E E E >.[ { [ %X9.{ b c c b p u u c b c c u - , , , 1                                                                                                                                                                                                                                                                                                                                       ",
"                                                                                                                                                                                                                                                                                                                            u c h h b E { { >.>.[ >.%X9.[ ] b ] Q a s u c b b b i u > - > w ,                                                                                                                                                                                                                                                                                                                                     ",
"                                                                                                                                                                                                                                                                                                                          , a b c c c b b E E { { { >.:.Q c x c l 9 u 9 a h h a e e - q e s u                                                                                                                                                                                                                                                                                                                                     ",
"                                                                                                                                                                                                                                                                                                                        > s b { ] b b c h a u u u > * , , O O o * # , , u e > - e i e e s s s                                                                                                                                                                                                                                                                                                                                     ",
"                                                                                                                                                                                                                                                                                                                      u u s c { ] b b b b b c c b c > p s , 3 ; > ; > > u u u e e r e e i a i *                                                                                                                                                                                                                                                                                                                                   ",
"                                                                                                                                                                                                                                                                                                                      u e u c E E b a a a a ; 1 3 ; & + & & + O O ; + + ; 1 > , q q u e i i i -                                                                                                                                                                                                                                                                                                                                   ",
"                                                                                                                                                                                                                                                                                                                      c h i h j j h u u s 1 . . . . . . . . . . . . . . + ; ; , > > u e i a a > O                                                                                                                                                                                                                                                                                                                                 ",
"                                                                                                                                                                                                                                                                                                                    , c h j j j c c s s s > . . . . . . . . . . . . . . + 3 > , u u s u g h h u % *                                                                                                                                                                                                                                                                                                                               ",
"                                                                                                                                                                                                                                                                                                                  O , h h h j h c x > > 3 ; . . . . . . . . . . . . . . + ; ; * , > 1 > s i i u * * ,                                                                                                                                                                                                                                                                                                                             ",
"                                                                                                                                                                                                                                                                                                              > , , e c h i i > u 1 . . . . . . . . . . . . . . . . . . . o o . . o O O , > > , * * ,                                                                                                                                                                                                                                                                                                                             ",
"                                                                                                                                                                                                                                                                                                              w u e i c h h a , u 3 . . . . @ o . . . . . . . . . . o o . . . . . . o o , , , , , , > O O                                                                                                                                                                                                                                                                                                                         ",
"                                                                                                                                                                                                                                                                                                        2 1 , u u e e j h c h > s p + ; & & < ; + + ; < < ; & + & + & + @ o @ o o o o o > , , > q w u & &                                                                                                                                                                                                                                                                                                                         ",
"                                                                                                                                                                                                                                                                                                            * e e e e c h c a * 3 1 O ; & & < ; + ; < < < ; ; ; ; + ; & o . @ @ . . . . ; , , - u u s * O                                                                                                                                                                                                                                                                                                                         ",
"                                                                                                                                                                                                                                                                                                              , > - e j a a u * ; & o o o O + + O o ; & ; + + & & ; ; + @ o @ @ . . . . + & O , u u u % .                                                                                                                                                                                                                                                                                                                         ",
"                                                                                                                                                                                                                                                                                                            . , e - e c a c s ; ; 1 1 p p z z z z p z p p 1 1 1 3 ; < ; + & ; + . . . . o o . O > > > O . O                                                                                                                                                                                                                                                                                                                       ",
"                                                                                                                                                                                                                                                                                                            o > u > u c h x s : 1 9 z l l M v v m v v l z 2 w w 1 3 3 ; ; ; < ; . . . . o o o o , , > % O ,                                                                                                                                                                                                                                                                                                                       ",
"                                                                                                                                                                                                                                                                                                        o o O , q - e h a a s 9 : : p p p p l l l p 2 p p 3 1 1 3 , ; ; + ; ; + . . . . . . . . & * * O & > ;                                                                                                                                                                                                                                                                                                                     ",
"                                                                                                                                                                                                                                                                                                      + + + ; , , * > a i s a x v v >.>.,.>.,.,.,.:.] Q n l l p p u 1 1 1 1 1 > ; > ; & o . . o O + & & ; 3 ;                                                                                                                                                                                                                                                                                                                     ",
"                                                                                                                                                                                                                                                                                                    o O + & ; , , * - i s i h n x c >.,.,.,.,.>.>.] m n n p l p s 1 1 1 1 > > > ; , > + . . . . O O O ; 3 3 ;                                                                                                                                                                                                                                                                                                                     ",
"                                                                                                                                                                                                                                                                                                  o . o o O , * , * - i i i h ] b b 4.4.2.2.4.2.2.:.n Q Q a p p p 1 1 1 1 > > - , , 3 ; . . @ o . . . & ; + +                                                                                                                                                                                                                                                                                                                     ",
"                                                                                                                                                                                                                                                                                                  o . . . o ; * , , - i i i a ] b c 2.2.2.2.4.2.2.] v Q Q s p p p 1 1 1 > - > > > > 1 ; . . . . . . . ; ; O O                                                                                                                                                                                                                                                                                                                     ",
"                                                                                                                                                                                                                                                                                                . . . o . o & * , * - a h i b ,.] :.4.7.8.4.[ >.:.[ c Q Q s s u 9 9 9 6 > > > - > q > ; . . . . . . . & ; + + o                                                                                                                                                                                                                                                                                                                   ",
"                                                                                                                                                                                                                                                                                              o . . o + + O ; , > - u h a i ,.BXbXnXVXVXNXbX1.2.1.1.>.1.>.b c c l u u s u > - - s i s 1 o O % O . . . O + O + O O                                                                                                                                                                                                                                                                                                                 ",
"                                                                                                                                                                                                                                                                                              o o . o ; ; ; 3 > , * e c a s >.BX$X$XnXnXnXbX>.1.>.1.>.>.>.x x x x u u a u > - - i a s w O % ; & . . . o o . O & * &                                                                                                                                                                                                                                                                                                               ",
"                                                                                                                                                                                                                                                                                            o o o . o ; 3 ; > , w * - h a i [ bX$X$XmXnXnXbX:.1.1.1.>.>.>.x x x x u u a u > > e i a s w O % % & . . . . . . o ; ; ;                                                                                                                                                                                                                                                                                                               ",
"                                                                                                                                                                                                                                                                                            o o o o o > 1 > > * - * > c h h >.BX$X$XVXNXNXnX:.2.>.>.>.>.>.x x a a s s a u e e e g h a u % * , * . . . . . . o & ; ;                                                                                                                                                                                                                                                                                                               ",
"                                                                                                                                                                                                                                                                                            o o o o O ; 1 > > , O % 6 { b b >.nXbXbXSXCXCXCX:.1.>.1.1.>.>.b x b x a a a a u u e h h g i * - - , . o . . o . . & ; ;                                                                                                                                                                                                                                                                                                               ",
"                                                                                                                                                                                                                                                                                            @ o o o O , > > > * , * - { E E 1.BX$XbXSXCXSXCX] >.:.>.:.[ [ Q b Q Q x s a a u u u h h g i * - - , . o o . . . . ; ; ;                                                                                                                                                                                                                                                                                                               ",
"                                                                                                                                                                                                                                                                                            @ o . o O * ; , , O O O - { { b 1.VXnXnXLXCXSXCXQ >.[ :.[ [ :.[ Q Q Q u , : > * , - c c h a - - - * . o o . . . . < ; ; O                                                                                                                                                                                                                                                                                                             ",
"                                                                                                                                                                                                                                                                                            . . O , * 1 u u 9 a i e h 6.1.1.1.1.2.4.NXBXmXbX;.:.:.[ >.>.>.b x b a 4.4.4.8.4.4.{ a h a i r r s > % & 3 . . . . O + ; +                                                                                                                                                                                                                                                                                                             ",
"                                                                                                                                                                                                                                                                                            o o * > , u s u s a h h E 5.6.5.1.>.>.,.NXnXmXmX7.7.2.2.2.4.4.b x l x 0.0.$X$X9.0.>.u a a i s s i e , , 1 o . . . o . O O                                                                                                                                                                                                                                                                                                             ",
"                                                                                                                                                                                                                                                                                            . o * 6 , a c a a h a f E 5.5.9.5.1.2.4.SXVXCXCXCXSXLXNX,.2.4.v v M p $X0.$X0.9.[.] u a h a i s i e > - w O . . . o . + + o                                                                                                                                                                                                                                                                                                           ",
"                                                                                                                                                                                                                                                                                          . . o * e > b Q b b b c j { 5.5.5.6.1.1.4.CXCXCXCXIXLXLXCX2.8.4.l z z z MXnXmX$X[.[.>.u a a s g i g e - - w o . . . . . o o O                                                                                                                                                                                                                                                                                                           ",
"                                                                                                                                                                                                                                                                                        3 3 , 1 e a u b ] b b b c h E 5.6.6.5.{.$X9.:.>.Q 2.VXmXVXMXz n Q z z p 1 x ; 9 p c M 1 O O O O q e s q e s a O o O O o O O O 3 <                                                                                                                                                                                                                                                                                                         ",
"                                                                                                                                                                                                                                                                                        w w > u e i i b ] b c b E b { 6.6.1.5.%X{.[.:.>.;.,.CXVXCXnXM ] m 9 9 z p p 3 ; ; 1 1 p + O o O s s i s s i g % o % O o o o O p p                                                                                                                                                                                                                                                                                                         ",
"                                                                                                                                                                                                                                                                                        1 > , u i a a b Q b c { E E { 1.1.1.5.{.9.[.:.:.>.2.CXCXLXmX] <.;.v z z z z z 9 9 z p 1 & + O O s q u e e e s % o O O O . o O 2 2                                                                                                                                                                                                                                                                                                         ",
"                                                                                                                                                                                                                                                                                        * % * u { b b b b b b >.[ >.>.1.1.1.1.>.4.,.. O . . @ . . + . . . . @ . . . . . . . . . . . . O u , q s g i h q > w 1 p p z w z 1                                                                                                                                                                                                                                                                                                         ",
"                                                                                                                                                                                                                                                                                      O u - > i { { ] a a c s >.>.[ 6.{.5.5.5.[ 4.2.. . . . . . . . . . . . @ . . . . . . . . . . . . O - q q r g i h a u p p n v n m ; 1                                                                                                                                                                                                                                                                                                         ",
"                                                                                                                                                                                                                                                                                      , h u i h E ] ] a s a a 4.1.1.5.%X{.%X9.>.1.>.. . . . . . . . . . . . @ . . . . . . . . . . . . O , - - e i i a a a x p n m Q m o                                                                                                                                                                                                                                                                                                           ",
"                                                                                                                                                                                                                                                                                      , h i i h ] ] ] x a a u 1.2.2.5.%X{.{.5.[ 4.>.. . . . . . . . . . . . @ . . . . . . . . . . . o O , , - r i i i i a l l ] n ] v                                                                                                                                                                                                                                                                                                             ",
"                                                                                                                                                                                                                                                                                    O * a i i h { ] ] x a x s 4.2.1.5.%X%X%X9.1.4.1.# O O o . . . . . . . . . . . . . . . . o o o O O * - q q i r g a a s p p ] ] ;.m                                                                                                                                                                                                                                                                                                             ",
"                                                                                                                                                                                                                                                                                  s u u j h j E b b b > O > > 4.4.6.5.%X$X%X%X5.{.{.Q ] ] ] v v x a u s u 1 1 3 , > 1 u p p u 1 , , * - e q q r i g a a a l p M l v z                                                                                                                                                                                                                                                                                                             ",
"                                                                                                                                                                                                                                                                                  i u u j j j j b c m , O : , 4.4.4.5.$X%X%X{.8.8.{.{ ] [ ] x x c a u s u , , , , > 1 u s s u u q - * - e e q i g g i i s p p z p p <                                                                                                                                                                                                                                                                                                             ",
"                                                                                                                                                                                                                                                                                  e e e j t d j b x v ; + 1 : 4.5.5.8.$X$X%X%X{.{.{.[ [ [ ] b b Q c a a a u 6 9 > > w u u s s u , , * * q q q i g g i h u p l z M z <                                                                                                                                                                                                                                                                                                             ",
"                                                                                                                                                                                                                                                                                h E j j { J ' { ] Q ] 1 o ; ; 8.4.4.8.$X$XbX$X$X$X$X1.1.2.1.:.:.[ { b b c a s s u u u u s s i a , - * * - - q i h g h b c v l 2 2 < o                                                                                                                                                                                                                                                                                                             ",
"                                                                                                                                                                                                                                                                        1.{.%X%XJXJXJXJXIXIXIXPXPXPXPXNXp ] M VXnXBXbX[.$X$X[.[.[.{.1.1.,.>.[ [ ] { b c b u a s s u u u u u u u , , , - q - e g b j j ] :.:.:.2 z & o                                                                                                                                                                                                                                                                                                             ",
"                                                                                                                                                                                                                                                                      6 1.8.{.5.BXCXSXSXJXJXJXLXIXIXIXNXz Q l mXbXBXbX[.$X[.[.[.[.[.] >.>.:.:.[ ] ] c c b u a a u u u u > w u > , , * * , , q g c b j :.:.] ;.1 2 + .                                                                                                                                                                                                                                                                                                             ",
"                                                                                                                                                                                                                                                                Q :.[ [ 5.%X%X{.CXJXJXJXJXJXJXIXPXPXPXNXm <.n mXnXBXbX[.[.[.[.$X[.$X2.2.2.2.] :.:.] x c b p p p a s u u u u u u , , * * , , q a b b u >.,.>.<.3 1 ; o &                                                                                                                                                                                                                                                                                                           ",
"                                                                                                                                                                                                                                                                ] >.{ E { =.1.=.{ [ [ [ 2.2.4.8.$XnXVX0.;.,.n mXMXbX$X[.$XnXnXBXNXNXNXNXNXVX9.[.[.8.>.>.>.v v M p 1 1 1 1 1 1 1 , , * % * * > u s h s $XVXVXmX<.4.,.<.q.q.7.z                                                                                                                                                                                                                                                                                                     ",
"                                                                                                                                                                                                                                                              c { [ [ { [ 5.5.5.1.[ { { { { ] b v v m M z v z SXLXLXJXCXCXCXCXCXCXVXmXNXNXmX0.9.0.8.>.:.:.l z z z 2 3 1 1 2 1 1 * & O o O O % > > a 9 $XNXmXMXm ;.m l ;.Q ] 4.7.7.4.> a                                                                                                                                                                                                                                                                                           ",
"                                                                                                                                                                                                                                                              >.{ [ [ { 1.5.6.6.1.{ { { Q ] ] v l l z z M M z IXLXLXLXSXCXCXCXCXCXCXNXNXmXmX0.0.9.4.:.:.<.M M x z 2 < 1 2 2 2 1 ; + o . o O & > 6 a 1 $XNXmXnXm ;.v z ;.;.] q.7.4.4.* l v                                                                                                                                                                                                                                                                                         ",
"                                                                                                                                                                                                                                                              :.[ [ 1.[ 6.8.8.9.2.>.>.>.:.<.>.] x v M m m m N LXLXLXLXLXLXLXLXSXCXSXNXVXVXCX[.MX$X9.,.>.>.m v M z 2 2 2 2 2 2 2 + O o . o O + ; > u u MXVXNXmXn ;.m v ;.;.;.0.0.0.8.s a l                                                                                                                                                                                                                                                                                         ",
"                                                                                                                                                                                                                                                              b s 6 6 # = = * , # O O O o o @ . . . o z m n z IXIXIXPXPXPXPXIXLXLXLX<.,.,.<.n Q ] v 3 : 2 o @ . @ . . @ . . . . . . . . . . . . o O . :.<.;.<.O O o . + O o p 1 u a 6 a c                                                                                                                                                                                                                                                                                         ",
"                                                                                                                                                                                                                                                              v a > * # O . . O . . . . . o . . . . . M m v z IXIXIXIXPXPXPXIXLXLXIX;.;.<.;.M n n M . O ; . . . . . . . . . . . . . . . . . . . o O . ;.] ] :.. o . . + o O O ; > e r i a                                                                                                                                                                                                                                                                                         ",
"                                                                                                                                                                                                                                                              m v a 9 : O . . @ . . . . o . . . . . . z m m M IXIXIXPXPXPXPXPXLXIXPX7.4.7.4.;.;.,.Q < + + . . o . . . . . . . . . . . . . . . @ + + o ] >.:.:.O . . . ; + + ; > > e r e i                                                                                                                                                                                                                                                                                         ",
"                                                                                                                                                                                                                                                              m p 9 : ; O o o O . @ @ @ < + 1 p z 2 2 M n Q z LXLXIXIXPXPXPXLXmXCXCX3 + < < . @ + @ . . . . . . . . . . . . . . . . . . . . . . @ o . b b b b * ; ; ; < ; ; , > > i g i h                                                                                                                                                                                                                                                                                         ",
"                                                                                                                                                                                                                                                                O o o o o o O + . . . + n v v v n m m n n ;.M IXLXLXIXPXPXPXSXq.UXmX+ . . . . + . @ @ @ . . . . . . . . . . . . @ . . . . . @ @ @ O o 1 > > u s l l p 1 ; , , > > a j j c                                                                                                                                                                                                                                                                                         ",
"                                                                                                                                                                                                                                                                  o o o o O + @ @ @ o ; m v M m m m m m m ] z LXLXLXIXPXPXPXLXq.MXmX< < : , o O # O o o . . . . . . . . . . . . . . . . . . @ @ @ O O 1 1 u u l c v p 3 ; * , > > i h h c                                                                                                                                                                                                                                                                                         ",
"                                                                                                                                                                                                                                                                  + O O @ O @ @ . @ o + v 9 l v m m v n n ] l LXLXLXIXPXPXPXLXq.mX[.3 O O # # # O o . O O . . . o . . . . . . . . . . . . . . . . o o 3 1 u > c l c a , , * , , > i g g h                                                                                                                                                                                                                                                                                         ",
"                                                                                                                                                                                                                                                                  + < ; + + + @ ; ; & m bX7.9.] 2 2 2 v m Q l LXLXLXLXPXPXPXnX2 Q ] 5.$X%X%X%X%X%X5.>.>.[ b b b c h h a i i a i * , > & o . . . . o . > > > , c a c a * , * , - q s i i h                                                                                                                                                                                                                                                                                         ",
"                                                                                                                                                                                                                                                                  ; 2 2 < + @ . < < < ,.LXCXSX7.2 2 < v n n p LXJXJXLXPXPXPXnX& b 9 {.%X%X%X%X%X%X5.[ 1.1.{ E E E b j h i i i i - u u , . . . . . . . ; ; > , c a c a % * * , > > s i i h                                                                                                                                                                                                                                                                                         ",
"                                                                                                                                                                                                                                                                  < M z M 2 @ . p 2 1 ,.LXVXSX7.3 p 1 l m Q p JXSXSXLXPXPXPXmX: Q f {.%X{.%X%X%X%X{.[ 1.1.E E E b b j j j j j b g g h s . . . . . . . + ; & , s s a s * , , - * , > u i g                                                                                                                                                                                                                                                                                         ",
"                                                                                                                                                                                                                                                                  < M z z z @ . z 2 1 ,.LXCXLX9.2 z 1 M v n l JXSXSXLXPXPXPXmX: Q x {.%X{.%X%X%X%X%X=.1.1.E E E b b b b b b b j h h b s . . . . . . . + < ; > a a a s , - - - * * > i g h                                                                                                                                                                                                                                                                                         ",
"                                                                                                                                                                                                                                                                  < M z z v O O < < < m 0.7.0.;.; < + m ] Q x CXCXCXSXLXSXJX[.; v 9 8.5.5.5.6.6.6.1.E { ] s s s s s u i i i i s h g h u . . . . . . . O + O + 1 > w > * , * * O O * , > u                                                                                                                                                                                                                                                                                         ",
"                                                                                                                                                                                                                                                                  < z z v ;.+ < @ + + O < . & . @ @ . ;.>.:.Q VXNXNXNXNXbXbX2.. ; X >.>.:.[ E E { b 6 s s X . . . . . o O % O O s u a 1 . . . . . . . . . . . O O % * % * & O o . . o O *                                                                                                                                                                                                                                                                                         ",
"                                                                                                                                                                                                                                                                  2 m v ;.;.o < + + + < z z z 2 @ . . <.,.>.] NXVXVXNXNXNXNX7.X 9 < ,.2.2.1.] ] ] Q l M z O . . . . . o O + & % s s a 1 . . . . . . . . . . . O O % % * , * o . . . O O *                                                                                                                                                                                                                                                                                         ",
"                                                                                                                                                                                                                                                                  z ;.] ;.;.. + + @ @ + 3 2 < + . . . ;.:.:.] NXBXNXnXbXbXbX2.X + @ m m v v u p l p ; 1 < . . . . . . . . o O O s s s 1 . . . . . . . . . @ o O O % O , > ; o o . . O O                                                                                                                                                                                                                                                                                           ",
"                                                                                                                                                                                                                                                                    p z z ;.< 3 @ @ @ . . . . @ @ @ @ ;.;.] Q nXbXbX$X9.8.8.;.. o . 2 9 1 ; o o O o . . . . . . . . . . . . . . - , , * . . . . . . . . @ @ . . . o o ; , ; o o . . . .                                                                                                                                                                                                                                                                                           ",
"                                                                                                                                                                                                                                                                        . <.;.;.+ + + . . . . @ 2 < + ] Q ] Q bXbXbX$X9.9.9.;.. . . 2 p p 3 . . O O . . . . . . . . . . . . . . * O O O . . . . . . . . @ @ . . . . o > > ; . . . . . .                                                                                                                                                                                                                                                                                           ",
"                                                                                                                                                                                                                                                                          ,.;.;.4 @ + @ . . . + 2 1 < <.;.] ] nXbXbX$X8.9.0.;.. . . p z p 2 . . + @ . . . . . . . . . . . . . . . . . . . . . . . . . @ o . . . . . O , , , . . . . . .                                                                                                                                                                                                                                                                                           ",
"                                                                                                                                                                                                                                                                          ;.;.;.+ o o . . . . o 2 3 ; ] ] ] ] $XbXnXbX8.8.9.;.@ . . < 2 < < . @ @ . . . . . . . . . . . . . . . . . . . . . . . . . . @ O o o . . . O - , , . . . . . .                                                                                                                                                                                                                                                                                           ",
"                                                                                                                                                                                                                                                                          4 + + + + O + + & + 3 M M z <.:.:.] 9.4.5.2.] Q ;.x . . . @ @ @ . . . . . . . . . . . . . . . . . . . . . . . . . . . . . . o + O O . . . o , , * . . . . . .                                                                                                                                                                                                                                                                                           ",
"                                                                                                                                                                                                                                                                          . . . + + @ O + + o < M M z <.>.>.] 4.4.5.2.Q Q ] z . . . . . . . . . . . . . . . . . . . . . . . . . . . . . . . . . . . . o + O O . . . o , , * . . . . . .                                                                                                                                                                                                                                                                                           ",
"                                                                                                                                                                                                                                                                          O O + @ + @ + + & @ 2 v l p >.>.,.:.8.8.8.4.] ;.] z . . . . . . . . . . . . . . . . . . . . . . . . . . . . . . . . . . . . O + O o . . . o , , * . . . . . .                                                                                                                                                                                                                                                                                           ",
"                                                                                                                                                                                                                                                                        + ; @ . & < & < @ + o 2 m l z >.1.>.:.5.8.8.2.b Q Q z . . . . . . . . . . . . . . . . . . . . . . . . . . . . . . . . . . . . + ; * O . . . o , , * . . . . .                                                                                                                                                                                                                                                                                             ",
"                                                                                                                                                                                                                                                                        + 3 ; < v v M z + + @ 2 m v v 4.8.4.2.9.8.8.1.p l x 2 . . . . . . . . . . . . . . . . . . . . . . . . . . . . . . . . . . . . ; w > ; o . . o , , * . . . . .                                                                                                                                                                                                                                                                                             ",
"                                                                                                                                                                                                                                                                        ; < ; 1 M M M z @ o @ 2 n m v 2.4.4.2.5.8.8.2.l M M 9 . . . . . . . . . . . . . . . . . . . . . . . . . . . . . . . . . . . . ; s u , . . . o , , * . . . . .                                                                                                                                                                                                                                                                                             ",
"                                                                                                                                                                                                                                                                          p 9 1 M M M M @ + . 1 n m b 4.8.4.2.8.8.8.2.l v v 9 . . . . . . . . . . . . . . . . . . . . . . . . . . . . . . . . . . . . > s e > o . . o > , & . . . . .                                                                                                                                                                                                                                                                                             ",
"                                                                                                                                                                                                                                                                          1 M m M M M M + & $ z ;.] Q 7.0.9.8.8.8.8.2.x m v z . @ @ . . . . . . . . . . . . . . . . . . . . . . . . . . . . . . . . . 1 a s q o . . o > , & . . . . .                                                                                                                                                                                                                                                                                             ",
"                                                                                                                                                                                                                                                                          O l v M v M z O O o 9 ;.Q n 7.9.9.7.4.7.8.2.x n n z o @ O . . . . . o . . . . . . . . . . . . . . . . . . . . . . . . . . . w g s u o . . . ; ; + . . . . .                                                                                                                                                                                                                                                                                             ",
"                                                                                                                                                                                                                                                                          X s v M v M z + + o 9 ;.n m 7.9.7.4.4.4.4.1.a v v 9 . @ o . . . . . . . . . . @ . . . . . . . . . . . . . . . . . . . . . . > i e e . . . . ; * O . . . . .                                                                                                                                                                                                                                                                                             ",
"                                                                                                                                                                                                                                                                        6 f E Q ; < < < @ O o 9 <.] Q MXnXbXbXmXmXmXbX,.4.4.,.v n m z z z z 9 p p 2 < < < + @ @ @ . . . . . . . . . . . . . . . o o . s h i i o . . . & % O . . . . . .                                                                                                                                                                                                                                                                                           ",
"                                                                                                                                                                                                                                                                        E [ [ E O + + + @ + . 2 ;.n x [.NXmXmXVXVXVXNX7.9.9.7.] <.:.] ] n m v v m M z z N < + + + . . . . . . . . . . . . . . . @ O O c b j h O . . . + O o . . . . . .                                                                                                                                                                                                                                                                                           ",
"                                                                                                                                                                                                                                                                    F D W W ' E # + + + @ + . 3 ;.;.M [.mXbXMXNXNXNXnX2.8.8.2.Q ;.] m m m m M x v z 2 2 2 & @ @ + . . . . . . . . . . . . . . . . o o h j k h . o . . O o o . . . . . .                                                                                                                                                                                                                                                                                           ",
"                                                                                                                                                                                                                                                                  &.' L ' J { f # ; < 4 < 2 < z m e.M [.mXnXbXVXNXVXBX4.9.9.4.Q ;.;.n n n m M M M z 2 2 2 4 @ @ @ . . . . . . . . . . . . . . . O O o g j k h o o o . O o o . . . . . .                                                                                                                                                                                                                                                                                           ",
"                                                                                                                                                                                                                                                                yXg.I =.J X # O v v v ;.$Xq.0.;.4 2 & ;.4.4.,.[.[.[.9.>.2.2.,.n ] ;.v m v v z l z 1 + + + o @ . . . . . . . . . . . . . o o o > i i s h j j j * , * % % * O . . . . . .                                                                                                                                                                                                                                                                                           ",
"                                                                                                                                                                                                                                                          6.*.$.8Xs.T =.E X O O z z l ] 0.4.q.;.+ 2 < ;.2.2.>.{.9.9.8.:.,.,.;.z v n p l p p ; ; 1 + . . . . . . . . . . . . . . . . . o & % % q i i e j j j h % * * % * ; + . . . . . . .                                                                                                                                                                                                                                                                                         ",
"                                                                                                                                                                                                                                                          '.E.R.`.s.) =.E # $ + l z z ] 0.7.q.;.3 9 3 ] 2.2.,.[.{.0.4.] ;.;.Q l M v p p p 9 & & ; O . . . . . . . . . . . . . . . . . o % % % q i k r j j j h * * * % , > + . . . . . . o .                                                                                                                                                                                                                                                                                       ",
"                                                                                                                                                                                                                                                          E.b.m.].j.) ..E X X @ p p p n 0.7.7.;.& < < Q ,.>.] 2.>.1.>.b Q Q Q x v v 9 p p 9 & & ; + . . . . . . . . . . . . . . . . o % , , * q i k r h j h h * , * & > ; + . . . . . . . .                                                                                                                                                                                                                                                                                       ",
"                                                                                                                                                                                                                                                        / '.`.`.,Xs.T X.W $ $ + 1 p p n 7.7.w.n 3 2 9 Q :.:.] 2.,.1.:.x x x v v v x 1 9 1 3 o O O O . . . . . . . . . . . . . . . o o % - * - e k k k g g g g % O O O ; ; + . . . . . . . . o                                                                                                                                                                                                                                                                                     ",
"                                                                                                                                                                                                                                                  {.E.R.^.,XXX_.,Xa.Z ! W = 9 3 <.7.2.v + . & 3 z z 9 p 9 1 1 Q Q Q a X # $ p v c x ; : ; ; . o . . . . . . . . . . . . . . . . , > * > s e e k k k k k i i u o . . . 3 < & . . . . . . . . ; +                                                                                                                                                                                                                                                                                   ",
"                                                                                                                                                                                                                                                  '.h.p.D.,X*X*XtXi.S W W = 9 ; ;.,.,.m + 3 & < 2 p z l l p s ] Q ] x = : : 9 x x x ; : : ; . . . . . . . . . . . . . . . . . o , , * > r e e r k k k i s s w . . . . 1 < ; . . . . . . . . 2 1 &                                                                                                                                                                                                                                                                                 ",
"                                                                                                                                                                                                                                                  #Xm.f.Z.>X X*XtXa.S W W = s ; >.,.2.Q o 1 ; 2 p w p z z z p Q Q Q x = 9 9 l n v v 1 9 1 3 o . o @ . . . . . . . . . . . . o o % * % - s e e k k k g g s a u o . . . 1 < & . . . . . . . . 2 1 &                                                                                                                                                                                                                                                                                 ",
"                                                                                                                                                                                                                                            }.h.^.yX,X>X=X2X-X>XtXj.Y } ' = > < <.,.7.m + < ; 1 1 < 1 p l l l 8.7.[.4.;.] Q ;.>.>.:.v n m v 1 < < ; O o o O o o o o o o + * % % * q - q e r e k h h h e * w w . . . . o o . . . . . . . . . z p 1 .                                                                                                                                                                                                                                                                               ",
"                                                                                                                                                                                                                                          W E.v.S.tX>X;X=X<X<X>X8Xs.Y } W $ : ; m M m z < 1 < 2 1 < 1 z M x z 4.4.7.,.n ] ] ;.;.;.:.x v l l & 1 1 < O o o o o o o o . o & * % % - q - q q e q e i g g e , > , . . . . . . . . . . . . . . . l l 1 .                                                                                                                                                                                                                                                                               ",
"                                                                                                                                                                                                                                          ..R.j.B.6X-X;X=X=X2X*XtXk.Y ^ W $ 6 1 M M v z 2 2 2 < ; < < z p l p 7.4.4.2.n Q Q ] ] ] ] p l l z O ; & o . . . . . . . . . . O * % % q q q e q q q q i g i q , , * o . . . . . . . . . . . . . . z p 2 . o                                                                                                                                                                                                                                                                             ",
"                                                                                                                                                                                                                                          h.m.V.Z.2X-X=X=X;X2X>XtXn.R | W $ = > M v v z v z M w < 1 1 2 3 2 9 <.>.>.;.] ] ] ] :.:.] M l z l 2 p p O . O + o O & + + O % , , , * r e e s - q q q q q - % o O O ; & ; O . . . . . . . . . . o M l p . .                                                                                                                                                                                                                                                                             ",
"                                                                                                                                                                                                                                  c [ W @.yX#X_.I.=X-X-X;X2X2X5X7XV.) o.} = = ; 1 < < m ,.<.,.;.p p 1 O o . . ; O & : ,.9.9.9.8.4.9.mXVXNXVXCXNXmX7.,.<.;.b b m v c c c h g g g h g h g * - q , % * % . . . o 1 1 1 & . . . . . . . . . o + m m z . . .                                                                                                                                                                                                                                                                           ",
"                                                                                                                                                                                                                                  E &.I O.#X_.*X*X*X=X=X>X4X<X4XtXV._ o.} 5 r s 1 3 < m 4.<.<.n 2 p w o o . + 2 p 9 ; 4.9.9.9.8.7.7.VXNXmXNXCXVXCXq.,.>.,.n m b v c c h i s i i c c c h , - - , % & ; o . o o w 1 1 & . . . . . . . . . . @ v v z o . . .                                                                                                                                                                                                                                                                         ",
"                                                                                                                                                                                                                                  E W I ) #X).)._.*X*X*X<X1X3X3XuXC._ O.| 8 f Q 3 9 9 n ,.,.,.] < 2 < o . . . < + + 3 7.9.0.9.7.q.q.CXVXVXVXCXmXNX7.,.,.,.] ] b b c c c a i g g h c c g - > > , & % ; o . . . > ; 3 O . . . . . . . . . o O v v w . o . .                                                                                                                                                                                                                                                                         ",
"                                                                                                                                                                                                                                  K K Y Y _.XX).).,X>X>X2X1X9X3XwXG.z.l.*.y J E $ O @ z ;.n n m m v M m n n v m m z p <.2.9.9.7.7.q.NXNXmXmXNXmXmX4.,.,.,.] :.] ] b v c a a h a c b c a > 1 3 ; ; + ; o . . . & & ; o . . . . . . . . . . . p 1 < . o . . .                                                                                                                                                                                                                                                                       ",
"                                                                                                                                                                                                                          ' 3.E.R.'.].].`./.`.(.).>X=XoX;XwXwXwXgX Xd.S.l.C W [ # X . < N 2 2 M ;.n Q ,.,.<.,.>.>.] 9 O o . . . . . @ . o . o . o . . . . . . . . . . . . . . . . . . . . . . . . . . . . . . . . . . . . . . . . . . . . o z z 2 . . . . . +                                                                                                                                                                                                                                                                     ",
"                                                                                                                                                                                                                          ' $.g.s.S.~./././.).(. X>X=X-X;XwXwXwXiX Xd.S.b.Z W &.= X . 3 z N 2 M Q n n ;.<.<.:.:.>.] s O o . . . . . + o O o o . o . @ o @ . . . . . . . . . . . . . . . . . . . . . . . . . . . . . . . @ . . . . . . . . O x l : X X X . X #                                                                                                                                                                                                                                                                     ",
"                                                                                                                                                                                                                           .%.g.n.~./.`.`./._.).).>XoX.X;XwXwXwXiX XB.S.j.Z P X.5 X X : 9 z z v ] ] n ;.<.:.] ,.:.[ x : ; & + . . . @ @ . . . . . . . . . . @ @ . . . . . . . . . . . . . . . . . . . . . . . . . . X . X X . . X X $ = $ $ 0 7 f d d t 0 t f 0 5                                                                                                                                                                                                                                                                 ",
"                                                                                                                                                                                                            [ ' ' =.E.E.h.R.v.M.S././.`./././.L.L.XX X X-X6X6X6XgX-XL.`.~.) @.*.F F E 9 X O . o $ $ O v Q n n [.$X$X8.] ] Q z + < & . . . . . @ . . . . . . . . . . . . . . . . . . . . . . . . . X . X o o o O o X X X $ = 7 7 0 D J W W W &.X.X.=.=.X...&.=.....X.W W J G J                                                                                                                                                                                                                                                     ",
"                                                                                                                                                                                                            E.}.*.h.].~.Q.m.M.~.V.D.D.K.~.D.D.F.L. XP.(.-X6X6X6XiX-XP.(.~._ @.*.U J W f X X X X O o . x n v x bX$XbX{.E Q Q z . & + . @ X @ . . . . . . . @ @ . . . . . . . . . . . . . . . . . . . . . o o O O # O # = 7 f E E U P P P I T } T T | | | |  .| o.T | | +. . .X.                                                                                                                                                                                                                                                    ",
"                                                                                                                                                                                                            }.$.a.a././.`.S.m.A.F.K.D.~./.D.D.D.G.).(.(. X6X4X4XpX.XP.L.Z._ _ @.Z C F 0 X X X X o o o z n n x nXbXBX[.x v v z . & . X . . . . @ . . @ . @ . . . . . . . . . . . . . . . . . . . . . . . . . . O ; # # 7 7 d J F C I I I I T T T T T T T #./ / #.( / / / T / P                                                                                                                                                                                                                                                     ",
"                                                                                                                                                                                                      { ' ..^.M.n.n.Z.Z.L.D././././.K.L./.D.D.D.D.).).P. X5X2X2XwX-XoX=XXXf.n.R.O.| ..W 0 0 0 = X o O 1 z M z [.[.$X{.x n n v < < 3 ,.,.<.] ; 1 3 M ,.;.<.& . @ . . . . . . . . . . . . . . . . . . . . . . . o o . X = 5 8 D V C I P P S T T T / / | #.#.o.#.#.o.o.#.#.) o.o.} } X.' E                                                                                                                                                                                                                                           ",
"                                                                                                                                                                                                    E =.*.v.^.~.K.L.Z.G.D.L.`.).`.`.L././.D.D.F.Z.`.L.L.).<X<X2XwX<X2X4X>XV.D.~.p.h.h.*.L W [ f # o o O ; ; 3 0.0.0.9.b ;.;.m < 2 p MX0.q.4.3 z p e.MX0.0.< o + o . . . . . . . . . . . . . . . . . . . . . . o o X $ 5 5 8 C C B U P T I #.#.@.+.+.@.@.@.$.$.@.$.+.@.@.O.o.+.@.+.=.=.'                                                                                                                                                                                                                                           ",
"                                                                                                                                                                                                    ' *.*.a./.D.D.S.D.G.D.L.).).).(.L.L./.K.F.D.D././.L. X<X>X2X4X4X<X2XXXC.D./.i.u.$.+.U W W f # O o & 3 ; p $X[.$X0.Q ;.;.e.+ 2 w 0.q.7.w.; z w n q.7.q.; O O o . . . . . . . . @ . . . @ . . . . . @ o o O s f d y ..} +.$.@.*.| | | +.+.@.@.$.@.@.$.@.@.$.$.$.+.+.+.o.o.o.#.| +...'                                                                                                                                                                                                                                           ",
"                                                                                                                                                                                                    ~ *.u.p.D.C.~.Q.~.W.D.K.I.I.I.L.L.L.L.D.S.D.D././.L.).<X=X2X4X3X<X2XoXC.C.D.z.a.i.@.Z U K y $ X X X : : ; >.>.:.,.<.,.,.e.+ < < q.7.,.,.< N 3 m q.7.7.< + + o . . . . . . . . @ . . . @ . . . . . o o O # 0 t 8 8 ../ o.O.O.+.#.#.#.O.@.u.u.y.O.O.y.@.@.u.$.O.o.+.+.#.o.o.#.#.o.} '                                                                                                                                                                                                                                           ",
"                                                                                                                                                                                              f G y *.b.N.N.F.F.S.Q.^.W.S.L. XY. X).(.)./.L.D.D.D.K.L.D.(.-X*X-X6X3X<X2X-XH.G./.f.f.s.y.Z S I C $ $ $ X $ = X s s 9 Q 2.>.,.m . + @ ,.<.;.m . @ @ 2 ;.n ;.+ . @ o . . . . . . . . . . . . @ . . . . . . X X X 7 5 5 8 T Y R _ _ _ R R R R _ r._ r._ _ _ _ _ _ _ y.O.@.@.O.O.O.O.+.+.*.*.                                                                                                                                                                                                                                          ",
"                                                                                                                                                                                            [ =.&.~ v.M.b.N.V.V.m.M.Q.W.S./.*X-X=X*X X)._.L.D.D.D.D.D.Z.L.XX X XwX6XwXwXuX6XuXgX>X,X,X#XQ.'.'.E.=.3.3.&.' ' E E E f f x = 9 3 . @ @ <.<.;.n @ @ . 4 ;.m ;.+ @ @ . . . . . . . . . . @ . . . . . . o X s E d D 3.*.h.h.'.^.].].].,X,X,X,X@X,X,X@X_././.`.`.~.~.~.n.b.l.l.g.g.g.g.l.h.v.E.                                                                                                                                                                                                                                          ",
"                                                                                                                                                                                            ' X.P I h.M.b.n.n.n.M.m.W.W.S./.*X=X=X*X X X).L.D.D.D.D.D.D.L.*XXX XwX6X3X6X6XwXuXgX=XXXXX_.F./.`.m.u.h.R.+.K I L L L W E d = = $ X + O <.;.] Q . @ . < ,.;.<.@ @ + . . . . . . . . . . . . . . X X X o X r F D C }.h.g.i.^.W.~.`._.XXXXXXoXXXoX=XXX XL.G./.L.D.D.D.V.k.k.j.s.p.g.p.i.g.v.}.                                                                                                                                                                                                                                          ",
"                                                                                                                                                                                            &.X.| / h.b.v.b.n.n.M.m.W.D.S./.=X-X-X X X X).L.F.K.K.F.D.D.L.*XXX XpXwXwX9XwXrXwXuX.X X XP.x.C.C.d.r.r.y.Y Z Z S Z K K C 8 5 $ X X X X E Q ] Q X X . & ;.;.;.+ . . . . . . . . . . . . . . o . X X X X X 7 V C B u.y.y.r.V.C.C.G.G.Y.Y.Y.OXY.Y.|.Y.|.G.J.G.G.Z.Z.D.x.d.k.j.f.i.i.a.i.j.g.v.                                                                                                                                                                                                                                          ",
"                                                                                                                                                                                            *.*.h.h.u.i.$.a.b.b.N.n.G.G.Z.(.>X>X-X X X XXXL.D.~.~.F.F.D.L.XXXX X9X:X3X3XeXjXhXhXhXhXgXiX6XuXuX6X>X>X8X_.~.^.Q.u.h.h.+...&.&.W W W W J d f f $ # $ X & @ + . . @ . . . . . . . . o + # * j j j E &.X.P *.R.R.n.8X5X5X1XiXiXwXpXiXiXwXwXpXwXwXwX6X4X-XoX>X*XXX_.XXL.D.W.Q.S.m.m.k.n.s.s.M...=.'                                                                                                                                                                                                                                     ",
"                                                                                                                                                                                            3.*.h.l.u.u.%.$.b.N.s.n.G.G.Z.`.>X=X=X.X X XXXL.D.L./.F.D.D.L.XX*X XeX3X3X:XrXjXhXiXhXhXhXiXwXpXwX3X+XoX>XL.G./.W.a.y.u.@.+.| ..} L L ' y D D d 5 = = = O ; + . . . . . . . . . . . + * # # j j d J ..^ S h.M.S.d.5X2X1X;XeXeXeXaXsXhXpXpXiXeXwXwXwX6X;X-X>X=XXXXX_.L.G.W.W.S.m.m.j.k.k.M.g.#...&.f                                                                                                                                                                                                                                   ",
"                                                                                                                                                                                            *.*.h.h.u.u.%.$.b.b.N.m./.G.G.XX>X>X=X-X X XXX).(.).`.D.D.D./._.`.(.6X3X3X:XwXhXiXiXaXaXhXiXwXwXuX4XoXoX=X(.G.L./.a.s.p.i.O.o. . .} ! } F F F F 7 0 0 7 # # # o . . . . @ . . . . . o # X # d y V K  .( Y p.~.S.x.7X7X2X4XuXiXiXiXhXhXiXwXpXpXwX3XwX3X;X2X=X>X XXXXXG.D.!.D.A.m.A.j.j.b.b.u.@.+.X.F                                                                                                                                                                                                                                   ",
"                                                                                                                                                                                            *.$.u.h.@.%.%.%.M.b.b.m./.!.L.XX=X=X=XoX XXXXX X(.).).G.G.L.L./.L.L.6X3X1X:XwXhXiXiXjXhXjXhXeXuXpXwX3X2X2XoXP.(.).f.s.s.p._ y.O.O.R T #.S U U U 8 8 y 7 $ $ # X X . X . . . . . X X X $ = 5 H U Z Y O._ ` m._._._.dXtXtXtXdXgXgXzXzXzXgXpXiXiXwX6XwXwX;X1X=X>X(.XX).L.D.G.D.m.M.m.p.i.g.g.$.@.+...F                                                                                                                                                                                                                                   ",
"                                                                                                                                                                                            *.o.*.h.#.) ) %.R.m.M.S.).(./.*X>X=X=X-XoX=X=X X). X`.L.L.L.L.G.D.G.<X-X.X.X3XiXwXwXjXlXlXlXlXlXxXlXlXxXxXzXhXzXzX7XtXtXtX*X,X8X,XW.^.'.m.M.M.v.+.@.*.=.X.X.&.' ' ' W J F J E W W K *.v.h.g.#X].`.#XvXkXtXZXGXGXZXGXGXGXFXFXFXFXFXFXFXZXxXxXxXjXhXjXhX3X4X4X4X XXXXXL.G.G.W.n.m.b.a.i.i.g.u.@.$.@.J                                                                                                                                                                                                                                   ",
"                                                                                                                                                                                            *.+.*.h.#.) ) _ Q.m.M.S.`.(.(.*X=X=X=X;X=X=X=XXX).).).G.L.L.L.D.D.D.2X=X-X-X6XiXpXwXlXlXlXlXlXlXlXlXlXlXlXhXaXaXhX4X4X4X<X|.XX>XXXc.F.S.s.s.s.a.) #.o./ I P P K U U U B 8 B C C C C #.o._ _ D.F.Z.L.8X5X,XvXZXZXZXZXFXFXFXZXZXZXFXFXFXZXxXxXZXhXhXhXhX3X3X4X4X XXXXX/.G.!.W.n.M.M.p.i.i.h.u.+.@.+.F                                                                                                                                                                                                                                   ",
"                                                                                                                                                                                            =...+.$.o.#.) _ S.n.M.S.).(.(.XX=X-X-X=X-X=X=XXX).). XG.L.L.G.D.F.D.>X=X=X=X6XiXuXrXlXlXlXlXlXlXlXlXjXjXjXaXiXeXiX:X3X;X;XY.OXOXH.x.c.c.z.r.r.R Y Y R S C C C 8 8 8 8 5 5 5 5 8 8 5 Z S Z Z a.a.z.d.>X=X>XkXZXZXZXFXZXFXFXZXFXFXFXFXFXZXxXxXZXhXhXhXjX3X3X4X6XXXXX=X)./.).`.n.M.M.g.g.g.g.$.$.$.$.K                                                                                                                                                                                                                                   ",
"                                                                                                                                                                                            ' I P I | o.o.%.W.n.n.D.).).(. XXX X.X-X-X=X=XoXXXXX=XP.(.(./.L.D.G.).(.(.(.=X4X1X1XwXpXpXiXjXjXjXjXjXlXlXjXjXjXlXaXhXaXiX9XwXwX0X<X2X5X>X>X,X,X,X,X,X#X^.'.'.^.^.^.'.E.E.E.E.^.^.R.&X&X#X#XAXkXgXkXZXxXcXFXGXFXFXGXHXGXGXGXGXGXGXGXFXZXcXxXZXpXpXpXpX+X+XoXoXJ.G.L.Z.V.V.A._ u.y.) ) ) ) / o.+.+.L                                                                                                                                                                                                                                   ",
"                                                                                                                                                                                            W V H C | $.O.u.~.A.A.D._.).(. XXX X X-X-X=X=X-X-X=X>X(.(.)./.L.D.L.L.L.L.L.XX>X-X-XwXwXwXeXhXhXsXhXjXlXjXhXjXhXjXeXaXiXeXwXeXeXpXwXpXeXwX3X6X5X2X>X5X,X_.#X_././.~.`.~.~.~.~.`.`./.8X8X5X6XZXxXzXcXFXZXZXFXGXGXGXHXHXHXHXKXKXHXGXGXGXZXZXZXZXuXuXpXpX+X+XoXoXZ.G.G.Z.V.A.S._ o.o.T T T T T +.@.+.X.                                                                                                                                                                                                                                  ",
"                                                                                                                                                                                            ' H L C +.$.o.a.~.A.S.W.XX).`.*XXX X X-X-X-X-X-X-X=X>X(.(.(./.G.D.G.L.L.(.(.XX>X=X=X4XwXwXeXhXjXsXhXjXjXjXhXjXhXjXgXaXaXiX9XwXwXrX9XqX9X:X3X3X3X;X=X<XoX(.(.P.G.L.L.G.L.P.L.G.P.(.H.2X7X3X3XxXlXjXlXZXZXZXFXGXGXGXHXKXKXKXKXKXHXGXGXGXZXZXZXZXpXpXpXpX;X;XoXoXJ.G./.D.V.S.Q.) o.o./ T / P T +.+.+.X.d                                                                                                                                                                                                                                 ",
"                                                                                                                                                                                            ' V J V  .+.O.p.~.D.S.D._._.`.*XXX XXX-X=X-X-X-X-X XoX X(.(.L.G.D.G.G.L.L.(.XX>X<X=XwXwXwXiXjXjXhXjXjXjXjXjXjXjXjXiXhXgXeXwXwXrXrXwXqXrX3X9X3X3X;X=X2X=XP. XP.P.J.G.J.G.U.U.H.H.J.J.-X;X;X6XlXlXjXlXZXZXZXGXGXGXGXKXKXKXKXKXKXKXHXGXGXZXZXZXZXiXpXiXpX+X<X>X>XG.G./.D.V.W.^.o.+.+.^ ^ ^ } P @.o. .} W F E                                                                                                                                                                                                                             ",
"                                                                                                                                                                                            ' G J V ..*.$.p.W.A.S.D.`././._.XX XXXXXXXXXoX=X=X=X=XoXXXXXXXL.L.(.(./.L.(. X*X*X X4X6X4XwXgXgXiXjXhXhXaXhXhXhXhXiXiXpXeXwXwXrXwX6XwXwX:X3X1X<X>X=X=XXX(. X(.).P.). X4X4X4XpXhXhXgXlXxXjXjXxXlXjXlXxXZXcXZXFXGXFXKXHXKXHXHXKXKXHXGXGXZXcXZXZXpXpXpXpXoXoX=X>XD.D./.W.A.S.Q.( } ..P I I I K +.+.+.| X.W [                                                                                                                                                                                                                             ",
"                                                                                                                                                                                            ' G G V ..h.u.p.S.V.n.n.D.V.V.L.(.(.).).).). X-X=X=X=X-X>X2X=X).).XX(.P.P.L.(.).(.(.G.J.J.H. XY.Y.oX3X3X1X9X0X9X0X9X9X9X3X:X;X;X;X.X=X=X(.).).)./.!./././.)./._.XX*X XuXpXwXhXlXxXlXxXxXlXlXlXlXlXxXlXlXzXZXZXZXAXGXHXKXHXHXHXHXGXGXFXcXkXzXzX<XoXoX+XH.G.G.!.d.d.k.s.a.a.u.C C V y V V y y | ..X.^ } ' =.                                                                                                                                                                                                                            ",
"                                                                                                                                                                                            ' y G y ..h.u.p.S.V.n.S.~.S.S.`._.).(.).).). X-X;X;X=X-X<X2X>X X XXX(.(.(.(.(.(.).(.P.P.G.P.oX X X<X3X1X1X9XwX0XwX0XeXeX0X3X1X3X;X=X<X>X).XX_._.).)./.).).).(.*XXX*X|.pXuX4XiXlXlXhXlXlXxXxXlXlXzXlXlXlXzXxXZXZXZXGXHXHXHXGXGXGXGXFXGXZXzXzXlX2X;X=X=XH.H.!./.k.n.n.b.p.i.h.C V D D D y y y ..+...} T P =.                                                                                                                                                                                                                            ",
"                                                                                                                                                                                            J J H y ..h.u.p.S.m.M.M.S.S.S./._.).)._.XX X X=X<X;X;X-X;X=X=X X XXXP.P.P.P.(.(.(.(.L.L.G.(.XX X X>X4X3X<XwXuX0X0XwX9X0X4X1X<X3X3X;X;X;X(. X X X(.(.(.(.(.P.P..XY. X|.uX6X6XhXzXzXzXxXxXxXxXlXlXlXzXlXxXlXxXZXZXZXGXGXGXGXGXGXGXGXFXGXxXzXzXlX3X<X<X=XG.G./.`.k.n.m.j.p.u.h.y d d d d d y y ....X.} ^ ^ =.                                                                                                                                                                                                                            ",
"                                                                                                                                                                                      W W &.H V H y | $.%.u.A.n.M.M.S.S.S./././.G./.).(.(.XX-XoX.X-X-X-X=X=X=X=X X X X X X).). X(./.L.(.`.(.(.).*XXX X<X1X;X3X0X3X9X4X1X1X3X<XoXoX-XP.(.(.(.(.(.P.(. X X X3X;X:X<XpXuXuXjXjXjXjXjXjXjXjXhXhXzXzXjXjXhXlXxXxXxXFXFXFXFXFXFXZXcXzXZXgXpXpXiXoX X XXXJ.G.D.~.j.k.b.p.u.u.h.y d f t t f t 8 W } W P ^ T =.                                                                                                                                                                                                                            ",
"                                                                                                                                                                                    1.E.}.}.C K G y | +.#.%.M.j.b.g.M.n.n.S.A.F.V.D.L.G.G.(. XY. X.X-X.X-X2X2X<X<X;X<X2X>X=X>X>X/.G.G.G.Z.Z.Z.V.V.B.B.G.I.J. X;X4X4X3X;X=X;X.XH.(.).G.L.G.G.G./.(.XX>X>X2XgXuXgXiXlXjXjXlXlXjXjXjXjXsXaXiXiXaXiXaXgXeXjXzXzXzXZXZXZXcXcXcXhXpXpXwX;X.XoX<XH.H.P.L.x.V.V.A.a.i.i.u.O.@.*.y d f 7 = 7 5 = F U C A P I &.                                                                                                                                                                                                                            ",
"                                                                                                                                                                                    3.*.}.}.C A H y X.o.#.%.m.j.M.b.M.M.M.A.A.F.S.~./.G.L.(.).P. X-X=X.XoX<X2X;X;X;X;X;X=X-X>X>X(.G./.L.Z.D./.F.F.F.Z./.L.G.XX4X4X4X2X=X=X>XoXP.(.).G./.L././.(.G. X>X>X=XuXrXiXeXhXhXjXjXjXjXjXaXsXsXaXaXaXiXiXgXgXeXjXlXlXzXZXxXxXxXxXxXlXsXaXhX0X<X<X4XP.P.(./.V.V.A.Q.i.g.g.u.o.@.=.y d f = = 6 = = F F D H P I &.                                                                                                                                                                                                                            ",
"                                                                                                                                                                                  8 *.h.}.*.H J J V X.+.o.%.M.b.M.b.M.m.m.S.Q.S.D.~./.L.L.`._.).).=X*X-X=X2X<X<X;X;X;X;X-X-X=X=XP.G././.V.D.D.D.W.V.S./././.XXtXtXtX4X2X>X>XXXP.(.(.P.G.G.L.J.G.G.XX<X=X<XiXgXiXaXlXlXlXlXlXlXlXjXjXhXhXsXsXsXaXhXsXsXjXlXlXlXZXZXZXZXxXxXlXhXhXsX3X<X2X4X(.).)./.A.S.A.S.i.l.g.u.+.*.=.y f f : 6 : : # J J D F P I &.                                                                                                                                                                                                                            ",
"                                                                                                                                                                            J ' ..| $.+.@.=.V V D y ' .. .o.b.p.p.s.s.b.s.b.n.n.n.F.S.F.S.D.L.K.L.).). X X<X-X-X3X3X3X3X:X;X;X1X X).).(.Z.G.D.W.D.A.F.D.D.F.J.).J.G.H.(.).XX X(.XX X(.(.). X XXX(.oX<X-X;X3X3X3X:X9XwX3XwXwX4X0X1X;X;X;X;X:X:X:X0X9X9X0XeXwXeXsXiXiXiXiXiXeX9X9XwX;XoXoX>XZ.D.D.D.d.k.k.m.y.u.u.+.| ..X.8 0 f : $ ; : # f f d F K K '                                                                                                                                                                                                                             ",
"                                                                                                                                                                          b [ X.=.| +.#.+...V d y 8 W } ^ / v.a.p.p.j.b.j.b.n.n.n.S.S.S.F.D.K.D.D.(.(.(.|.=XoXoX3X4X3X3X3X:X:X1X-XXXXX(.C.D.D.D.A.S.F.V.V.C.Z.C.J.G.P.(.(.(.|. X X|.(.(.(.). XXXoXoX<X;X;X1X;X3X:X3X3X3X9X3X3X3X+X.X.X.X.X-X;X;X3X1X:X3X0X9X0XpXeXeXwXwXeXwX9X9X0X.XOX XXXC.V.V.A.f.k.j.j.O.O.@.| } X.X.0 0 a : ; ; ; O s f d D K H '                                                                                                                                                                                                                             ",
"                                                                                                                                                                          E W X. .+.@.@.+.} y y d t W X.^ / v.i.p.p.g.b.j.j.b.j.j.n.S.S.S.D.K.D.D.`.).). X<X=X-X3X3X3X3X3X:X:X1X-X XXX).C.D.D.D.A.S.V.V.C.Z.J.Z.C.J.G.(.(.(.(. XXXXX X X(.). X|. X X-X;X;X3X:X3X;X:X3X3X3X3X3X3X;X;X+X+X;X;X;X;X1X:X:X3X0X9X0XpXiXiXeXeXeXwX9XwXwX+X.X.X=XC.C.A.S.s.k.j.l.O.@.@.+.X.X.&.0 f x 1 1 3 ; # s f f d K H '                                                                                                                                                                                                                             ",
"                                                                                                                                                                          d F ..$.$.#.| +...D G d t ' ' ^  .v.h.h.g.v.b.b.b.M.b.M.m.S.S.S.~.~.K.Z.(.P.(.(.=X-X-X3X3X3X3X3X3X3X1X-X-X=X).C.G.D.D.A.S.V.A.C.B.C.C.U.U.J.P.|.|.|.|. X X(.(.P.P.oX|.|. XoX.X+X:X:X:X3X:X3X3X3X3X3X3X+X+XoX.X-X;X;X;X3X3X1X3X0X0XwXiXeXeXeXeXeXwX9X9XwXoX.XoX=XC.C.A.A.s.j.g.l.#.o.+...X.&.&.f x x 1 < < ; # s f f J L H '                                                                                                                                                                                                                             ",
"                                                                                                                                                                        f E H ..*.$.S C A V 5 5 7 = d G C S %.) o.%.$.u.u.u.i.a.p.s.b.s.s.n.n.V.V.L.G.G.P.oXoX.X3X3X3X3X3X3X3X3X=X=X>X XZ.G.D.D.k.n.V.).@XXX>X2X2X<X<X3X4X2X<X<X=XoX X X|.oX6X6X6XwXpXwXeXhXsXaXiXeXeXpXwX9XwXwX;X;X;X;X;X;X;X;X+X+X+X;X;X;X:X9XwXwXwXeXeXwX9X9X0X.X.XoXXXV.V.V.m.i.p.i.u.#.#.| ..X.&.&.f x v 2 < < & o X X X 5 L H '                                                                                                                                                                                                                             ",
"                                                                                                                                                                        f F U ..+.u.I A F G 0 t 7 7 G G A K $.o.o.%.u.u.u.u.p.u.p.j.b.s.s.M.S.F.V.L.G.G.P.-X-X.X3X1X1X3X1X:X1X3X=X;X>X XC.D.D.F.V.V.V._.*X).XXoX=X=X;X;X<X<X=XoX-XXX(.(.P.oXuXwXwXwXpXwXeXsXaXaXhXeXeXeX9X3X3X3X<X;X;X;XoX.XoXoX;X;X;X;X;X;X1X0X9X9X0XwXeXwX3X3X4X.X XXX*XV.V.V.m.a.p.u.h.| | | &.' &.&.f v m 2 + + + X . . X 6 W F '                                                                                                                                                                                                                             ",
"                                                                                                                                                                        0 J H ..+.h.I U J J t e r 7 J J H P *.%.+.$.h.h.h.i.h.i.p.g.g.g.b.m.S.D.S.`./.L.(.>X>X=X3X3X1X3X1X1X3X3X;X;X<X XC.Z.D.F.V.n.d.).*XXX>X>XoX=X;X;X<X<X;XoX=XXXP.(.H. XuX6XwXwXpXeXeXsXaXaXhXrXeXeX9X3X0X9X;X;X;XoXoXoXoX-XoX;X;X;X;X;X1X0X0X0XwXwXeX0X3X3X4X.X XXX*XV.V.V.m.i.g.h.h.| | } &.&.&.[ f v m 2 < + + O . . X 9 E J {                                                                                                                                                                                                                             ",
"                                                                                                                                                                        0 F C ! } =.V 8 y f 6 > 6 - d G V K  .^  ./ +.$.o.$.u.u.i.g.g.g.g.b.m.n.n.~.L.L.(.(. XP.2X;X;X;X;X1X;X;X.X.XoX(.J.G.G.V.V.n.k./.).).).XX X X.X.X.X.X X X X(.XX X XoX1X3X1X9XpXwXeXeXiXaXiXhXsXaXeXeXwXeX;X;X;X;X|. X|.OX.XoXOX;X;X;X;X9X0X9X0XwXiXwX1X3X3XOX(.(._.d.k.k.b.y.u.$.@.} | X.X.' [ >.9 x M ; & O + # o . o 6 E d Q                                                                                                                                                                                                                             ",
"                                                                                                                                                                        6 D y W ! X.y 7 0 e - - - * t d y A ' I ~ ^ +.+.o.%.*.u.u.g.g.g.p.b.n.n.n.~./.L.L.L.L.G.<X=X=X;X;X<X<X3X X X X(.G././.F.k.d.d.G./.P.(. X|.|.|.|.|.|.P.P.P.P.XXXXoXoX<X;X;X3XwXwXwXeXeXiXaXhXjXhXaXiXpXiX;X;X<X=X|. X(. X|. X|.;X;X;X;X9X9X9XwXeXiXwX;X<X1X|.P.(._.d.k.k.l.@.@.@.+.T } ' ' ' { :.: s l ; ; # # # o . X : x f b                                                                                                                                                                                                                             ",
"                                                                                                                                                                        6 D y K W X.y 7 6 e > > - - f j y G ' ~ ~ ~ ..+...$.h.u.u.g.g.g.g.b.b.n.n.~././.G.D.G.G.>X>X>XoX=X<X;X1X X XXX XL././.F.V.n.d././.P.(. X X X X X X X(.P.(.).>X=XoXoX;XoX;X3XeXwXeXiXiXaXiXhXhXaXeXeXeXpX;X;X<X=X(.|.(.|.|. XY.;X;X;X;X3X3X9XwXeXiXwX;X<X4X|.(.)._.k.k.j.l.O.@.+.+.T ' ' X.' { [ : u p , # # $ # X . . X .                                                                                                                                                                                                                                 ",
"                                                                                                                                                                        f F D F U W 7 7 6 > , , * * r d y V ' L ' ~ .... .$.*.*.$.h.h.i.i.g.b.j.n.~././.~.D.D.D.>XXXXXXXoX<X<X<X X|. X(.G.G./.F.V.V.V./.G.G.P.(.(.(.P.P.(.(.P.J.G.G.(.P.P.|.<X;X.X3XwXwXwXiXiXaXhXjXjXhXaXaXiXiX;X;X;XoXP.(.P.(.|.|.P.;X1X;X;X9X9X9X0X9XwX0X+X;X<X(.G.!./.s.s.l.g.O.o.+...T X.' X.W W [ = 9 9 , * = : : : # O o                                                                                                                                                                                                                                   ",
"                                                                                                                                                                        f J D D y F 5 = = * % O * O 6 t 0 t L K H K P I I | o.#.o.%.$.%.u.i.p.p.a.j.s.d.k.d.n.d.Z.V.C.C.J.(.|.|.P.H.(.G.C.C.D.F.F.F.V./.G.G.G.(.H.P.H.H.(.(.G.Z.J.D.J.C.C.H.<X;X;X3XiXpXiXhXjXjXjXjXlXjXhXsXsXaX;X+X+XoXH.(.G.P.(.P.H.;X3X3X3XeXwXwX0X1X3X1XOXOXoXG.F.F.W.z.a.i.u./ | | | P ' ' W U E E X * * # = = 6 6 9 : #                                                                                                                                                                                                                                     ",
"                                                                                                                                                                        f J J D d F 5 = = * * * * # e r 0 y L L L L ' P P ..+.+.#.O.%.%.u.i.p.p.p.n.j.s.n.n.n.n.D.Z.D.Z.L.XXXXoXP.P.(.G.C.V.D.Z.F.F.C./.G.G.G.P.(.(.(.P.(.(./.Z.G.G.J.Z.J.H.2X<X;XwXaXiXaXjXjXjXjXjXlXjXhXsXsXaX+XoXoXXXG.P.G.(.(.P.H.<X0X0X9XeXwXeX0X3X3X1X.XOXoXJ.F.D.W.i.i.i.u./ / | | I W W W W W Q X o o * = = 7 7 6 , O                                                                                                                                                                                                                                     ",
"                                                                                                                                                                        f J J y d d 5 = = = * * * * e r t y ' L L K P I I  .+.o.o.$.u.$.u.g.j.j.j.n.j.j.n.n.n.n.K.D.D.D.L.XXXXXX(.(.(.L.Z.C.D.A.V.V.B.L.L.L.G.G.G.P.G.G.L./.G.C.F.D.F.Z.G.P.4X<X3XeXhXaXaXlXlXlXhXjXlXjXjXhXhXhX;XoXoXXXG.(.G./.|.(.H.<XwX9X9XwXwXeX0X1X3X3X.XXX@XG.D.D.~.i.i.g.u.| | | X.P W W W L W Q X o o , = 6 7 6 6 :                                                                                                                                                                                                                                       ",
"                                                                                                                                                                        f J J y d d 5 = = = = * = * r t t d ' W ' P X.^ ^ +.$.%.o.$.u.$.u.g.g.j.p.b.j.j.n.n.n.n.S.V.V.V.G.). X XP.G.P.L.Z.F.D.F.F.D.Z.).XXXX X X XXXXXXXXX*XXX).(.).(.G.J.G.>XXXOX;X4X3X3XwXeXrXiXaXhXaXaXaXaXaX;X+XoXXXG./.G./.(.H.H.;X0X0X9XwXwXeX3X;X;X;XOX|.XXG.F.S.W.a.i.i.u.T T | } I L L L D F E X o o * * = = = $                                                                                                                                                                                                                                         ",
"                                                                                                                                                                        d W J y y D 7 5 = = - - - * f f t G X.' ' ~ } ^ ^ +.$.$.O.$.u.$.u.g.v.j.j.b.j.n.n.V.n.V.n.n.V.d.C./.(.P.J.G.G.G.G.G.D.D.F.D.V.*X>X=X=XoXoXoX-X<X1X<X=X=X=X2X(.(.).(.G.G.J.G.P.OXY.3X+X:X3XeXiXeXeXeXeXeX+X;XoXXXG.G.!./.(.P.H.;X3X3X3XeX0X0X1X.X.X.XH.H.|.Z.C.S.Q.y.y.$.@.T T } } I L W L y d f X o O , , , # #                                                                                                                                                                                                                                           ",
"                                                                                                                                                                        f E J t y f 5 = = = = = - * f t t D X.W ' ~ | ^ ( o.+.@.%.$.u.$.u.g.g.g.g.b.j.n.n.A.n.V.V.n.V.V.F.).).(.G.G.G.G.G.G.D.F.Z.Z.V.XX>X*X=XoXoX.XoX;X1X;X-X-XoX<XP.). X).L./.G.(.|.|.Y.3X;X3X1XeXiXeXeXeX0XeX+X;X=XXXG.G.!./.(.P.H.;X3X3X3X9X0X0X3X.X.XoXP.(.).Z.C.D.Q.u.u.$.@.T T } } I L W L y d f X o # 1 ; # o                                                                                                                                                                                                                                             ",
"                                                                                                                                                                        f Q E 0 t f = = * , , * * # i t t d X.P ~ ~ | ^ ^ +.$.$.O.$.$.$.u.g.v.g.g.b.j.n.k.n.n.n.V.n.V.V.D.).).(.G.G.G.G.G.D.D.D.Z.F.C.XX>XoX>XoXoX.XoX;X3X<X;X;X<X<XY.P.|.(.G.P.P.). X(.P.3X;X1X3XiXaXiXeXeXeXiX+X;XoXXXG.G.G.G.(.P.J.=X4X3X3X9X0X0X3X.X.XoXP.P.(.C.V.S.Q.u.$.$.@./ T } } I P W W y d f X . O 1 1 ;                                                                                                                                                                                                                                               ",
"                                                                                                                                                                        a E E f f a 6 , * * = * * # f d t D ..! P P / ( (  .o.o.o.%.%.%.$.u.i.i.i.b.j.j.n.A.n.V.A.V.V.V.D./././.G.G.G.G.G.G.G.G.J.G.J. X@XoXoXoXoXoXoX<X<X;X<X1X;X+XY.P.Y.P.G.G.J.G.G.H.P.<X<X1X0XpXaXiXpXeXiXpX.X;XoXXXG.L.!./.).(.G.>X4X4X3X4X4X4X<XXXXXXXP.(._.F.A.S.Q.u.u.$.+.T T } } K L L U t t f # o O , >                                                                                                                                                                                                                                                 ",
"                                                                                                                                                                                  o . . O O - - - * f d d J =.| ....$.+.+.$.$.$.$.$.%.o.o.o.o.o.) u.u.a.a.k.d.k.V.k.k.d.V.F.C.V.G.G.G.G.L.L.L.L.(.!.!.).XX|.|.(.(.H.(.|.(.(. X=X;X;X;X;X3X1X;X;X4X2X<X<X=X>XXX=X.XoX;X+XoX+X+XoXH.P.P.H.C.C.F.F.D.F.V.(. X|.|.oXoXoXXX(.).).J.G.G.d.f.j.b.) #.#.| T T T P U F F d 7 7 0 = # # #                                                                                                                                                                                                                                                   ",
"                                                                                                                                                                                  o o o o o , - - * d G G L *.+... .$.%.o.%.+.+.$.$.%.o.o.#.#.#.O.i.u.a.p.n.n.n.V.k.V.V.V.D.C.Z.G.G.G.G./././.(.(.(.(.(. X(.(.G.J.J.G.(.L.L.XX2X<X;X3X;X3X1X1X3X<X;X-X<X=X=X=X=XoX.XoX.X.XoX+X.XP.(.(.(.Z.D.D.D.D.D.C.).XXXX XoXoXoXOXH.(.).D.D.G.d.s.j.b.) #.o.| P T ! P C D D y 7 7 6 6 > $                                                                                                                                                                                                                                                     ",
"                                                                                                                                                                                  . o O O o > - * * d G D H *.+... .%.O.o.%.%.$.$.O.o.+.+.o.o.%.o.u.u.a.a.n.k.k.k.d.V.k.x.V.V.C.G.G.G.L.P.L.L.(.(.L.)./.).).(.G.G.G././././.#X5X<X;X4X;X;X;X;X3X3X;X;X;X;X=X=X=X;XoXoXoX.XoXoX XP.(.P./.C.F.F.A.S.S.V.).XX X|.oXoXoXXX(.).).D.D.D.s.i.p.l./ | | | P T W P D D D y 7 7 7 6 9 =                                                                                                                                                                                                                                                     ",
"                                                                                                                                                                                  . o O O O > = - * d G V K *.o. ./ O.O.o.%.%.$.$.o.o.+.+.o.o.+.O.h.g.p.j.Q.W.D./.W./.D.D.D.Z.D.G.G.G.L.L.G.G.L.P.L.(.G.(.L.G.D.D.F.Z.Z.V.B.Z./.P.P.<X;X<X;X;X;X;X;X;X+X;X;X<X;XoX.X.X.XOX XoX|.(.).(./.V.A.A.A.D.D.V.(._.(.H.(.H.H.H.J.G.!.V.V.D.s.i.g.l.| | | } I P W L V d d t 7 7 7 6 s ,                                                                                                                                                                                                                                                     ",
"                                                                                                                                                                                  o O % * O 6 = - * t D y C +./ ( / ) _ O.) O.O.O.o.o.o.#.#.o.o.o.b.g.p.j.~.D.K././././.G.D.G.D.G.G.J.G.J.J.G.C.U.C.J.C.C.J.Z.C.B.C.B.d.x.x.B.D.Z.C.>X<X<X;X;X;X;X.X:X.X+X.X;X;X;X.X XoX|. X X).(././.W.V.S.V.V.A.S.A./.).(.H.H.H.H.H.J.G.G.c.V.S.a.i.i.h.| } } } K W L W d f f t 7 7 6 9 s 9                                                                                                                                                                                                                                                     ",
"                                                                                                                                                                                o O O * * # r 7 - = d J K ^ R.M.b.b.M.M.M.v.l.b.v.h.u.u.$.$.$.$.O.v.p.p.n.]./.`./././.)./.G./.G.).XX X=X>X<X<X<X<X<X1XoX XXX XXX).XX(.J.J.Z.Z.L././.). X X|.<XoX+X.X3X:X9X9X9X1X1X+XoX=X|. X).).!.!./.W.n.A.m.S.S.A.V./.(.H.H.H.Y.P.H.J.G.G.V.A.W.i.i.h.h.} } } X.J L W E f f f f 6 7 0 0 s 9                                                                                                                                                                                                                                                     ",
"                                                                                                                                                                                ; , , 6 e 7 f t k r J L H ^ ^.M.M.M.S.m.m.b.j.l.b.g.i.i.$.$.$.$.%.g.p.p.d._.).(./.L./.(.L.J.G.J.XXXXXX<XtX4X4XwXwXwXeX3X+X;X<X2X2X4X4X2X3X3X1X2X,X,XJ.G.H.H.6X<X3X3XeXwXqXeXeXaXwX3X3X2X|.|.(.).f.f.s.i._ _ _ y.s.f.z.V.G.G.H.OXOXOX|.H.)./.V.A.m.O.O.o.+.K H H D 8 t t 0 # X X X X X = 6 9 6                                                                                                                                                                                                                                                     ",
"                                                                                                                                                                                + * = - 7 7 d t d t J L A ( ^.n.b.m.S.V.S.b.j.k.j.i.u.i.$.%.$.$.$.u.a.a.s.*X(.(.(.(.P.(.G.Z.J.Z.XXXX X<XuX4X3X9X0XwXeX1XoXoX<X4X2X1X1X<X3X3X:X;X>X5XZ.J.H.G.4X=X;X<XwXeXwXeXeXeX0X3X3X3X|.(.(./.f.f.s.i.O.O.O.i.j.s.z.D./.G.H.oX XoXOXP.(.!.V.k.R.O.#.+.+.K H J G 8 t f r X X X . . X = 6 9 :                                                                                                                                                                                                                                                     ",
"                                                                                                                                                                                * * - 7 7 7 d t r r G K A ( ~.n.n.n.F.V.S.s.s.d.j.a.a.i.u.O.O.O.%.u.p.f.d.*X). XP.P.P.(.L.J.G.J.XX=XoX2XpXwX0XeXeXiXiX3X;X<X<X4X4X1X<X<X+X+X+X;XoX=XC.C.G.P.>X<X<X<X3X1X:XwX0X9X3X1X1X3X|.).).).d.f.j.g.O.O.#.u.g.g.a.S./.D.J.oXoXoX|.!./.W.n.n.R.O.o.+.+.K H J G 7 t r 9 . . X X . X = : 9 :                                                                                                                                                                                                                                                     ",
"                                                                                                                                                                                * - - 7 7 7 d t t t J L S ( `.V.n.V.Z.C.F.n.d.k.n.s.a.i.u.O.O.O.O.p.s.f.d. XP.Y.P.P.P.(.G.J.G.Z. X XOX;X4X3X3X3X1X1X1XoX|.OXOXoXoXOX+X3X3X3X3XwX0XwX;XoX=XoX(.|.).XXoXoXOX1X3X9X:X:X<X<X|.(.(./.f.i.i.i.#.#.#.@.g.g.u.A./.D.J.>X|. X)./.`.W.k.j.R.O.#.....H J J J t t s s . . . o . X : 6 9 :                                                                                                                                                                                                                                                     ",
"                                                                                                                                                                                > q e e r r J j j y L } ^ %.8X`.).).XX X*X/././.~.n.j.j.g.i.i.i.u.Q.S.F.Z.*X X.XP.P.G.H.J.B.C.B. X|.|..X;X+X+X.XY.P.P.U.x.C.Z.J.G.G.oX6XwX6XpXhXiXhXhXiXiX2Xx.x.x.C.!.(.P.<X3X3X:X;X+X;XP.P././.r.y.u.O.T #.o.$.l.g.y.m.`.W.D.@XXXXX_./.`.~.m.l.b.o.#. ...H J J G 7 6 9 9 o . . + $ : 9 9 6 :                                                                                                                                                                                                                                                     ",
"                                                                                                                                                                                ; , - - 7 7 j d j d L } ^ O.tX*X*XXXXX XXX/.G.!.`.A.j.b.b.b.b.b.M.#X_.XX=X6X6XwXwX6X6X6X5X>X2X>X=X=XoX;X:X:X1X;XoX-X=X(.G.G.(.).(.G.|.<X=X.X1XwX9X9X:X;XwX4XP.oX>X XZ.x.Z.<X4X4X3X1X3X3XoXoX>X,Xz.i.i.#.Z S Z I Y Y Y y.k.k.d.D.G.F.d.z.y.y.) ) @.Y I K I y y t t X X . o . . . o . . # X X                                                                                                                                                                                                                                                       ",
"                                                                                                                                                                                  > , > = 7 G d j d L } ( y.8XXX XoXoXXX*XL.P.G./.n.s.k.n.b.b.j.j.,X>X XoXwXwX9XwX0X3X0X1XoX=XoX=X=X-X;X1X:X;X;XOX-XoXG.J.G.G.(.(.G. X<X=XoX3XwX9XwX3X3X3X1X X X=X XZ.C.C.)._.XX|.2X<X2XoXXXXXXXz.i.i.o.U I K I T T Y u.k.k.c.D.D.D.j.a.p.u.#.o.@.T K I I y t f u . . . . . . . o . o o o                                                                                                                                                                                                                                                         ",
"                                                                                                                                                                                    O - 6 7 d d d d L } ( r.8XOXoX.X X X*XL.P.!./.V.d.s.s.s.s.s.d.*XXX X.XqXqXqX9X3X1X3X;XoX=XoX=X=XoX;X3X3X:X3X1X<X<X=X>X>XXX!.).(.XX>XoXXX;X3X3X3X9X3X4X;XY.Y.=X).B.V.V.V.V.V.V.P.H.|.|.|.|._.z.a.u.+.U I L P } T Y i.m.k.c.D.W.W.k.i.i.u.o.+.*.P K K L y t f s o . . . . . . o . o O o                                                                                                                                                                                                                                                         ",
"                                                                                                                                                                                      6 i t G d d y ~  .( p.uX<X=X-X X X*XL.L.(.!.A.V.V.V.V.S.S.F.,XXXoX-X9X9X9XeXwX0XwX3X;X<X>X=X=X=X:X3XwXwXwXeXeXpXpXiXiXdX|.H.G.(.(.H.P.oX<X;X.XwX0XwXwX6X6X4X=XJ.G.).c.k.V.C.G.Z.J.G.H.G./.z.y.y.+.Z K K I } T Y i.m.j.k.A.S.Q.j.y.i.$.o.+.+.P K H L y t f u . . . . . . . . . o O                                                                                                                                                                                                                                                           ",
"                                                                                                                                                                                      6 f t G d d y ~ ..( p.uX<X<X=XXX*X*XK.G.L./.D.D.~.~.~././.L.2X-X=X;XwXqXwXiXiXeXuX3X;X<X>X=X=XoX=X2X3X3X9XrXrXeXiXpXuXpXJ.|.(.(.P.J.J.OX<X<X+XhXpXiXiXhXjXlXiXoXXX>Xd.d.d.d.V.x.x.Z./.).`.z.y.y.#.Z C A K } T S i.M.j.s.n.j.n.i._ o.o./ } X.K A V G t 7 u > . . . . . . . . . o                                                                                                                                                                                                                                                             ",
"                                                                                                                                                                                      6 f f G d d y ' +.( p.tX>X>X>XXX>X#XK.D.L./.F.F.D.K.L./.(.P.2X-X=X;XwXwX9XeXiXpXpX4X<X2X<X>X=XoX>X3X2X1X3XwXqXrXrXwXwXuXJ.P.P.H.H.U.U. X4X;X+XhXpXiXiXjXjXjXuX XXX>Xf.d.c.d.V.V.d.F./././.z.y.y.O.Z U K K } P S $.M.b.j.b.b.M.i.#.o.+.| | X.K H G G t 6 9 > . . . . . . . . . .                                                                                                                                                                                                                                                             ",
"                                                                                                                                                                                      : f d G V V y ' ..( p.tX>X>X>X_.*X#X~.L./.L.L.D.Z.V.Z.L.G.J. X X-X-X3XwXwXiXiXiXiXtX5X7X7X,X,X,X5X7X7X7XtXpXeXwXiXeXwX6XH.J.H.H.J.U.J.|.<X<X<XiXiXiXaXlXjXjXrX;XXX=Xf.d.d.k.d.k.k.Q.`.`.`.z.z.z.O.Z Z U A } } P *.R.M.b.M.M.M.u.o.+.+. ...X.J G F G 6 6 9 ; . . o . o o o o .                                                                                                                                                                                                                                                               ",
"                                                                                                                                                                                      6 j d G G G y ~ ^ ( u.,X!./.F.f.d.s.s.d.d.d.).,X*X*X6XhXhXgXjXhXgXiX4X3X5XZ.Z.Z.Z.d.z.f.p.y.r.r.a.s.f.s.d.G.H.Y.3XwXrXwXrXgXhXiX6X6X6X3X<X=X-X;X;X+X;X9X:X9X3X<X<X2X!.!.!./.f.s.i.j.j.j.j.W.W.W.m.T o. .~ A K C ^ +.+.o.O.O.$.) T | ^ K K L y t t t = # * + . . o . ; ; & O .                                                                                                                                                                                                                                                               ",
"                                                                                                                                                                                        E d G G J y ~ ^ ~ %.].W.W.A.r.r.a.p.s.d.t.`.7X<X=XgXcXzXzXhXzXzXhX5X5X7XB.n.n.n.s.y.a.a._ _ _ O.a.a.a.s.C.C.G.6X6X6X6XZXcXxXzXiXgXhX4XoX<X=XP.Y.Y.OX:X;X;X;X3X2X2XXX)._._.y.r.O.y.O.y.y.W.Q.~.Q.) @...~ C A C I T T T T T T T T } I V y d 7 7 7 6 # X O o . . . . ; < ; O                                                                                                                                                                                                                                                                 ",
"                                                                                                                                                                                        E d J H G G ~ ~ ^ %.#XW.~.Q.a.a.a.p.p.N.t.).5X2X2XrXzXlXjXzXgXzXgX7X7XtXN.m.m.m.N.a.a.a.O.O.O.%.p.u.u.s.D.F.D.tXtXtX7XcXcXcXhXiXgXhXwXoX<X=X|. XY.OX;X:X3X;X2X2X2X).(.(.`.y.y.O.i.O.O.u.Q.Q.Q.R.T @.+.I C K C I } I P } / | ^ P P W V d d 7 = 6 > # O O o . . . . ; & ; o                                                                                                                                                                                                                                                                 ",
"                                                                                                                                                                                        f t L H J G ~ ~ ~ $.#X~.^.b.u.p.a.p.y.f.t.*X7X>X>XgXcXgXhXzXcXcXgX7XtXtXn.V.m.m.s.a.a.a._ _ _ u.i.u.u.b.Q.W.~.tXtXtXtXxXcXcXzXgXgXgX0X.X<X>X XXX|.oX;X1X;X=X2X2X5X|.(.(._.z.y._ u.u.u.@.Q.^.^.R.T #. .~ C U A I X.' ' } | | } ~ W ' D d j e - 6 , O o . . . . . . & ; < @                                                                                                                                                                                                                                                                 ",
"                                                                                                                                                                                          7 L L L L ' } I ..R.b.R.v.b.u.O.Q.~.D.Z.>X7X6X6XuXgXuXgX2X7X7X7X>X>X,XV.V.V.V.n.s.k.j.s.j.s.j.j.i.i.j.m.m.m.].#X#X*XtX7X7X6X6X6X6X3X XXX XG.G.G.(.XXXX=X>X2X>X>X|.(.(./.s.s.a.) O.O.o.h.h.l.h.#.o. .P Z K K H J U H L I P P I L J t 7 r = # # $ o . . . . o . o O O +                                                                                                                                                                                                                                                                   ",
"                                                                                                                                                                                            ' ' ' ' ~ I A S T Y Z T b.M.b.kXZXzXzXgXuXgXuX=X X X Xt.t.t.f.t.t.r.G.G.D.G.!.W./.~.~.~.W.Q.A.k.k.m.j.i.a.a.r.r.r.f.x.f.B.U.C.U.U.x.C.C.f.f.f.d.d.x.d.C.G.G.(.|.XX>X_.W.W.m.R Y Y T B B B Z T |  .^ | } W y 8 8 8 D V V V V D d = = = o . o . . . . . o O o o . . .                                                                                                                                                                                                                                                                   ",
"                                                                                                                                                                                            &.' ' X.~ I ~ ^ / ) ) o.b.b.y.tXuXpXuXpX6XuX6X2X=X*X*Xf.V.d.V.k.n.d.D.Z.Z.F.F.D.D.S.S.D.D.A.n.n.n.n.n.j.s.s.f.s.s.D.D.C.G.(.G.H.P.G.G.D.x.V.V.V.d.n.V./._.).(.|.XXXX).V.A.m.R Y T T I U K K  .| | | | } X.y 8 y y y D V D D D j = = , O . . . . . . . o O O o . .                                                                                                                                                                                                                                                                     ",
"                                                                                                                                                                                            &.~ } } ^ I ~ ^ ) O./ O.b.b.z.tXiXwXuXiXuXuXtX8X,X,X8Xd.d.V.V.d.d.d.Z.V.V.B.V.Z.V.V.V.F.S.V.d.d.n.d.k.n.n.s.f.d.f.F.F.C.D.G.G.G.G.Z.D.Z.f.d.d.n.n.S.s.D.`._.).XX X X).V.k.k.) T / | A C A K +...| | T T X.y 8 0 d D V V V d d f = * , O . . . . . . . o O + O . @                                                                                                                                                                                                                                                                     ",
"                                                                                                                                                                                            &.'  .T | P S S / R ( _ p.z.f.tXhXaXhXgXuXgXuX8X,X8X,Xd.f.k.k.s.s.s.L.L.L.L.).*X).).).`.`.L.Z.D.D.V.d.d.B.f.f.f.f.F.F.C.D.D.D.D.Z.C.Z.C.f.f.j.j.s.n.m.~.`._._.=X=XXX(.F.V.s.R S I K A V H I ..| | | +.| X.8 7 7 t d D D D d f f = , # o . . . . . . . O o O o . @                                                                                                                                                                                                                                                                     ",
"                                                                                                                                                                                            ' L P S h.v.v.M.#X].].^.,X*X). XH.H.J.J.B.C.Z.d.d.s.n.A.~.S.D.8XtX>XgXiXgXgXzXxXcXcXxXxXxXzXgXzXzXdX7X5X7XXX).).(.,X@X@XXX).).).(./.G./.C.D.W.m.a.y.y.a.y.z.t.f.f.f.c.V.F.W.m.b.R.E.U H H V y 8 8 C P K W H W W F 8 8 8 8 0 0 6 X O O . . . . . . . . o . . . .                                                                                                                                                                                                                                                                       ",
"                                                                                                                                                                                            ' L ~ Z h.M.M.K.tX>X>X>X5X2X>X/.G.L.W.A.n.n.n.j.s.N.s.~.D.D.K.7X>X2XjXaXhXgXhXxXcXcXcXcXlXlXjXlXlXsXwX6XuX;XY.oX;X2X1X2X+X|.oXOXOX(.(.P.J.G.D.S._ a.y.y._ y.#.i.i.i.f.D.C.D.F.S.Q.R.S S K G 7 7 7 y W L K L L L W 7 7 0 7 7 6 = # O o . . . . . . . o . . . . .                                                                                                                                                                                                                                                                       ",
"                                                                                                                                                                                            ' L ^ S v.M.n.D.7X=X3X1X4X2X>XL.D.D.W.m.n.m.n.s.s.s.f.D.B.V.G.7X<X1XhXaXhXiXhXxXlXzXxXlXlXlXjXjXjXiX9X9XwX-XY..X.X<X1X<X+X|..XOX|.H.P.H.J.!.!.W.r.i.p.i._ O.#.u.u.i.s.W.A.F.F.F.S.m.Y S H V 5 7 0 t W W H L I K L 7 7 0 0 0 0 6 # O . . . . . . . . . . . . . .                                                                                                                                                                                                                                                                       ",
"                                                                                                                                                                                            ' K I Z p.M.n.D.tX;X;X;X;X=X>XL.D.K.K.A.V.V.V.d.d.d.f.XXJ.G.P.<X=XoXhXiXgXgXjXxXxXlXlXlXlXlXjXzXzXiXwXqXeX;XY.OXOX;X;X;X;X X.XOXOXP.P.G.F.W.W.S.r.y.y.a.) O._ u.u.u.y.m.m.A.A.A.A.m.Y I P I 7 7 8 0 d y 8 J W L L 7 7 t 6 7 : : O . . . . . . . . . . . . . . .                                                                                                                                                                                                                                                                       ",
"                                                                                                                                                                                          7 =.X.| T b.S.V.G.tX:X3X3X3X;X=XI.Z.Z.D.V.B.V.C.D.(.`. XZXzXxXZXZXZXZXzXzXzXzXlXzXlXlXxXxXxXlXzXzXcXkXuXuXiX4X<X<X<XtX4X<X=X.X X XY.H.(./.G.G.G.F.z.a.s.i.R ) R _ O.%.o.M.R.M.m.R.Q.Q.) #.+.X.8 8 y 8 5 5 5 D W W W t t f r # X o . . . . . . . . . . . . . . . .                                                                                                                                                                                                                                                                       ",
"                                                                                                                                                                                        d V *.%.$.o.M.S.n.D.tX1X:X;X:X-X-XY.H.P.J.B.x.x.B.G.*X*X*XZXZXFXFXFXGXFXFXxXxXcXzXuXpXsX3X3X2XoX(.`.)./.V.A.Q.k.k.k.k.~.`././.).). XOXY.H.H.H.H.H.G.x.C.F.k.r.y.y.) #.+.o.v.v.v.v.M.R.R.#.#.#.| 8 8 y 8 7 7 5 d ' ' E t f f a X . . . . . . @ o O . . . . . . . @ .                                                                                                                                                                                                                                                                       ",
"                                                                                                                                                                                      a J V *.%.$.) v.M.d.Z.uX3X3X:X3X:X3X;X;X1X2X*XXX*X X2XtXtXuXGXFXFXFXGXGXGXGXFXFXZXzX2X4XpXT.|.(.C.f.f.d.p._ _ O.) ) ) ) p.i.i.k./.(. XOX|.OXOXOX.X.X.X XXX>X_.S.Q.R.T S Z Z S Z C S Y Y Y l.l.l.l.+.*.*.' 7 t t 5 X X 5 E d j f X . . . . . . ; ; 3 o . . . . @ . 4 @                                                                                                                                                                                                                                                                       ",
"                                                                                                                                                                                      f F C i.O.u.o.g.m.s.Z.uX2X3X3X3X:X3X;X=X>X>X).).).).8XgXuXgXFXFXFXFXFXGXGXGXFXFXZXxX2XpXdX.XXXXXG.c.V.V.j.a.a.u._ O._ _ b.j.s.A.@X). X|.|.OX.XOXOXOX X XXX*X/.V.m.R.T T T I S Z C I I I I h.h.h.h.h.h.*.~ t t f = $ $ $ f d d j X . . . @ . . 1 1 9 O . . . . o . <                                                                                                                                                                                                                                                                         ",
"                                                                                                                                                                                      d C B _ ` ` R y.N.t.Z.gX6X6X6XuXtXuX7X7XtXtX,X,X,X*X5XgXgXgXFXGXGXGXGXGXGXGXGXGXFXZXtXpXiXXXXXXX!.c.V.V.s.r.r._ ) ) _ _ b.m.b.W.8X,X@X>X5X>X>X=X=X=X=X>X=X>X/.n.n.m.Z Z Z Z Z Z C I I I T }.R.R.h.h.$.$.P 7 t f $ X $ $ E d d f . . . . . . . 1 1 9 O . . . . . . <                                                                                                                                                                                                                                                                         ",
"                                                                                                                                                                                    E =.} ) ]._._._._.XXXXXX(. X(.Z.B.d.n.p.N.p.b.p.s.s.f.K.8X,X2XzXgXzXgXgXgXgXgXtXtXtX5XXXoX=X(.).(.G.G.!.!.D.W.F.`.f.r.a.y.a.u._ y.r.y.z.z.r.y.i.j.k.k.c.C.J.G.G.(././.A.V.k.m.T T T A H H C P P T / $.o.u.T V d E 5 5 5 5 f t t f X . . . . . o ; 1 3 O . . . . . . <                                                                                                                                                                                                                                                                         ",
"                                                                                                                                                                                    ' *.#.) #X>XXXXX>X>X>XXXP.(.).d.t.r.u.O.O.) O.O.u._ _ S.,X*X*XgXgXgXwX1X;X;XP.Z.J.J.B.x.B.C.C.Z.J.C.C.F.F.F.C.C./.d.z.a.y._ ( R ) R R Y ) _ ) ) u.y.z.z.C.Z.J.H.XXXXXX(.(.`.~.R / / K V V V K K K I o.#.$.^ H J ' 7 5 5 5 t t t i . . . . . . o ; 3 ; O . . . . . . <                                                                                                                                                                                                                                                                         ",
"                                                                                                                                                                                    L +.) ` ).2X>X>X<X<X<XoXP./._.d.y.O.a.$.%.%.o.%.i.%.O.Q.8X,X,XkXgXgXuX6X4X2X XP.G.G.Z.C.C.C.C.C.Z.Z.C.C.C.C.F.F.F.z._ r.u.R ) / T T ) T T ) #.R i.y.z.f.!.G.F.(.oXoX@X X|.`.`.R R T K C V V K I K P +.+.$.^ H G W 5 = 5 5 7 t t s X . . . . . . + ; & o . . . . . .                                                                                                                                                                                                                                                                           ",
"                                                                                                                                                                                    I o._ r.(. X>XXXXXXX=XXX(././.n.s.p.g.%.$.$.$.o.%.%.%.b.^.^.#XyX8X8X,X>X=X=X|.(.H.G.G.G.J.C.(.P.H.(.(.|.|.|.).).).F.n.n.S._ y.y.#.R O.#.#.y.y.#.i.y.i.f.k.c.F.W.!.!.!.`./.W.c.y.y.T T K I K A K K I ..| | T H J W 7 5 7 7 = 7 6 > . . . . . . . o O o . . . . . @ .                                                                                                                                                                                                                                                                           ",
"                                                                                                                                                                        E J L *.*.*.M.R.n.s.W.V.V.B.B.B.V.V.V.V.K.V.A.S.M.i.p.g.g.) ( T S Z Z C B Z Z Y ` p.s.d.G.H.(.|.*X>X>X=XtX7X6XdXhXzXzXzXzXgXzXkXgXkXkX@X_.,X`.s.k.k.S.`.W.S.s.f.z.y.R R R Y Z Z Z R R R y.i.j.g.O.@.+...V A V y V C V F L W ' D J J f # X o O . . . . . . . . . . . . . . . @                                                                                                                                                                                                                                                                             ",
"                                                                                                                                                                      y W I I *.%.%.v.b.j.j.W.A.D.D.D.F.D.D.F.D.D.V.A.A.A.s.s.p.g.) / o.o./ / ( / %.O.u.b.^.S.S.`.XX X).XX-XXXoX2X<X2X6XuXuXwX4XuXwXwX6X7XtXtX(.)._.D.z.f.d.c.W.D.D.f.f.s.s._ _ y.O.T T T +.$.i.#.y.i.p.R #.T | C C V V V D F H J J L D F f f . . . . . . . . . . . . . . . . . . . @                                                                                                                                                                                                                                                                             ",
"                                                                                                                                                              s E J J X.+./ T i._ y.a.p.s.s.D.W.A.F.D.V.V.V.V.V.V.f.s.f.a.r._ _ ` Y Z Z Z B B 8 8 C Z Z R r.r.t.x.C.C.Z.P.(.|..X3X3XwXiXhXzXlXlXzXzXlXzXzXkXdX>X,X@X/.k.n.s.k.Q.k.k.z.z.y.y.R R R Y Y Y Y ) ) #.O.u.y.y.R R T #.C 8 y y D G J F W L W D d f c O . @ . . . . . . . . . . . . . . . @                                                                                                                                                                                                                                                                               ",
"                                                                                                                                                              { ' ' ' +.+.O.O.m.m.S.S.S.S.A.W.`././.`.).).`.)._._.)._._._.`._.`.`.#X#X#X#XyXyXyXyXfXfXfXfXvXkXkXgXkXgXuXuXwX4X6XoXoXOXH.U.C.B.x.C.x.x.f.f.d.f.r.r.r.y._ y.r.j.`./.!.`.`./.~.~.W.~.Q.i.i.u.g.i.g.i.m.Q.A.A.Q.Q.R.| | X.W y t y D V V D t 7 6 s . . @ . . . . . . . . . . . . . . . @                                                                                                                                                                                                                                                                               ",
"                                                                                                                                                          7 6 E ' } } +.*.$.O.^.~.D.D.D./.D./.W.(.(.(.|. X X X X X=X=X*XXX*X*XXX*X2X5X5X,XtXkXkXkXvXvXcXcXxXcXcXxXcXlXcXlXwXiXpXoXXX>XC.d.c.d.d.f.d.z.y.y.y.y.) ) ) _ O._ _ j._.!.(.OXOXXXXX|.OXOX!.s.j.i.j.p.p.s.W.~.F.W.D.S.W.O.#.o.X.8 t d t d d d 7 7 6 u . o . . . . . . . . . o . . . . . .                                                                                                                                                                                                                                                                                 ",
"                                                                                                                                                      t f 7 7 ' X.}  .$.*.O.O.^.~.D.K.D.K.D.`.].`._._._._._._._._.XX*X>X,X,X8X,X,X5X8XtX8XfXkXkXvXZXcXcXcXxXcXcXcXlXlXcXjX6XuXuXXXXX*XF.d.k.k.k.f.z.z.y.y.y.O.O.#.) ) O.O.O.j.#X`.(.|.|.XXOX|.T.oXG.f.f.f.s.p.i.f.F.G.F.D.D.F.W.O.) #.| 8 y d t d f c 6 9 9 p o o o . . . . . . . . . . . . @ @                                                                                                                                                                                                                                                                                   ",
"                                                                                                                                                  6 0 E W G V L } ^ P ..$.$.u.R.m.S.S.S.Q.R.R.R.R.^.^.^.^.^.^.^.^.^.^.'.'.^.^.^.'.#X#X#X#X&XyXyXyXfXfXfXfXAXvXvXxXlXzXhXhXiXuXtXXX(.XXC.f.f.f.t.t.t.f.r.r.r.y.R ) ) ) o.u.u.g.^.^.~.XX).(.G.oXOX|.J.d.c.c.d.s.f.c.D.G.D.D.D.F.W._ ) #.| 8 y d t t t f 7 6 6 9 + o . . . . o . . . . @ o + . . .                                                                                                                                                                                                                                                                                   ",
"                                                                                                                                              x { ' ' &.=.*...~ U S C ^  .^ / T Y Y R R ) T Z C C C C C C C C C C 8 8 8 8 8 5 5 5 5 5 5 $ 5 5 5 5 C B B Z _ ) _ 7XoX.X XuXFXGXHXGXFXGXFXFXGXFXZXcXZXZXtX,X8X8XR.M.R.$.S Z Z C C B Z s.d.d.x.(.|.oXoX@X>X>X(.(.`.D.G.F.C.F.V.c.F.y.O.u.*.F H F y X X # X . . o . . . . . @ + + @ o o + < < O o .                                                                                                                                                                                                                                                                                   ",
"                                                                                                                                              E J J H X...+. .S S I I } } |  ./ ) ) o.o.+.o.I K I I I I K I K I P I K I I A C V V y y V V H H H A  .( T O.M.n.s.tX7X7X5XgXGXFXZXZXcXZXcXcXcXlXgXgXgXzX2XXX_.*Xs.p.M.$.S I I I K I S R.m.n.F.XX XH.Y.XXoXoXH.!.!.!.G.F.F.F.V.F.D.r.O.@.@.C F F t X X X . . . . . . . . . @ + + o . . + < < @ o                                                                                                                                                                                                                                                                                     ",
"                                                                                                                                              E d G H } ..o. .I I K H ~ ~ | |  ./ ) o.#.o...I P K K K I K K K K I K K K K A V V V y y y y A A A A } ( Y ) b.g.i.tX8X,X,XfXGXGXFXcXZXxXzXzXgXjXhXgXhXzX2XXX>X,Xd.k.M.i.S I K L I K Z R.M.b.m._.). XOX XOXOXH.H.G.G.F.C.J.F.F.F.D.y.O.y.+.C H U d $ # # o . . . . . . . . @ + + . . . + < < o .                                                                                                                                                                                                                                                                                     ",
"                                                                                                                                              c d L L }  . . .P K H K X.X.} I ^ T / ) / / | C U H H H H H H K K K K K K H V V V y y t y y V V A H ' ^ ^ +.v.v.v.AXfXfXfXAXKXHXGXAXFXZXcXxXzXjXjXhXjXjX3XOX-X Xf.d.s.y.Z Z U I H U I R.R.M.m.].).(.|.OXOXOXH.H.G.J.C.C.C.C.C.C.F.r.y.y.+.C F F d $ $ O o . . . . . . . . @ + + o . o ; < < @                                                                                                                                                                                                                                                                                       ",
"                                                                                                                                              f t d t G H A U A H A H ' ~ ^ | R.R.M.v.i.h.h.T T P ' ' ' X.' X.X.} X.X.X.X.X.' X.' ' ' X.~ ~ L K H K A A C S S Z S Z C Z C Z C Z a.b.N.B. X XOX.X9X:X9XqX9XwXwX<X>X,X#Xn.R.R.*.S T S S S Y R ~.F.C.P..X-XoX.XoX XXX(.(.H.J.F.J.D.z.u.i.u.C K K d X o o . . . . . . . . . . o o . . . o o @ .                                                                                                                                                                                                                                                                                       ",
"                                                                                                                                              c f t y d G G V H G G G ' ' } ( ^.^.^.m.j.M.M.( T ^ I } ..} }  . . . ........... . ... . ...P L L L A H H H H K H K I A C A A A C *.v.a.s.,XXX X;X3X3X3XeX0XeXeX9X3X4X,XA.S.Q.b.Z T T T S T R '.m.V.G.;X;X-X;X-X;X>XXX|.(.G.G.H.G.f.i.j.h.C K K d X o . . . . . . . . . . . . . . . . . . . .                                                                                                                                                                                                                                                                                       ",
"                                                                                                                                              h f f t j J J J J G G V ' ~ } ( ^.Q.S.n.f.z.a.Y Z Z Z S S Z S S Y Y Y T ( ( ( / / T T T T / S A A K V A A A V H A H H V V V V A V -.v.v.M.8X*XXX4XpX3X3XeX9XqX9X:X3X;X Xx.V.V.z.B Y T I I T T ^.^.~.).2X=X.X-X;X;XoXOX|.(.G.Z.J.G.f.i.g.h.C K K d X o . . . . . . . . . . . . . . . . . . .                                                                                                                                                                                                                                                                                         ",
"                                                                                                                                              a u e e r j j d j G G V L ~ ^ Y ].`./.>X>X*X,XF.S.S.S.~.D.D.K.K./.~.D.F.V.n.N.d.k.n.n.n.M.M.u.%.%.+.~ ~ ~ ~ K L L L L G G G d d y K I I T R.s.z.!.<XoXoX9X9XeXeXeXeXeXwX;X4X5X*Xf.M.v.T T T T $.O.R f.oXoX;X<X1X+X2XoXoXoX(.G.(.(.f.s.j.h.C K K d X @ . . . . . . . . . . . . . . . . . . .                                                                                                                                                                                                                                                                                         ",
"                                                                                                                                              a e 7 7 r j j d j d d V K P ( Y `./.G.6XuXtXgXXX*XXX*X>X*X*X>X=X>X>XXX(.).(.G.G./././.W./.~.j.i.h.*.^ ^ } ' K K L L L J J G y y y y V C Z u._ R V.,XoXoX4XwXeXeXsXsXjXlXsXjXzXgXXX8X#XS ^ T T T Z Y z.@XoXoX<X9X9X1XoX+X+XOXP.(. Xs.j.l.h.C H H d X @ . . . . . . . . . . . . . . . . . . .                                                                                                                                                                                                                                                                                         ",
"                                                                                                                                              s 6 7 7 t d d j d G G V I P T Y ]./.J.6XwX6XuX XXXXXXX@XXXXXoX XXX>X|.H.(.(.G.G.!.!.!.W.~.~.j.u.$.h.^ } ..X.L L ' L L L L J y d V G V C S *.O.) S.tX>X>XtXuXuXpXjXaXjXjXaXsXhXpX X8X8XZ T T T ^ ^ S i.,XoX X;X3X3X3X;X+XoX|.(.(. Xf.s.g.h.C U F f X . . . . . . . . . . . . . . . . . . .                                                                                                                                                                                                                                                                                           ",
"                                                                                                                                              s 7 7 7 t d d d G V V y I T R Y /.L.G.4XwXwXuX.XXXXX|.XX|.|.OX|.XXoX(.G.J.J.C.C.C.J.F.C.F.D.f.y.u.O.Y T ( T U U K S S A H V y y y V V V S +.+./ M.8X,X>XtXuXuXpXjXhXhXsXsXhXhXpX.X=X>XZ Y T T K ^ S i.,X,X>X7X4X4X3X<X+XoX|.P.|. Xf.s.g.u.C H H d . . . . . . . . . . . . . . . . . . . .                                                                                                                                                                                                                                                                                           ",
"                                                                                                                                              f t t t y G A G K ~ ~ A $.h.i.a.*X XOX3XwX6X6X X|. X|.<X2X<X<X1X3X6X3X;X;X<X<X<X<X;X;XoXoX=X(.L.L./.n.n.b.s.O.%.%./ o. . .^ I L L K H K I  . .^ h.].`.).>X>XoXoXpXuXwXwXiXiXuXwX;X9XwXz.i.l.h.P } T O.k.c.d._.XXOXOXOX+X.XP.H.|.(.f.i.g.u.C H H d . . . . . . . . . . . . . . . . . . . .                                                                                                                                                                                                                                                                                           ",
"                                                                                                                                              J G G V G K H H L } } I E.^.Q.A.,X>X=X<X;X;X<XP.P.H.H.1XuXwXwXwXuXpXwX4X4X6XwXwXwXwXwX9X3XwX;X<X<X<X/.L.L.K.N.b.b.u.u.*.*.+.......' ~ ~ I ~ I A ^ y.r.r.d.V.x.B.(.(.(.oXwXwX3XwXwXqXiX).`.].^.I } T ) ) _ _ S.C.C.J.Y.+XoX|.P.|.).z.a.i.$.C F H t . . . . . . . . . . . . . . . . . . .                                                                                                                                                                                                                                                                                             ",
"                                                                                                                                              J J G V G H H H ~ ^ ~ S v.Q.S.B.>XoXoX<X1X-X>XP.P.P.U.2XwX6X1XpX0XwXwX;X3X3X0X3XwXwX4X4X4X;X-X-X-X*XL.L.K.S.d.s.j.%.u.$.$.+. . . .^ P ~ P L I K ^ o._ _ p.b.s.f./.G.G.(.uX6XwXwXwXwXwXJ./.~.Q.Y T / | O.O._ S.K.Z.Z. X X X XP.|.).f.i.i.$.C V G t . . . . . . . . . . . . . . . . . . .                                                                                                                                                                                                                                                                                             ",
"                                                                                                                                              D y V V V H S A I ( ( Y N.S.V.C. XoX.X2X4X<X2X(.J.J.U.;X6XwX3XwX0XwXwX;X:X:X3X:X3X3X3X3X3X;X-X.X.X-XI.L.D.F.s.s.p.O.%.%.$.o.( / ^ I I I I I I K ~ +.o.o.v.M.M.b.].`./.).uXuXwX4X3XwXwXH.G.D.S.Y R T | $.@._ Q.~.V.Z.*X*XXX X(.)._.z.i.u.@.y V D t . . . . . . . . . . . . . . . . . . .                                                                                                                                                                                                                                                                                             ",
"                                                                                                                                    f f y F V I ^ ^ / / o.#./ O.O.O._ S.`.(. X-X-XOX.X X X X X X XY.4XwXwXwX3X9X9X0X3X9X3X9X3X3X3X:X:X3X;X-X;X;X-XY.(.(.L.V.V.A.a.p.p.p.u.O.O.o.( ( ^ P I I I P } ~ ~ +.*.$.O.R.M.n.S.,X>X*X>XuX3X3XY.P.(.~.R _ O.O.#.) R n.V.V.V././.G.!.!.(.`.z.a.u.@.8 V d r . . . . . . . . . . . . . . . . . .                                                                                                                                                                                                                                                                                               ",
"                                                                                                                                  E &.=.&.h.@.h.^.^.^.^.^.^.Q.^.].`.K.8XtX5X6X1X2X;XY.H.P.P.2X2X2X=XwXpXiXpX;X3X;XwXeXeXeXwX9XwX9X1X;X1X;X;X;X;X;X X XXX_././.`.n.M.M.M.b.u.i.h.o.+.+.^ I ~ I I V y y H K A A | T ( ) n.d.d.J.6X3X3X3X4X5X8Xa.b.M.u.T T Y i.s.s.f.k.d.k.F.D.D.W.y.y.h.*.8 d d s . . . . . . . . . . . . . . . . . .                                                                                                                                                                                                                                                                                               ",
"                                                                                                                                  J X...| h.O.O.Q.^.^.S.K.S.S././.G.D.7X7X2X4X=X<X<XP.G.L.G.5X>X2X-XuXgXiXwX.X;X.X3XpXpXpXwX3X0XwX<X;X<X;X;X;X;X<XXXXXXXXX!././.k.n.k.n.g.u.i.h.o.+.+.} I ~ ~ L V G D J L H H ..| / ) m.V.d.G.uX<X1X3X2X2X,Xa.j.M.h.T T T h.g.p.j.k.k.k.F.W.D.W.y.u.u.*.8 y d s . . . . . . . . . . . . . . . . . .                                                                                                                                                                                                                                                                                               ",
"                                                                                                                                   .*.$.O.g.a.a.S.D.K.Z.D.F.C.L.J.G.G.<X4X2X6X;X-X=XG.G.G.G.>X>X<X XuXgXiX4X-X;X;X3XwXwXwX4X3XwXwX<X<X2X<X;X;X;X<XXXoXXX).!.!.W.d.d.s.j.p.y.u.i.o.o.+.} I ~ ~ L V G G J J L H ..+.#.O.S.n.d.G.wX3X3X4X4X5X,Xz.s.g.g.T T T l.v.l.j.m.A.S.W.~.W.~.y.u.$.+.8 y d r . . . . . . . . . . . . . . . . .                                                                                                                                                                                                                                                                                                 ",
"                                                                                                                      d ' *.*.*.$.^.^.R.m._._._.`.).).). X(.P.=X3X3X3X4X4X3X4X-X;X=X;X>X=X2X>X>X-XY.6XrXwX6XpXwXpXpXiXpXiXwX0XwXwX;XoX;X;XoXoXoXoX|. X X|.!.!.!.V.V.V.A.n.i.p.g.%.o.$. .I ~ ~ L A G V G H H H ..| ( _ ~.D.C.Y.wX3X3X3X3X4X2Xx.V.m.M.T T Y h.h.g.p.i.i.p.b.m.b.m._ _ o...8 y y 6 . . . . . . . . . . . . . . . .                                                                                                                                                                                                                                                                                                   ",
"                                                                                                                    d '  .$.%.$._ Q.^.~.K.*XXX). X). X X-XoXoXwXaXsXiXwX9X9X3X;X;X;XzXlXzXzXOXH.P.J.1X3X4XpXZXZXZXxXlXlXlXeXwXwXwX-XOX XY.Y.OX.X.XY.OX|.|.G.!.!.(.(././.W.k.b.b.%.o.%. .I P ~ I A G V V y V V ^ ( Y _ #X,X>X<XwXwX9X1X3X3X5XJ.).].Q.R O.) u.@.$.@./ R Y _ u._ %.` /  .X.8 t t 7 . . . . . . . . . . . . . . . .                                                                                                                                                                                                                                                                                                   ",
"                                                                                                                    t L | +.%.%._ K.K.V.D.*X`. X X X XP.=XoX|.wXiXaXiXwXwXwX3X;X3X.XhXiXhXhXOXY.P.U.1X6X5XrXZXxXxXxXzXlXlXpX4XwXuXoX|. XY.|..X X X|.|.|.).H.G.(.!.!./.!.A.k.j.b.O.O.$.#.I P ^ I A V G y V V V } ^ T R 8X,X>X>XuX4XwX;X3X3X<XP.(.`.Q.R O.R u.u.$.+.| T / #.o.%.$./ /  .X.7 t t 7 . . . . . . . . . . . . . . .                                                                                                                                                                                                                                                                                                     ",
"                                                                                                                s r F W ..*.+.$.o.M.R.m.^.,X#X,X_.`._.`.,X,X_.tXdXdXdXtX7XtX5X>X,X*XkXkXkXkX_.!.`.D.,XtXtXtXZXZXZXZXvXcXzXuX5XtXtX,X_._././._._._._.`._.`.~.W.~.`.`.^.^.R.b.l.v.$.$.*...P P ' L D d G y y y y X.W I / &X,X,X,XtXtXtX5X8X5X,X/.~.#X^.T / T *.*.*.*.X.W } ..*.*.*.X.X.' ' 0 f f 6 . . . . . . . . . . . . .                                                                                                                                                                                                                                                                                                         ",
"                                                                                                              Q ;.Q ] [ &.3.=.=.*.E.E.E.E.&X&X#X#X'.#X'.&X&X&XyXfXfXfXyXyXyXyX&X&X&XDXDXDXDX&X'.'.^.&XyXyXDXAXAXAXAXDXDXDXDXyXyXyX&X&X&X'.'.#X'.'.'.'.'.'.'.'.'.'.'.E.E.E.}.}.}.=.=.=.&.' ' ' E j j b f f f f [ [ ' =.&X&X&X&XyXyXyXyXyXyX&X'.'.'.E.X.&.&.=.3.=.1.[ W [ &.=.=.&.[ [ [ { f s 9                                                                                                                                                                                                                                                                                                                                     ",
"                                                                                                              z p 9                                                                                                                                                                                                                                                                                                                                                                                                                                                                                                                                                                                                               ",
"                                                                                                                                                                                                                                                                                                                                                                                                                                                                                                                                                                                                                                                                                                                                  "
};
