/* XPM */
static char *_c8f7e0507a34c53e00e9385353b91e1xBzom9eDqTHbfWHk[] = {
/* columns rows colors chars-per-pixel */
"344 369 256 2 ",
"   c None",
".  c #020201",
"X  c #0A0401",
"o  c #050901",
"O  c #0B0B03",
"+  c #0C0C0A",
"@  c #06070A",
"#  c #120C03",
"$  c #150A05",
"%  c #0E1205",
"&  c #131304",
"*  c #13130B",
"=  c #1B1B0C",
"-  c #1A1707",
";  c #1C1B13",
":  c #181715",
">  c #0E0F12",
",  c #270701",
"<  c #261907",
"1  c #361A03",
"2  c #231D15",
"3  c #360A06",
"4  c #1E210E",
"5  c #26240C",
"6  c #38260A",
"7  c #242313",
"8  c #24231B",
"9  c #2A2817",
"0  c #372A16",
"q  c #35331A",
"w  c #2F3116",
"e  c #2A2925",
"r  c #322D25",
"t  c #373429",
"y  c #3A3834",
"u  c #2E3029",
"i  c #1F1F20",
"p  c #4B1503",
"a  c #751015",
"s  c #472909",
"d  c #562A07",
"f  c #452D13",
"g  c #4A3418",
"h  c #573817",
"j  c #53320D",
"k  c #663B18",
"l  c #6C370D",
"z  c #483926",
"x  c #573C24",
"c  c #433D35",
"v  c #6E2723",
"b  c #5B411C",
"n  c #69431C",
"m  c #77451B",
"M  c #774E16",
"N  c #5B4227",
"B  c #484439",
"V  c #534A37",
"C  c #684625",
"Z  c #744B24",
"A  c #7B4C24",
"S  c #764A27",
"D  c #7A5229",
"F  c #715134",
"G  c #4A4743",
"H  c #544D45",
"J  c #595349",
"K  c #5A5854",
"L  c #655B4E",
"P  c #69635A",
"I  c #746B57",
"U  c #7A736A",
"Y  c #736E69",
"T  c #403F3E",
"R  c #920F14",
"E  c #AF0E14",
"W  c #921A24",
"Q  c #B51827",
"!  c #91252B",
"~  c #B22A32",
"^  c #A32D19",
"/  c #D70D1A",
"(  c #D8131B",
")  c #CA1019",
"_  c #E8161C",
"`  c #F81A1D",
"'  c #E90E1B",
"]  c #F8271C",
"[  c #F8371D",
"{  c #EB2F17",
"}  c #C91826",
"|  c #D81624",
" . c #D01429",
".. c #E81624",
"X. c #F41B23",
"o. c #FC1B23",
"O. c #F61625",
"+. c #EC1227",
"@. c #D82429",
"#. c #C82734",
"$. c #CE272F",
"%. c #FC2423",
"&. c #FD2B23",
"*. c #F92727",
"=. c #FC3323",
"-. c #FC3B24",
";. c #FB3828",
":. c #EB272C",
">. c #DA2616",
",. c #86491C",
"<. c #90501D",
"1. c #854C24",
"2. c #83542B",
"3. c #8A562A",
"4. c #96592B",
"5. c #895A34",
"6. c #935D32",
"7. c #9A5D33",
"8. c #944D24",
"9. c #A35C2F",
"0. c #9C6234",
"q. c #986439",
"w. c #916335",
"e. c #A36334",
"r. c #AB6434",
"t. c #AC6B3B",
"y. c #A76839",
"u. c #B36C3B",
"i. c #B66A38",
"p. c #B4713D",
"a. c #BB723D",
"s. c #B9753A",
"d. c #AA6733",
"f. c #B35318",
"g. c #F8481C",
"h. c #F6561B",
"j. c #EA5015",
"k. c #F06B1B",
"l. c #FD4324",
"z. c #FD4927",
"x. c #FD5727",
"c. c #FE5532",
"v. c #C3743E",
"b. c #C4703D",
"n. c #FC6729",
"m. c #FC7728",
"M. c #FD6F32",
"N. c #DB6013",
"B. c #AC3842",
"V. c #966A46",
"C. c #A96D42",
"Z. c #B56D42",
"A. c #AC7345",
"S. c #B47343",
"D. c #BC7442",
"F. c #BA7948",
"G. c #B17B54",
"H. c #857B6F",
"J. c #845D42",
"K. c #C37543",
"L. c #C47A45",
"P. c #CB7B45",
"I. c #C47C4A",
"U. c #CB7D4A",
"Y. c #C87546",
"T. c #D27E49",
"R. c #C97A4E",
"E. c #E76441",
"W. c #D12A42",
"Q. c #FC872A",
"!. c #FB972B",
"~. c #FF8734",
"^. c #FE9834",
"/. c #EC9523",
"(. c #FAA82C",
"). c #F6B62C",
"_. c #FDA835",
"`. c #FCB635",
"'. c #ECB227",
"]. c #E99C21",
"[. c #FCC937",
"{. c #FCD839",
"}. c #F0C731",
"|. c #FCE73B",
" X c #FDF53B",
".X c #8F8875",
"XX c #B4895E",
"oX c #CD824C",
"OX c #C6824B",
"+X c #D3834C",
"@X c #D9854E",
"#X c #CA8653",
"$X c #D38552",
"%X c #D48953",
"&X c #DB8B53",
"*X c #D88956",
"=X c #DA925A",
"-X c #E28C54",
";X c #E38E58",
":X c #E4935B",
">X c #EA945D",
",X c #E9965B",
"<X c #F39351",
"1X c #D39667",
"2X c #EC9B63",
"3X c #E79964",
"4X c #F39C64",
"5X c #F59C66",
"6X c #F5A36B",
"7X c #F9A46B",
"8X c #FDAC74",
"9X c #F7AA75",
"0X c #FBB37A",
"qX c #EBA66E",
"wX c #EAAB5B",
"eX c #FDDA46",
"rX c #FBCC49",
"tX c #FDE847",
"yX c #FCF546",
"uX c #FCF558",
"iX c #FBEA55",
"pX c #FDF868",
"aX c #FDFC7C",
"sX c #FDFB75",
"dX c #F7EE69",
"fX c #EECE6F",
"gX c #B68F2E",
"hX c #96908B",
"jX c #A39B95",
"kX c #AEA798",
"lX c #B3AFAB",
"zX c #9D9AA2",
"xX c #FBBA85",
"cX c #F7B98C",
"vX c #C3BBAB",
"bX c #FDC58A",
"nX c #FECB97",
"mX c #FED29B",
"MX c #FEFC83",
"NX c #FDFC8B",
"BX c #FDFB96",
"VX c #FDFBA8",
"CX c #FDFBB6",
"ZX c #E7E4BD",
"AX c #E7D0AD",
"SX c #D0CDCD",
"DX c #FEFDC8",
"FX c #FCFBD8",
"GX c #EBE8D3",
"HX c #FDFCE8",
"JX c #FEFEFC",
"KX c #FDFDF4",
"LX c #EAE8EA",
"PX c #E2DEDA",
"IX c #C1BFC4",
"UX c #817F80",
/* pixels */
"                                                                                                                                                                                                                                                                                                                                                                                                                                                                                                                                                                                                                                                                                                                ",
"                                                                                                                                                                                                                                                                                                                                                                                                                                                                                                                                                                                                                                                                                                                ",
"                                                                                                                                                                                                                                                                                                                                                                                                                                                                                                                                                                                                                                                                                                                ",
"                                                                                                                                                                                                                                                                                                                                                                                                                                                                                                                                                                                                                                                                                                                ",
"                                                                                                                                                                                                                                                                                                                                                                                                                                                                                                                                                                                                                                                                                                                ",
"                                                                                                                                                                                                                                                                                                                                                                                                                                                                                                                                                                                                                                                                                                                ",
"                                                                                                                                                                                                                                                                                                                                                                                                                                                                                                                                                                                                                                                                                                                ",
"                                                                                                                                                                                                                                                                                                                                                                                                                                                                                                                                                                                                                                                                                                                ",
"                                                                                                                                                                                                                                                                                                                                                                                                                                                                                                                                                                                                                                                                                                                ",
"                                                                                                                                                                                                                                                                                                                                                                                                                                                                                                                                                                                                                                                                                                                ",
"                                                                                                                                                                                                                                                                                                                                                                                                                                                                                                                                                                                                                                                                                                                ",
"                                                                                                                                                                                                                                                                                                                                                                                                                                                                                                                                                                                                                                                                                                                ",
"                                                                                                                                                                                                                                                                                                                                                                                                                                                                                                                                                                                                                                                                                                                ",
"                                                                                                                                                                                                                                                                                                                                                                                                                                                                                                                                                                                                                                                                                                                ",
"                                                                                                                                                                                                                                                                                                                                                        a a R R R R a R a a a                                                                                                                                                                                                                                                                                                                                   ",
"                                                                                                                                                                                                                                                                                                                                                      ! ~ #.$.$.} $.} $.#.~ ~                                                                                                                                                                                                                                                                                                                                   ",
"                                                                                                                                                                                                                                                                                                                                                      W } | | | | | | | | } ~                                                                                                                                                                                                                                                                                                                                   ",
"                                                                                                                                                                                                                                                                                                                                                      W } ( ( | | | .._ _ ( ~                                                                                                                                                                                                                                                                                                                                   ",
"                                                                                                                                                                                                                                                                                                                                                      W } ( ( | | ( ( ( ( ( ~                                                                                                                                                                                                                                                                                                                                   ",
"                                                                                                                                                                                                                                                                                                                                                      W } _ ( .._ _ _ _ _ ( #.                                                                                                                                                                                                                                                                                                                                  ",
"                                                                                                                                                                                                                                                                                                                                                      W @._ _ _ ' ' ' _ _ ( #.                                                                                                                                                                                                                                                                                                                                  ",
"                                                                                                                                                                                                                                                                                                                                                      W @....._ _ ' _ ` ` ..#.                                                                                                                                                                                                                                                                                                                                  ",
"                                                                                                                                                                                                                                                                                                                                                      W @....._ _ _ ' ' +.| #.                                                                                                                                                                                                                                                                                                                                  ",
"                                                                                                                                                                                                                                                                                                                                                      W @._ _ _ _ _ _ ....| #.                                                                                                                                                                                                                                                                                                                                  ",
"                                                                                                                                                                                                                                                                                                                                                      W @._ _ .._ ......+.| #.                                                                                                                                                                                                                                                                                                                                  ",
"                                                                                                                                                                                                                                                                                                                                                      W @._ _ +.X.X.....+.| #.                                                                                                                                                                                                                                                                                                                                  ",
"                                                                                                                                                                                                                                                                                                                                                      W @._ _ O.+.O.+.+.+...#.                                                                                                                                                                                                                                                                                                                                  ",
"                                                                                                                                                                                                                                                                                                                                                      W @._ _ +.O.O.O.O.O...$.                                                                                                                                                                                                                                                                                                                                  ",
"                                                                                                                                                                                                                                                                                                                                                      W @.O.O.O.O.O.O.O.' ..$.                                                                                                                                                                                                                                                                                                                                  ",
"                                                                                                                                                                                                                                                                                                                                                      W @.X.O.O.O.O._ ` _ ..@.R                                                                                                                                                                                                                                                                                                                                 ",
"                                                                                                                                                                                                                                                                                                                                                      W @.X.O.O.o.o.X.%.` %.*.) #.~ #.~ !                                                                                                                                                                                                                                                                                                                       ",
"                                                                                                                                                                                                                                                                                                                                                      W @.X.o.o.o.o.` %.` X.X.../  . .} ~                                                                                                                                                                                                                                                                                                                       ",
"                                                                                                                                                                                                                                                                                                                                                      W @.o.` o.o.o.` ` %.X.:.( ( / | } ~                                                                                                                                                                                                                                                                                                                       ",
"                                                                                                                                                                                                                                                                                                                                                      Q | o.` ` o.o.` ` o.X.X.( ( / | } ~                                                                                                                                                                                                                                                                                                                       ",
"                                                                                                                                                                                                                                                                                                                                            a Q R R E  .:.o.o.o.o.o.` ` ` o.X._ ' / ( } ~                                                                                                                                                                                                                                                                                                                       ",
"                                                                                                                                                                                                                                                                                                                                            W @.:...| +.*.o.%.%.*.%.o.` o.o.X._ ' / ( } ~                                                                                                                                                                                                                                                                                                                       ",
"                                                                                                                                                                                                                                                                                                                                            R ..+._ O.O.%.` %.%.*.%.o.%.%.%.*._ _ ' _  .~                                                                                                                                                                                                                                                                                                                       ",
"                                                                                                                                                                                                                                                                                                                                            E :.` ` O.o.%.] ] %.*.%.%.%.*.*.*..._ ' ..| ~                                                                                                                                                                                                                                                                                                                       ",
"                                                                                                                                                                                                                                                                                                                                            R | _ ` ` o.` %.%.&.%.*.%.%.%.%.&.X.` ` ..@.~                                                                                                                                                                                                                                                                                                                       ",
"                                                                                                                                                                                                                                                                                                                                            R @.X.` ` %.%.%.] %.*.&.%.%.%.%.%.o.` ' ..@.~                                                                                                                                                                                                                                                                                                                       ",
"                                                                                                                                                                                                                                                                                                                                            E :.X.o.` &.%.] %.&.%.%.&.%.%.%.&.` o.+...$.~                                                                                                                                                                                                                                                                                                                       ",
"                                                                                                                                                                                                                                                                                                                                            E :.O.o.` &.] ] ] &.%.%.&.] ] ] &.` O.O...$.~                                                                                                                                                                                                                                                                                                                       ",
"                                                                                                                                                                                                                                                                                                                                            W :.X.o.X.&.&.&.&.&.&.&.&.[ =.=.;.` _ ' ..} ~                                                                                                                                                                                                                                                                                                                       ",
"                                                                                                                                                                                                                                                                                                                                            W :.O.o.o.&.] =.=.&.&.&.=.[ =.=.;.` ` ` _ @.~                                                                                                                                                                                                                                                                                                                       ",
"                                                                                                                                                                                                                                                                                                                                            W :.O.o.` %.] [ =.=.=.] [ [ =.=.&.` ` ` _ @.~                                                                                                                                                                                                                                                                                                                       ",
"                                                                                                                                                                                                                                                                                                                                            W :.` ` ` &.[ [ -.;.;.=.=.[ ;.=.=.` o.` _ >.Q                                                                                                                                                                                                                                                                                                                       ",
"                                                                                                                                                                                                                                                                                                                                            W :.] ] ] ;.l.l.l.;.l.-.;.-.;.;.;.%.] ` ] &.*.| @.$.W.W.                                                                                                                                                                                                                                                                                                            ",
"                                                                                                                                                                                                                                                                                                                                            W :.] ] { z.c.z.z.z.z.l.-.-.;.;.;.&.*.%.] ` o.o.O.O.O.$.                                                                                                                                                                                                                                                                                                            ",
"                                                                                                                                                                                                                                                                                                                                            R :.*.] { z.g.g.[ [ l.[ [ [ [ -.=.] ] o.o.o.o.O.O.O.O.$.                                                                                                                                                                                                                                                                                                            ",
"                                                                                                                                                                                                                                                                                                                                            E @.%.] { c.z.g.z.z.z.g.g.g.[ -.;.] ] ` o.o.o.o.O.O.O.$.                                                                                                                                                                                                                                                                                                            ",
"                                                                                                                                                                                                                                                                                                                                  W R R R E @.*.] ] { c.x.x.x.x.x.x.x.x.z.c.z.[ ] ] o.o.o.o.O.X...$.                                                                                                                                                                                                                                                                                                            ",
"                                                                                                                                                                                                                                                                                                                                W $.@.:.....&.&.] ] { c.n.n.n.n.n.n.c.c.c.c.c.[ ] ] %.%.o.o.X.X.X.$.                                                                                                                                                                                                                                                                                                            ",
"                                                                                                                                                                                                                                                                                                                                R @...O.O.X.&.&.[ [ { c.n.n.n.n.n.n.n.n.c.c.c.[ ] ] ] %.o.o.` ` ` @.                                                                                                                                                                                                                                                                                                            ",
"                                                                                                                                                                                                                                                                                                                                R :.` ` o.o.&.=.[ [ { c.x.n.n.n.n.n.n.x.x.c.c.[ { ] ] %.%.o.X.o.` @.                                                                                                                                                                                                                                                                                                            ",
"                                                                                                                                                                                                                                                                                                                                R :.` o.O.X.*.&.] ] { c.c.x.x.x.n.n.n.x.x.x.c.[ [ ] &.&.%.%.o.%.` @.                                                                                                                                                                                                                                                                                                            ",
"                                                                                                                                                                                                                                                                                                                                R :.X.o.O.X.*.&.] ] ] z.z.x.x.x.x.x.x.x.x.x.z.[ [ [ &.&.&.%.o.%.] $.                                                                                                                                                                                                                                                                                                            ",
"                                                                                                                                                                                                                                                                                                                                R :.X.` O.O.*.&.] ] ] z.x.x.x.x.x.x.x.x.x.x.z.[ [ [ =.=.=.` ` ` _ $.                                                                                                                                                                                                                                                                                                            ",
"                                                                                                                                                                                                                                                                                                                                R :.*.%.*.o.&.&.&.] ] z.x.x.x.x.x.x.x.x.z.z.z.-.[ =.=.=.=.] ] X.X.$.                                                                                                                                                                                                                                                                                                            ",
"                                                                                                                                                                                                                                                                                                                                R @.:.*.*.%.=.;.=.[ [ z.x.x.x.x.x.x.z.x.x.x.z.l.[ -.=.=.;.] ] %.` @.                                                                                                                                                                                                                                                                                                            ",
"                                                                                                                                                                                                                                                                                                                                R @.:._ o.` =.;.-.-.[ z.x.h.g.z.z.x.z.z.z.x.z.l.-.-.;.;.;.] ] %.o.:.                                                                                                                                                                                                                                                                                                            ",
"                                                                                                                                                                                                                                                                                                                                R @.{ ` o.] =.-.g.g.[ z.h.h.g.z.z.z.z.z.z.z.x.g.l.l.-.;.;.] ] ] O.@.                                                                                                                                                                                                                                                                                                            ",
"                                                                                                                                                                                                                                                                                                                                E ..*.] o.] ;.l.g.l.g.z.x.h.x.z.x.x.z.z.z.z.x.g.l.l.l.;.;.] ] ] %.@.                                                                                                                                                                                                                                                                                                            ",
"                                                                                                                                                                                                                                                                                                                        ~ #.$.@...*.*.*.X.` -.-.l.z.l.c.x.x.z.x.x.x.z.x.z.z.x.g.g.l.l.-.;.] ] ] &.;.$.$.@.$.~ a                                                                                                                                                                                                                                                                                                 ",
"                                                                                                                                                                                                                                                                                                                        #.:.O.O.o.o.` &.%.] ;.l.l.z.g.x.x.x.x.x.x.x.h.x.h.g.x.g.g.l.l.l.l.] ] =.=.&.X.X.O.+.@.R                                                                                                                                                                                                                                                                                                 ",
"                                                                                                                                                                                                                                                                                                                        @._ o.o.o.%.%.%.&.] l.l.z.z.g.n.M.m.n.n.n.n.x.n.x.x.x.g.g.g.z.z.l.{ ] &.&.=.] X.o.O.:.R                                                                                                                                                                                                                                                                                                 ",
"                                                                                                                                                                                                                                                                                                                      ^ @.%.o.o.%.%.&.&.] ] l.z.l.g.g.M.m.~.m.m.m.m.M.M.M.n.M.x.x.x.z.z.z.[ =.=.&.=.] ` ` X...R                                                                                                                                                                                                                                                                                                 ",
"                                                                                                                                                                                                                                                                                                                      ~ @.%.O.o.%.%.%.] ] ] -.l.l.z.h.M.m.m.m.m.m.m.m.m.n.n.n.h.x.x.x.z.c.-.=.=.=.;.] ] o.X...R                                                                                                                                                                                                                                                                                                 ",
"                                                                                                                                                                                                                                                                                                                      ~ @.X.O.%.%.%.%.%.%.] ;.z.l.z.g.n.m.m.m.m.m.m.m.m.m.M.M.x.x.x.z.z.z.[ =.=.;.;.*.%.O.X.:.R                                                                                                                                                                                                                                                                                                 ",
"                                                                                                                                                                                                                                                                                                                      ~ :.O.o.X.&.&.&.&.&.] l.z.l.g.g.n.m.m.m.m.m.m.m.m.m.M.M.x.x.x.z.z.c.-.;.=.=.=.] o.O.X.:.R                                                                                                                                                                                                                                                                                                 ",
"                                                                                                                                                                                                                                                                                                                      ~ ..%.o.X.&.] &.&.&.] l.z.l.z.g.M.m.~.Q.Q.Q.Q.Q.Q.m.m.M.x.x.x.z.c.c.[ ;.;.=.=.` o.O.X.@.R                                                                                                                                                                                                                                                                                                 ",
"                                                                                                                                                                                                                                                                                                                      ~ @.%.o.%.&.&.&.&.=.[ z.z.z.g.g.M.~.~.Q.Q.Q.Q.Q.Q.Q.m.M.x.h.x.z.z.z.[ -.-.=.=.] ` o.X.@.R                                                                                                                                                                                                                                                                                                 ",
"                                                                                                                                                                                                                                                                                                                      #.:.%.%.&.;.=.=.=.;.[ z.z.z.g.j.m.~.Q.Q.!.Q.Q.Q.Q.Q.~.M.x.h.g.z.z.z.[ -.-.[ -.] ` o.X.@.R                                                                                                                                                                                                                                                                                                 ",
"                                                                                                                                                                                                                                                                                                                      $.:.%.] &.;.[ -.[ [ [ z.x.x.h.j.m.~.Q.!.Q.Q.!.Q.!.Q.~.~.n.h.h.h.x.x.g.[ l.l.-.] ] %.*.>.E                                                                                                                                                                                                                                                                                                 ",
"                                                                                                                                                                                                                                                                                                            ! ~ ! Q E :.*.&.&.] z.l.z.z.l.z.c.x.h.k.h.m.!.Q.!.!.Q.!.Q.!.!.~.~.k.h.h.h.x.x.z.z.z.z.z.=.&.;.;.;.@.Q ~ ! ! v                                                                                                                                                                                                                                                                                       ",
"                                                                                                                                                                                                                                                                                                          a #.@.@.:.:.*.&.&.=.[ l.z.z.z.z.g.n.m.m.m.k.Q.!./.!.!.!.!.!.^.!.!.Q.k.N.k.k.h.x.g.z.z.z.z.-.&.=.;.;.:.| @.@.#.!                                                                                                                                                                                                                                                                                       ",
"                                                                                                                                                                                                                                                                                                            @.+.O.O.o.%.&.] ] [ l.z.z.z.g.h.M.~.~.~.Q.~.^.!.!.!.!.!.!.^.^.!.!.m.m.m.m.m.M.h.z.z.z.z.-.] ;.=.] *.X.O.O.@.!                                                                                                                                                                                                                                                                                       ",
"                                                                                                                                                                                                                                                                                                          a :.O.o.O.O.*.&.=.] ;.z.z.l.l.g.h.~.^.^.^.~.!.^.!.!.!.!.!.!.^.!.^.^.^._.^.^.<X<Xh.x.x.x.x.-.] =.=.] ] X.O.O.| W                                                                                                                                                                                                                                                                                       ",
"                                                                                                                                                                                                                                                                                                          a @.O.` ` ` %.&.=.=.=.-.l.l.l.g.j.~.^.^.^.!.!.!.!.!.!.!.^.!.!.!.!.(._._._._._.<Xj.g.z.x.x.-.] &.&.] ] _ O.O.| W                                                                                                                                                                                                                                                                                       ",
"                                                                                                                                                                                                                                                                                                          a @.` ` ` o.&.&.=.&.] -.z.l.z.g.j.~.^.!.!.!.Q.!.!.!.!.^.^.!.!.!.!.!.(.(.(._._.<Xj.h.g.z.z.;.=.&.&.[ [ _ X._ | W                                                                                                                                                                                                                                                                                       ",
"                                                                                                                                                                                                                                                                                                            @.` ` ` ` %.=.] =.=.-.l.l.g.h.j.~.^.^.!.!.!.!.!.!.!.!.!.!.!.(.(.!.(.(.(.(._.<XN.h.g.g.z.-.=.=.[ [ [ ` ` _ | !                                                                                                                                                                                                                                                                                       ",
"                                                                                                                                                                                                                                                                                                            @.` ` o._ *.=.[ { [ g.z.g.g.j.j.~.!.!.!.!.!.!.!.!.!.!.^.^.^.^.!.(.(.(.(._._.^.N.j.h.h.h.g.g.[ [ j.{ _ ` ` | W                                                                                                                                                                                                                                                                                       ",
"                                                                                                                                                                                                                                                                                                            :.%.o.%.*.;.l.l.l.z.c.c.c.n.n.k.^._.!.!.^.!.!.!.^.^.^.^.^.^.^._.(.(.(.(.(._.^.m.M.M.M.M.n.n.c.c.n.c.] o.X.@.W                                                                                                                                                                                                                                                                                       ",
"                                                                                                                                                                                                                                                                                                          a $.X.o.%.*.;.l.l.l.z.z.c.x.x.x.k.^.^.^.^.^.!.!.!.!.Q.!.!.!.^.^.!.(.(.(.(.(.^.^.m.m.m.m.m.n.M.M.n.n.c.] ` ` @.^                                                                                                                                                                                                                                                                                       ",
"                                                                                                                                                                                                                                                                                                            @.%.o.o.X.;.l.g.g.z.c.c.x.x.h.k.^.^.^.^.^.!.!.!.^.!.!.!.!.!._.(.(.(.(._._._.^.m.m.m.m.m.n.n.n.n.n.c.{ %.` :.Q                                                                                                                                                                                                                                                                                       ",
"                                                                                                                                                                                                                                                                                                    a     E *.` ` ` ` ;.l.g.l.z.x.x.x.h.h.k.^.^.^.^.!.!.!././././././././.(.(.(.(.(._._.^.k.m.m.m.m.n.n.n.n.n.n.{ %.` _ }                                                                                                                                                                                                                                                                                       ",
"                                                                                                                                                                                                                                                                                                a ~ $.@.@.:.%.` ` ` ` ;.z.z.z.x.x.n.h.n.h.k.^.^.^.^.!._.`.(.).).`.).`.`.`.`.`.(.(.(.(._.^.k.k.m.m.m.n.n.n.n.n.n.{ &.&.&.:.} $.$.$.~ v                                                                                                                                                                                                                                                                           ",
"                                                                                                                                                                                                                                                                                                a $.....:.*.] ] ] ] ] c.c.x.x.n.~.~.~.~.Q.Q._.(.(.(.(.rXeXeXtXtXtXtXtXiXeXeXeX`.(.(.(._._./.!.!.Q.Q.m.m.M.M.m.M.{ =.=.;.;.:...+.:.@.!                                                                                                                                                                                                                                                                           ",
"                                                                                                                                                                                                                                                                                                R @.X.O.o.*.] ] ] ] ] c.x.n.h.n.Q.Q.Q.Q.Q.Q._.(.(.(.'.{.tX{.{.|.tX{.{.{.{.eXeX).).`.(._._.!._.!.^.Q.m.n.n.n.m.M.{ ;.=.=.&.*.O.o.O.:.~                                                                                                                                                                                                                                                                           ",
"                                                                                                                                                                                                                                                                                                a @.X.o.O.o.X.&.] ] [ c.c.x.x.n.m.Q.Q.Q.Q.Q._.(.(.(.'.[.{.{.{.{.|.|.|.|.|.eXeX).).).`._._._._._._.^.k.m.n.n.n.M.[ =.=.=.=.] o.o.O...~                                                                                                                                                                                                                                                                           ",
"                                                                                                                                                                                                                                                                                                  @.O.O.o.*.X.&.] ] { z.c.x.x.x.m.Q.Q.Q.Q.Q._.(.(.(.'.[.{.{.{.{.|.|.|.{.{.{.eX).).).`.`._._._._._._.k.k.n.n.n.M.[ =.=.=.=.` ` o.o.:.~                                                                                                                                                                                                                                                                           ",
"                                                                                                                                                                                                                                                                                                  @.` ` ` o.` %.] [ { c.c.x.x.x.m.Q.Q.Q.Q.Q._._.(.(.).{.{.{.{.{.{.{.{.{.{.{.eX).).`.`.`.`.`._._._.^.k.k.n.n.n.n.[ &.=.=.=.` ` ` ` @.~                                                                                                                                                                                                                                                                           ",
"                                                                                                                                                                                                                                                                                                  $.*.` ` %.] =.[ { { x.x.x.h.k.~.Q.Q.Q.Q.Q._._._.(.).rXeX{.{.{.{.{.{.{.{.{.eX).).`.`.`._._.(._._.^.k.m.m.m.m.M.{ =.-.-.;.] ` %.` :.~                                                                                                                                                                                                                                                                           ",
"                                                                                                                                                                                                                                                                                                  ~ { =.=.=.=.z.x.x.h.m.~.Q.Q.Q.^.^.~.~.~.!._._._._.).rXeXeX{.{.{.{.{.{.{.{.{.).).`._._._._.(._._.^.Q.Q.Q.Q.Q.m.g.l.z.z.;.] %.%.` :.~                                                                                                                                                                                                                                                                           ",
"                                                                                                                                                                                                                                                                                                  ~ @.=.=.=.-.c.n.n.k.~.^.!.!.^.^.^.!.!.!.Q._.(._.(.).[.eX{.{.{.{.{.{.{.{.{.{.).).(._._._._.(.(._.^.!.!.^.^.!.~.g.z.z.z.l.] &.&.] :.~                                                                                                                                                                                                                                                                           ",
"                                                                                                                                                                                                                                                                                                  ~ >.{ &.&.[ c.n.n.k.~.^.^.!.^.^.^.!.!.!.!._.).).).).{.{.{.{.{.{.{.{.{.{.{.{.}.).)._._._._.(.(.(.!.!.!.!.!.!.~.g.l.l.l.;.] &.&.&.:.~                                                                                                                                                                                                                                                                           ",
"                                                                                                                                                                                                                                                                                      B.B.B.~     ~ { =.;.=.[ c.n.n.k.~.^.^.!.^.^.^.!.!.!.!.`.`.).).).eXeXtXtX{.tXtXtX{.tXeXeX}.'.).`._.(.(.(.(.(.!.!.!.!.!.!.~.g.l.l.l.l.] ] &.&.:.$.      a v                                                                                                                                                                                                                                                                 ",
"                                                                                                                                                                                                                                                                                      B.$.@.@.}   @.;.=.;.;.{ c.M.m.k.^.^.^.!.!.^.^.^.!.!.!._.(.).`.).eXiXiXiXiXiXiXiXiXtXiXtX}.'.).).).).).).).`.].!.!.!.!.!.~.j.z.z.z.z.{ ] %.&.*.:.@.:.@.$.~                                                                                                                                                                                                                                                                 ",
"                                                                                                                                                                                                                                                                                      #.:.X.X._ ( :.;.;.;.-.[ M.M.m.k.!.^.^.!.!._.^.^.^._.(.`.`.`.[.}.iXpXpXpXpXsXpXpXpXpXpXpXtXeXeXeXeXeX{.eXeXeX(.!._._._._.^.h.x.x.c.c.{ ] %.&.%.*.X.o.O.O.$.                                                                                                                                                                                                                                                                ",
"                                                                                                                                                                                                                                                                                      ~ :.X.*.*.:.*.=.-.;.-.[ c.M.m.m.~.^.^.!.(.(.!.(.(.(.(.`.`.[.[.}.uXsXsXsXsXsXsXsXsXsXsXpXiXeXeX{.{.{.|.|.|.tX).!.(._._._.^.h.x.x.c.c.{ ] &.&.&.*.X.X.O.+.#.                                                                                                                                                                                                                                                                ",
"                                                                                                                                                                                                                                                                                      ~ :.X.o.%.X.] [ -.-.[ g.c.M.m.m.!.^.^.!.!.(.(.(.(.(.(.`.[.}.}.}.pXsXsXsXaXaXaXaXaXsXsXsXiXeXeX{.{.{.|.|.|.tX)./.(._._._.^.h.x.n.c.c.[ { *.&.&.&.X.o.O.+.}                                                                                                                                                                                                                                                                 ",
"                                                                                                                                                                                                                                                                                      ~ :.O.o.` ` ] [ [ [ [ [ x.n.m.m.Q.!.^.!.(.(.'.'.'.'.'.}.rXeXeXiXpXsXaXaXMXMXMXaXMXaXaXsXpXiXtXtX|.|.|.|.|.tX).(._._._._.^.h.x.x.x.c.{ { ] ] ] %.` o.o.X.}                                                                                                                                                                                                                                                                 ",
"                                                                                                                                                                                                                                                            a a a a a a a a a a a a   #.:.o.o.%.] ;.-.g.z.z.g.n.m.m.Q.Q.!.^.!.`.[.[.[.[.[.[.tXuXpXpXpXsXsXsXsXaXMXMXaXsXaXsXsXpXuXiXtXtX|.|.|.|.tX'.(._._._._.^.h.x.x.x.c.[ [ [ [ =.&.` o.o.X.}   a a a a a a a a a a a p                                                                                                                                                                                                                                       ",
"                                                                                                                                                                                                                                                          ! ~ $.$.$.$.$. .@.$.#.#.#.  $.:.&.&.=.{ z.c.n.n.n.x.m.Q.Q.Q.!.!.!.].[.tXtXyXtXyXtXuXpXsXpXsXsXsXaXaXMXaXaXaXsXaXsXsXsXsXpXpXuXiXtX|.tXtX).(.`.`.`.`._.k.n.n.n.n.x.z.c.z.c.z.] &.%.%...} } $.$.$.$.} } } $.#.~ v                                                                                                                                                                                                                                       ",
"                                                                                                                                                                                                                                                          ! } ..........' ' ....| @.  @.*.&.] [ { z.n.n.n.n.n.m.!.!.!.!.!.!.].[.iXtX X XyXtXuXpXsXsXsXsXsXaXaXaXaXaXsXsXaXsXsXsXsXsXpXpXuXtX|.|.tX'.'.`.`.`.`._.k.n.n.k.n.x.z.z.z.z.c.{ { ] %._ ..| ..' ..../ ..( / | } !                                                                                                                                                                                                                                       ",
"                                                                                                                                                                                                                                                          ! } | | ( / / ..+.+.+.....) ) _ &.] =.{ z.c.n.n.n.n.m.~.!.!.!.^.!./.[.iXyX X XyXyXuXsXsXsXsXsXsXaXaXaXaXsXsXsXaXaXaXaXaXaXsXsXuXtXeX{.{.}.'.).`.`.`._.k.n.k.n.h.h.x.z.z.z.z.{ { &.*.' ( ..../ | | ( / | )  .Q W                                                                                                                                                                                                                                       ",
"                                                                                                                                                                                                                                                          ! } ( | | ( ( ..+.+.' O...( ( *.%.%.=.[ c.c.n.n.n.n.m.~.!.!.!.!.^./.rXiXyX X XyXyXuXsXsXaXsXsXsXsXaXaXaXaXaXaXaXaXaXaXaXaXsXsXuXtX|.|.{.}.}.[.[.`.).`.k.m.m.m.k.h.h.g.z.x.z.{ { *.*.' _ ( ( / | | ( ( ( )  .Q W                                                                                                                                                                                                                                       ",
"                                                                                                                                                                                                                                                          W  .| | | | | ......+.+...( ( X.X.*.=.[ z.c.n.n.n.n.m.~.^.!.!.!.^./.[.tXtX X XyXyXpXsXaXaXaXsXsXsXaXaXaXaXaXaXaXaXMXMXMXaXsXsXuXtX{.{.{.[.}.[.[.[.}.)./.Q.Q.Q.n.n.x.x.x.c.c.[ ;.=.*._ ( ( / / ( | ( ( / /  .Q W                                                                                                                                                                                                                                       ",
"                                                                                                                                                                                                                                                          E | ../ ( / / ( .._ _ _ _ ( ( _ ] ] =.{ g.n.n.k.k.k.k./././././.!.].).tXtX X XyXyXpXsXMXMXaXaXsXaXaXMXaXMXaXaXaXMXMXMXMXMXaXsXuXtX|.|.|.{.{.{.{.{.[.[.!.^.^.^.m.n.n.n.n.n.n.z.l.;.=._ ( >.>.( ( ( / / / / / E R                                                                                                                                                                                                                                       ",
"                                                                                                                                                                                                                          v ~ ~ Q Q #.$.$.$.@.@.@.$.@.@.@.:.*.*.*.*.*.] { c.z.z.z.z.[ l.l.z.x.x.h.m.~.^.!.!.!.!.[.{.{.{.eXeX{.tXyXyX X XyXyXpXaXMXMXMXaXaXaXaXMXMXMXMXMXMXMXMXNXMXMXaXsXuXtX X XtX|.tXtXtXtX|.{.`.`.`._.Q.m.m.m.m.m.m.n.x.c.c.l.z.z.z.z.*.*._ _ _ X._ ..| @.$.$.$.$.$.#.#.#.#.~ ~ ~ ~ ! !                                                                                                                                                                                                       ",
"                                                                                                                                                                                                                          W } / / / ( _ _ O.o.o.` ` ` o.` ` %.%.%.&.] ] [ c.c.c.x.x.x.x.x.n.x.n.k.m.^.!.!.!.!.].eXtX|.tXtXtX|. XyXyX X XyXyXpXMXMXNXMXMXaXaXMXMXMXMXMXMXMXMXMXNXNXMXaXsXuXtX X|. XtXtXyXyXyXyX|.).`.`.`.Q.m.m.m.m.m.m.k.x.x.z.g.h.x.x.c.&.] ` _ _ ` ` ' _ X.O.` O.+.' _ _ _ | | } ) } Q !                                                                                                                                                                                                       ",
"                                                                                                                                                                                                                          W Q ) / / ( _ +.O.O.o.o.X.` o.o.o.%.*.%.] ` ] { c.c.c.x.x.x.x.x.n.n.n.k.Q.^.^.^.^.!.].eXtXtXtXtXtX|.|.yX X X X XyXpXMXNXNXMXMXaXaXMXMXMXaXaXaXMXMXNXNXNXNXaXsXpXtX|.|. X|.|.tXtX X X|.).`.`.`.Q.m.m.m.m.m.m.k.x.c.c.g.j.g.z.c.%.o.` _ O.+.O.' X.X.O.O.X.O._ _ ......| ) E E E W                                                                                                                                                                                                       ",
"                                                                                                                                                                                                                          v Q  .) ) ( | ..O.O.o.X.o.` o.o.o.o.O.%.%.] ] { M.c.c.n.x.x.x.x.x.n.n.k.m.^.^.!.^.!.].eXyX|.tXtXtXtXtXyXyXyXyXyXiXpXMXNXNXNXMXMXMXMXMXMXaXaXMXMXMXNXNXNXNXMXaXpXuXuXiXyXtXtXyXyX X X|.).`.`.`.!.m.m.n.n.n.m.n.n.c.c.l.g.z.z.c.X.O.O.O.X.+.O.O.O.` O.o.O.+..._ ....' ( E E E R !                                                                                                                                                                                                       ",
"                                                                                                                                                                                                                          v ~ } } ) ) ( _ _ O.o.o.o.o.o.o.o.o.o.o.o.%.] [ M.c.c.n.x.x.x.n.n.n.n.k.m.^.^.^.!.^.].eX X XyX XtXuXuXpXpXpXpXpXsXaXMXNXNXNXNXMXMXMXMXMXMXMXMXMXMXNXNXNXNXNXNXMXMXaXaXsXiXtX X X XyXtX).`.`.`.Q.m.m.m.n.m.n.n.x.c.z.l.l.l.c.c.] o.+.O.X.X.X.O.O.O.O.O.O.+...........| Q E W ! v                                                                                                                                                                                                       ",
"                                                                                                                                                                                                                                  E ) ( _ ` o.o.` ` ` ` ` %.] ` ] ] ] { { n.n.k.j.j.j.j.N.k.k.k.k.Q.!.!.!.!.!.].|. X X X XyXuXpXaXMXMXMXMXNXNXNXNXNXBXNXNXMXMXMXMXMXMXMXMXMXNXNXNXNXNXNXNXNXMXMXaXiXtX X X XtXtX'.}.).(./.k.k.k.k.k.k.k.j.j.g.{ g.j.j.j.>.{ _ ` _ _ ` ` ` o.o.O.X..._ _ _ _ _ / E                                                                                                                                                                                                               ",
"                                                                                                                                                                                                      a a a R R R R R R R R E E E ) ( _ _ %.&.&.&.&.=.=.-.l.l.-.-.-.-.g.h.<X^.^.^.^.^.^._._._._.!._.`.`.).`.`.'.|. X XyXyXyXpXsXaXMXMXMXNXNXBXBXBXBXBXBXBXBXNXNXMXMXMXMXMXMXMXMXNXNXNXNXNXMXMXaXsXiXtX X X XyXtX{.{.{.{.[.`._._._._._.^.!.~.~.m.m.m.Q.~.h.x.[ [ =.=.=.=.&.&.=.=.=.&.] ] *.X.] >.E R R R E R E Q Q Q R R a                                                                                                                                                                                       ",
"                                                                                                                                                                                                  v ~ Q } } }  . . .} $.$.@.| @.....+.X.X.&.=.=.=.;.l.l.z.x.x.z.l.l.z.h.k.<X_._._._.`.`.`.`.`.`.`.[.rX[.[.[.[.}.yXyX XyXyXyXsXaXMXMXNXNXBXBXBXVXVXVXVXVXVXBXBXBXNXMXMXMXMXMXNXNXNXNXNXNXNXNXNXMXsXiXyX X X XyXtX|.|.|.tX{.[.`.`.`.`.`._.!.^.^.^.^.^._._.~.M.x.-.l.l.l.-.l.l.l.l.l.-.=.;.;.&.&.*.:.| @.| @.| | | ....| } } ~ ~ ! v                                                                                                                                                                               ",
"                                                                                                                                                                                                  ! ~ Q ) ) ) ) | ..| | ......X.O.+.+.O.%.&.=.=.=.-.l.l.l.l.g.g.[ [ g.g.j.^.^.!.!.(.(._.`.`.(.(.(.`.[.[.[.[.[.}.yXyX X XyXuXsXMXMXNXNXNXBXBXVXVXVXCXVXVXVXVXVXBXBXNXNXNXNXNXNXBXBXBXBXBXBXNXNXNXaXiXyX X X XyXtX|.|.|.tX{.[.`.).`.`.`.(.!.!.!.!.!.!.^.^.m.M.z.-.;.;.;.-.-.[ g.[ -.[ ] ] &.&.&.%._ _ ..........| ( ( ( ) ) } } Q !                                                                                                                                                                               ",
"                                                                                                                                                                                                  v E } ) ) ) ( ( ......' O._ +.+.+.` o.] ] =.;.-.-.l.l.-.l.-.[ -.l.g.g.j.<X^.^.!.(._.`.`.`._._.(.`.rX[.[.[.[.[.yXyX X XyXuXaXNXNXNXBXBXBXVXVXCXCXCXCXCXCXCXVXVXBXBXBXBXBXNXBXBXBXBXBXBXBXBXBXNXaXiXyX X X XyXtX|.|.|.|.[.[.`.`.`.`.`.(.!.!.!.!.^.^.^.^.m.M.z.-.;.;.;.-.-.[ [ [ [ [ ] ] %.%.%.o.O.O.+........._ .._ ( ( ( ( ) Q ~                                                                                                                                                                               ",
"                                                                                                                                                                                                  W Q }  .) ) / ....O.O.O.O.O.O.O.o.` ` ] ] =.-.-.-.-.-.;.;.;.;.;.l.-.z.j.<X^.^._._._._.`.`.(.(.(.`.[.[.[.[.[.}.yXyX X XyXuXaXNXBXBXVXVXVXVXCXCXCXCXCXCXCXCXCXVXVXBXBXBXNXNXBXBXBXBXBXBXBXBXBXNXaXiXyX X X X X X|.|.|.|.[.[.`.).(.`.(.(.!.!.!.!./.!.^.^.m.m.x.l.;.;.;.-.-.-.-.-.;.=.&.&.&.&.*.o.` O.+.O......._ _ _ ( / /  .} Q !                                                                                                                                                                               ",
"                                                                                                                                                                                                  W Q } ) / / / _ ' ' o.` ` ` X.` ` ` ] ] [ -.-.-.l.-.-.-.l.l.-.;.l.g.j.N.<X^._.(.(.(.`.`.`.`.).'.).[.[.[.{.[.[.iXuXyXyXyXpXNXBXVXVXVXCXCXCXCXCXDXDXCXCXCXCXCXCXVXVXBXBXBXBXBXBXBXVXVXVXVXVXVXBXMXiXyXyXyXyXyXtX|.|.|.tX[.[.`.).).`.).(.(./.!.!.!.!.!.^.m.m.x.g.l.l.-.-.-.-.-.;.=.=.*.&.&.&.%.` ` O.` X._ _ _ _ _ _ _ / ( |  .Q ~                                                                                                                                                                               ",
"                                                                                                                                                                                                  R } ) / / / / _ _ _ _ _ _ _ { { { { { { { [ [ [ [ g.[ g.j.j.j.{ j.j.j.N.^.!.(.(.].'.'.'.'.'.).'.}.}.}.{.{.}.}.uXdXuXpXpXMXBXCXCXCXCXCXDXDXDXDXDXDXCXDXDXDXDXDXCXCXVXVXVXVXCXVXVXVXVXCXCXVXCXVXBXsXdXdXdXdXdXdXiXiXtXtXeX}.}.'.'.).'.'.].]././././.!.!.Q.m.j.j.j.j.j.g.{ -.-.-.=.;.{ { { { ] { _ _ _ _ _ _ _ _ _ _ ( / / / / ) E           a a                                                                                                                                                                 ",
"                                                                                                                                                                                B.~ ~ ~ ~ ~ ~ ~ #.@.....*.*.&.;.;.;.;.;.;.l.z.c.c.c.c.c.c.c.c.c.c.c.x.x.c.x.n.n.M.M.~.~.!.rXrX[.[.[.{.tXtXtXtXtXtXtXyXyXyXyXuXuXaXNXNXNXBXVXDXFXFXFXFXFXHXHXHXFXFXZXZXAXvX.X.X.X.X.XXXXXXXXXDXDXDXDXDXDXFXDXFXDXCXBXNXNXNXNXNXNXMXaXsXsXpXuXiXtXiXiXiXtXtXeX`._._.`.`._.Q.Q.m.~.~.~.M.n.z.l.l.z.z.z.z.z.c.z.z.l.l.l.l.l.l.z.;.;.;.;.=.&.*.*.X.:.@.Q ~ B.~ ~ #.#.~ #.#.~                                                                                                                                                         ",
"                                                                                                                                                                          v ~ #.Q Q } } }  . .| ..+.+.O.%.` %.;.=.;.-.[ [ [ l.c.c.c.c.c.x.x.x.x.x.c.c.c.x.x.n.M.m.Q.~.!.!.rX[.{.[.[.{.yXyXyXyXyXyXyXyX X XyXyXpXNXVXVXCXCXDXFXHXHXHXHXHXHXHXHXHXFXZXZXkX.Xq N B B B 0 q w V FXFXHXHXHXHXHXHXHXHXDXCXVXVXVXVXVXVXBXNXMXaXsXpXuXyXyXyXyXyXyXiX[.`._.`.`._.!.~.m.~.~.~.~.n.h.z.z.z.z.z.z.z.z.z.z.l.[ -.-.-.-.-.=.=.=.&.&.%.X.X.O...|  .} } Q )  .} ) ) } ~                                                                                                                                                         ",
"                                                                                                                                                                          W #. . .) / / / ......' O.O.o.` ` &.;.=.=.-.-.[ [ l.z.x.x.x.x.x.x.x.c.c.c.x.c.x.n.n.n.Q.Q.Q.!.].[.[.[.[.{.|. XyXyXyXyX X X X X X XyXpXNXVXCXDXDXFXHXHXKXJXJXJXJXKXKXHXHXGXGXvX.Xz V J P L B B t B HXHXHXHXKXKXKXKXKXHXDXCXVXVXCXCXCXVXVXBXNXaXsXuXyXyX X X X XyXyX}.).`.`.`._.!.!.~.~.Q.Q.~.n.h.g.g.l.z.z.l.l.l.l.l.g.g.[ -.-.-.-.=.=.&.&.&.%.o.O.O.O..... .) )  .( ( ( ( ( #.                                                                                                                                                        ",
"                                                                                                                                                                          W } ) ( / / / _ ........O.O.o._ _ &.=.&.=.;.;.-.-.l.z.x.x.x.x.x.x.x.x.x.c.c.c.x.n.n.m.~.~.!.!./.rX[.{.[.{.|.|.yXyXyXyX X XyXyXyXyXyXpXBXVXCXDXDXFXHXHXJXJXJXJXJXJXKXHXHXFXAXkXI - r t r r e t w t HXHXHXHXKXKXJXKXKXHXDXCXVXVXVXVXVXVXBXNXMXaXsXuXyX X X X X XyXyX}.).).`.`.(./.!.Q.Q.Q.~.~.n.j.g.x.z.z.z.z.z.z.l.l.g.-.-.-.;.;.=.=.=.&.&.&.*.X.X.O.O.' ' / / ) ) ) ) ( ( | #.                                                                                                                                                        ",
"                                                                                                                                                                          W } | ) ) / / ( _ | ....+.O.o.X.` %.&.&.=.;.;.=.-.l.x.x.x.x.x.x.x.x.x.x.x.n.h.k.N.N.k./././.].].[.[.}.{.{.tXtXyXyXyXyXyXyXiXuXdXuXuXpXBXCXCXDXDXFXHXHXJXJXJXJXJXJXKXHXHXFXFXGXlXt y y B y t t w q GXHXHXKXKXKXJXJXJXHXFXCXCXCXCXCXCXVXVXBXBXNXMXsXpXuXyXyXyXyXtXtX}.}.[.}.).'.].]./.Q.Q.Q.Q.k.j.j.j.g.x.z.g.l.l.l.l.-.l.-.-.;.=.=.&.&.&.&.%.%.X.O.O.O.` ..| | ) ) ) | / ( ( Q                                                                                                                                                         ",
"                                                                                                                                                                          W } | ) ) ) / _ ........_ ' ` ` ` %.;.&.&.=.=.[ [ g.z.x.x.x.x.x.x.z.x.x.h.k.k.rXrXeX{.[.[.[.{.{.tXtXtXtXuXpXsXsXsXaXsXsXaXNXBXBXBXMXNXCXDXDXDXFXHXHXKXJXJXJXJXJXJXKXHXHXFXFXFXlX7 r u e e 8 9 9 t HXHXHXKXKXJXJXJXJXKXHXFXFXFXFXFXFXDXDXDXCXCXCXCXVXNXaXsXsXsXsXaXaXaXsXpXpXuXiXiXrX!.!.!.^.~.~.~.~.M.M.x.g.g.z.l.z.l.l.-.-.;.=.&.&.&.&.%.%.%.` O.O.` ' ( ) | | ( ( / / _ ..#.                                                                                                                                                        ",
"                                                                                                                                                                          W } | } ) ) / _ ..+...' X.O.o.o.` %.&.&.&.=.=.=.[ [ g.z.x.x.x.x.z.z.g.h.h.k.k.rXeX{.{.{.[.[.{.{.tXyXyXiXpXsXaXMXNXNXNXNXNXVXCXCXCXVXVXDXDXDXFXHXHXKXJXJXJXJXJXJXJXKXHXFXFXGXFXjX& * : : * O * O 9 HXHXKXKXJXJXJXJXJXJXKXKXHXHXHXHXHXFXFXFXFXFXDXDXDXVXNXMXMXMXMXMXMXaXsXsXpXuXuXuX[./.!.Q.!.Q.Q.Q.~.m.M.x.g.g.l.z.z.l.l.-.-.;.=.&.&.&.%.%.%.%.o.` ` ` _ ( |  ./ ( | | ..' ' #.                                                                                                                                                        ",
"                                                                                                                                                                          W #. . .) ( / ....+...' O.O.o.O.` %.&.&.&.&.=.=.[ -.z.z.g.g.h.z.z.g.g.g.x.x.k.eX{.{.[.{.[.{.{.{.|.yXyXyXuXsXaXMXNXBXBXBXBXVXCXCXCXCXCXDXDXFXFXHXKXJXJXJXJXJXJXJXJXJXHXHXFXFXFXjX= ; ; ; : O = O r KXHXKXJXJXKXJXJXJXJXKXKXKXJXKXKXHXHXFXFXFXFXDXDXCXVXMXaXMXMXMXMXaXsXsXpXpXuXuXiX[././.Q.Q.Q.Q.Q.m.m.M.x.g.g.l.l.z.l.-.-.;.;.=.&.%.%.&.&.%.o.o.` ` X._ | | | / _ ( / | / ' #.                                                                                                                                                        ",
"                                                                                                                                                                          a }  .} ) / / ( ......+.+.+.O.O.X.*.&.&.&.&.] [ =.;.-.z.l.g.z.z.z.z.g.x.x.x.k.eX{.{.[.[.[.{.{.{.|. X XyXuXsXaXNXNXBXBXBXVXVXCXCXCXDXDXDXDXFXFXHXKXJXJXJXJXJXJXJXJXKXHXHXvXlXZX.XO . O O O . . . ; LXHXJXKXJXJXJXKXJXJXJXJXJXJXJXKXHXHXFXFXFXFXDXDXDXVXMXaXMXMXMXsXsXpXpXpXuXuXyXuX[./.Q.Q.Q.m.m.m.m.m.n.x.g.g.l.l.l.l.;.;.;.=.=.&.%.%.&.*.%.o.o.o.` X...( | | ( _ / ( | / / #.                                                                                                                                                        ",
"                                                                                                                                                                          a } | ( ( / / ( | ......_ ..X._ X.%.%.&.] ] ] ] [ =.;.;.;.-.l.l.l.l.z.z.z.x.k.eX{.{.[.[.[.[.[.{.|. X XyXuXsXaXNXNXNXBXBXBXVXVXCXCXCXDXDXFXFXHXHXJXJXJXJXJXJXJXJXJXKXHXFXkXlXAX.XO . . . . . . O & HXHXKXJXJXJXKXJXJXJXJXKXJXKXKXKXHXFXFXDXDXDXDXDXDXVXMXsXMXMXaXaXsXpXpXpXuXuXyXiX`./.Q.Q.Q.m.m.m.m.M.n.x.g.[ -.-.l.-.=.=.=.=.=.&.&.&.*.*.%.o.o.o.O.O.+._ | ( ( ( / ( / ( | #.                                                                                                                                                        ",
"                                                                                                                                                                          a } / ( ( / / / ( ( ( ( ( ....+.X.%.%.&.] ] ] ] &.=.;.;.;.;.;.;.;.l.l.z.x.x.k.rX{.{.[.[.[.[.[.{.tXtXyXtXuXsXaXMXNXNXBXBXVXVXVXVXCXCXDXDXDXFXHXHXKXJXJXKXKXKXJXKXKXHXHXGXkXvXSX.X. . . . . . O O & KXLXHXHXJXJXJXKXJXKXJXKXKXKXKXKXHXHXFXFXFXFXFXDXDXVXMXaXMXMXaXsXsXpXuXuXuXuXtXtX(.Q.Q.Q.m.m.m.m.m.M.n.x.g.[ -.-.-.-.=.=.=.=.&.] ] ] *.*.%.o.o.O.O.O.' ' ( ) ( ( / ( ( ( | #.                                                                                                                                                        ",
"                                                                                                                                                                          W #. .| ) / / / ( ( ( | | ....O.X.o.%.%.&.&.&.&.=.=.;.;.=.=.;.;.-.l.g.g.z.x.k.rX{.{.}.[.}.[.[.{.tXyXtXiXuXsXaXMXNXNXBXBXBXBXVXVXVXVXCXCXDXFXFXHXHXKXJXJXJXKXKXKXKXPXkXlX.X.X.XK . . . . . O = O - SXIXIXlXlXlXlXKXKXKXJXJXKXKXKXKXKXKXHXFXFXFXDXDXCXVXMXaXMXMXaXaXsXpXpXpXiXuX{.[.!.Q.Q.Q.m.m.m.m.M.M.n.c.l.-.-.-.;.-.[ ] [ ] ] ] ] ` %.%.o.o.o.o.O.X.' ' |  .| | / ..' ' / #.                                                                                                                                                        ",
"                                                                                                                                                                          v ~ #.Q Q } } } } } }  .......O.O.o.%.%.%.%.&.&.&.&.&.=.[ =.;.;.-.l.g.z.z.z.n.rXrXrXrXrX`.rXrXrXeXeXtXiXuXpXaXMXMXMXNXNXNXNXNXNXNXBXBXVXCXDXDXFXFXHXHXKXJXKXKXKXHX.X. X X X X X . @ . @ . + = = O 9 % # ; O O 2 HXHXKXJXJXKXKXHXHXHXFXFXDXDXCXCXVXVXNXaXsXaXaXsXsXpXpXuXuXiXiX`._.Q.m.m.m.m.m.n.n.M.M.c.x.l.-.-.;.;.;.] &.&.&.] ] ` ` ` ` X.X.O.O.......| } Q Q #.#.$.$.$.#.B.                                                                                                                                                        ",
"                                                                                                                                                                            v a a a a a a a a R E $.| ..O._ o.o.o.` ] %.%.*.%.&.] { [ =.;.;.-.-.-.l.-.g.~.Q.Q.m.Q.m.Q.Q.Q.^._.(.'.`.rXeXeXeXeXeXiXiXiXuXuXuXpXpXaXNXBXVXVXCXCXDXHXKXHXFXGXFXhXO 0 2 - * O . . + o + : = = 7 t B c t t 7 t KXHXHXHXHXHXHXFXDXCXVXBXBXNXaXsXpXuXuXyXiXiXiXeX[.}.).'.).).(./.m.n.n.n.n.n.h.h.h.x.x.x.z.-.-.;.;.;.=.%.%.%.%.%.o.o.o.o.O.+.+.+.+.+...} R a v a a a a                                                                                                                                                                 ",
"                                                                                                                                                                                                  Q } | ..' X.X.o.` ` o.%.%.o.%.] ] ] =.=.;.-.[ ;.;.;.g.h.j.j.h.h.j.h.h.k.m.Q.!./.(.`.[.{.{.{.{.|.tX|. XyXyXyXuXpXsXMXBXBXVXVXCXFXHXHXGXAXAX.X& w 7 - O . O * * ; ; * 2 ; 7 y t t t t 7 0 HXHXHXHXHXHXHXDXCXBXNXMXMXsXpXuXyX X X XyXyXtX{.[.`.).(._.`._.k.m.n.n.n.n.n.h.h.g.g.z.l.l.[ [ =.=.;.&.` o.o.o.o.o.O.O._ _ ' ' ..' ' | R                                                                                                                                                                               ",
"                                                                                                                                                                                                  ~ } | _ ' _ X.O.O._ X.X.o.o.` ] ] &.&.&.&.-.=.;.;.;.z.x.h.h.x.x.h.h.h.k.Q.!.!.!.(.`.[.{.{.{.[.{.tXtXyXyXyXyXuXpXsXMXNXBXVXVXCXFXHXHXGXvXvX.X% 9 7 2 O O o = 7 ; 8 : 7 2 9 r r t t t 2 9 HXFXFXFXHXKXHXDXVXNXMXMXaXaXsXuXyX X XyXyXyXtX[.}.[.).).).`._.k.m.n.n.n.n.x.h.g.g.z.z.l.-.[ =.=.=.=.] ] o.o.o.o.X._ ` _ _ _ _ _ _ / } W                                                                                                                                                                               ",
"                                                                                                                                                                                                  ~ } | ..........+.+.+.X.` o.o.%.] %.&.&.=.;.;.l.;.;.z.x.x.z.z.x.h.h.h.k.m.Q.!.!.!.`.[.{.{.{.[.{.tX|. X X XyXiXpXsXMXNXBXVXVXCXFXHXHXFXGXZX.X& w 7 < # # O = ; 8 8 = 2 2 7 9 9 9 9 9 7 t HXHXHXHXHXHXHXDXVXNXaXMXMXaXsXuXyXyX XyXyXyXtX{.}.[.).).`.`._.k.m.n.n.n.n.x.x.g.g.l.l.l.-.[ =.=.=.=.*.` ` o.o.o.X.' ' _ _ _ _ _ ( ( } v                                                                                                                                                                               ",
"                                                                                                                                                                                                  ^ } ( / ' ' ..+...X.X.X.` ` ` ` ` %.&.&.&.;.-.l.l.l.z.x.x.x.x.x.x.h.h.k.~.^._.(.(.[.{.{.{.{.{.{.|.|.|. X XyXyXpXsXMXNXBXVXVXCXFXU t t t B B & 9 9 r 8 8 2 e t u t 7 7 7 7 = = - & # X X .X.X.XI FXHXFXDXVXNXMXNXNXMXsXuXyXyXyX X X X X{.}.[.}.}.[.[.`.k.m.n.n.n.n.c.x.z.l.l.l.z.;.=.=.&.&.=.] ] o.o.` o.O.+.........' _ ( / } !                                                                                                                                                                               ",
"                                                                                                                                                                                                  ! ~ #.#.$.#.#.$.#.$.$.} @.*.X.X.X.X.*.*.&.=.=.;.l.z.z.c.c.c.c.c.c.x.x.n.~.<X<X_._.rXeXeXeXeXeXeXtXtXtXtXtXtXtXpXsXaXaXNXBXBXVXDXJ & O & & & 9 2 2 9 9 7 2 7 9 9 r - = 7 7 & & # # O O X B V V g GXDXDXVXNXMXMXMXMXaXsXuXiXyXyXyXyXyXtXrXrXrXrXrXrXrX`.m.M.n.c.c.c.c.z.z.l.l.l.z.;.=.=.&.&.&.*.X.X.o.O.:.| $.#.#.#.#.#.#.#.~ ~ v                                                                                                                                                                               ",
"                                                                                                                                                                                                                          R ) / / / / ....X.` ] ` ` _ ] ] ] ` ] ] ] ] { { l.x.x.j.j.k.k.k.k.k.k.k./.!.(.(.).).}.{.eX{.{.eXeXeXfXXX< < w 9 w V .XI I I I I I L J J J t t t t = = = = < < # - 5 < , XXwXfXrXiXiXtXeXeXeXrX}.}.).).].!.!./.k.k.n.n.k.k.m.n.g.l.l.l.l.l.[ [ ] ] ] ] &.&.` ` ` ` X._ ( ) / ) Q                                                                                                                                                                                                       ",
"                                                                                                                                                                                                                          W }  . . . ...X.O.O.o.o.o.` ` ` ` ` o.%.%.%.] ] l.z.z.z.g.x.M.m.n.M.n.m.^.^._._.(.).'.{.|.|.{.|.{.{.fXj & 9 w t B V .XI I I I I I L V V V q q t t = = - = 7 7 < # & , , qXfX}.}.tXtXeX[.[.[.).'.'.(.(.!.^.~.m.h.x.x.x.x.h.n.x.{ =.=.=.-.[ [ ] ] ] ] %.&.%.o.` ` ` o._ ) ) } Q ~                                                                                                                                                                                                       ",
"                                                                                                                                                                                                                          ! Q ) ) ) / ' O.o.` ` ` ` ` ` ` o.o.o.%.*.&.] ] z.c.z.x.g.h.m.m.m.m.m.k.!.^._._.(.).'.{.tX|.{.|.|.{.fX6 & - t c c H .XH.H.H.H.H.H.I J J J q t t t = - = 2 r 9 9 - < 1 , qXrX'.{.{.eXeX[.[.[.).(.`.`._.^.!.^.Q.k.n.n.n.n.k.n.x.{ ;.;.;.-.-.=.&.] ] %.%.%.X.O.O.` ` O._ ) ) ) E Q                                                                                                                                                                                                       ",
"                                                                                                                                                                                                                          W Q | ) ) / ' O.o.` o.o.O.O.O.o.o.o.o.%.%.%.] ] z.z.z.x.h.h.m.m.m.m.m.m.^.^._._._.).'.{.tX|.|.tXtX{.fX6 B t B H V L .XH..XH.H.H..XI V J J q z t t < - < 2 r 7 9 < < 1 , qXrX'.[.{.eXeXrX[.[.).(.`.`._.!.!.^.m.k.n.x.n.n.n.n.x.{ ;.=.=.-.;.=.&.%.X.o.o.*.X.X.X.O.O.O._ / )  .E ~                                                                                                                                                                                                       ",
"                                                                                                                                                                                                                          W #./ / / ( ' ' ` ` ` O.O.O.+...o.` ` o.%.%.] ] z.z.z.x.h.n.m.m.m.m.m.m.^.^._._._.`.'.|. XyXtXtXuXeXfX- B B V L J I .X.X.X.X.X.X.XI L L J z t t t < - < 2 9 9 9 5 7 1 3 =X&X].'.[.[.[.rX[.`.`.`.(.`._.^.^.^.m.n.h.n.n.n.n.c.z.-.=.=.;.l.[ =.&.X.X.O.O.X._ _ _ _ +.+.+./ /  .Q !                                                                                                                                                                                                       ",
"                                                                                                                                                                                                                          v ~ #.#.#.#.$.$.@.@.@.} $.$.$.$.@.X.` X.o.o.] ] z.c.z.x.x.n.M.M.M.M.M.M.~.^.^.^._.`.`.eXtXiX}.'.'.gXgX6 V B V J J L H.I I I I I I L V J V q r t t 2 < < 2 9 9 9 7 7 5 , OXs.gX].rX`.`.`._._._._._._.^.Q.~.m.n.x.x.n.n.x.c.c.z.-.=.=.;.;.;.;.:.} $.$.$.$.$.@.@.$.$.$.#.#.#.~ ~ !                                                                                                                                                                                                       ",
"                                                                                                                                                                                                                                                             .....+.X._ ] z.z.z.l.l.z.c.c.x.x.x.n.M.m.m.m.m.Q.Q.^.^._.s.w.w.M V.z V H V V V V I I I I I L P J V V V 0 9 9 r - - = 2 9 9 9 7 7 5 5 w.w.<.s./././.Q.~.Q.Q.Q.Q.Q.m.h.x.x.x.z.z.z.z.z.z.z.;.] ] %.&.] ] :.Q                                                                                                                                                                                                                                         ",
"                                                                                                                                                                                                                                                            } | ( _ _ _ _ =.=.=.=.] =.-.[ [ [ g.h.x.h.h.j.j.j.N.k.m.v.p 3 1 , 1 9 t B t w q t B t z z z z B c z z t 7 2 2 2 $ # * = 7 2 9 5 7 5 & 5 < , ,.d.f.f.N.k.k.k.k.k.k.j.j.g.g.g.[ [ -.[ [ -.;.] ] ` ` ` ` X.:.E                                                                                                                                                                                                                                         ",
"                                                                                                                                                                                                                                                            ~ ) ) ( ( ( _ *.] ] ] ] ] ] ] ] { { z.x.h.g.g.g.g.j.h.M.-X3 1 0 0 0 t q t 0 9 w w 9 9 9 9 - - - - & - = $ & * * O O # - 7 2 7 5 7 5 7 - & $ Z q.7.f.N.n.n.n.n.n.M.x.j.[ -.-.[ =.=.] ] ] &.] ` ` ` ` ` _ ..Q                                                                                                                                                                                                                                         ",
"                                                                                                                                                                                                                                                            ~ | ) ) ) ( / X.X.` ` ` o.%.&.&.*.{ z.x.h.h.z.z.x.x.c.M.T., 6 5 9 q t q q 9 9 9 9 2 5 < = O X X X X X O X O + O O O O - 8 2 7 = 7 2 < - & % 1 s 1 p f.n.x.c.n.n.n.x.l.-.;.;.;.=.&.] ] %.&.] ] o.` o.` _ +.Q                                                                                                                                                                                                                                         ",
"                                                                                                                                                                                                                                                            Q ) ) ) ) / ' X.O.o.` ] ` %.%.&.*.{ z.x.x.g.x.x.x.x.c.M.T., < 5 5 9 q q q 9 q 9 9 7 7 7 ; . X . X X . . . . . . . . X * 9 ; 4 = 7 2 2 = % = - < # , f.k.x.x.n.n.n.x.l.-.;.;.;.;.&.] ] ] %.] ] o.` ` ` _ ..Q                                                                                                                                                                                                                                         ",
"                                                                                                                                                                                                                                                            Q ) E Q E ) / X.+.:.X.%.` ` %.&.%.] l.c.z.z.z.x.x.z.c.c.Y., 5 5 5 w q q 9 9 q 7 9 7 8 ; : . . . . . . . . . . . . . . * 8 ; ; = 4 2 < = = = - - & , f.n.x.x.c.c.c.z.[ -.;.;.;.;.&.o.o.o.*.:.:.:.X.O.X...| Q                                                                                                                                                                                                                                         ",
"                                                                                                                                                                                                                                                          a ~ Q Q Q } }  .@.@.@.@...*.o.%.%.%.] z.c.c.z.z.z.l.z.z.E.Z., 5 5 5 9 w 7 9 7 = 7 ; O O O O . . . . . . . . . . . . . . . O O o O O & & 5 4 4 5 < - , f.h.z.z.c.c.z.c.-.;.;.;.;.;.*.o.O.*.:.:.@.:...:.| @.#.!                                                                                                                                                                                                                                         ",
"                                                                                                                                                                                                                                                                  a a R R R R R R @.*.X.*.%.%.%.=.;.;.;.=.=.=.;.Q ^ m , 6 9 9 9 9 7 9 2 & - - . . X . . . . . . . . . . . . . . . . O O o o o O & 5 4 4 5 5 = 3 ^ >.>.{ [ [ [ [ ] &.&.&.:.:.X.+.+.+.Q E R W R E E W W a                                                                                                                                                                                                                                         ",
"                                                                                                                                                                                                                                                                                  Q | ..' _ ' ' _ ` _ _ _ ` X.@.a 3 , # 9 q r 9 5 5 7 2 = ; * . . . . . . . . . . . . . . . . . . . O O O o O O & 4 4 4 4 = - 3 ^ >.( ( ` ` ` ` ` ` ` _ ( ) / ) / }                                                                                                                                                                                                                                                             ",
"                                                                                                                                                                                                                                                                                  ~ | ..( | _ ' _ X.X.X.....| $.a 3 < - 7 9 9 2 7 7 7 = - ; * . . . . . . . . . . . . . . . . . . . O O O o o o O = = = - & & , ~ #.#.$.:.` ` o.o.O.X...( ) ) ) ) #.                                                                                                                                                                                                                                                            ",
"                                                                                                                                                                                                                                                                                  ~  ...| ( ( ( ' ` O.+.) E E W p , - O 4 = 7 7 7 9 7 = & * * % * * * > : : * * > * * + + + + O + + + % O . . . . % * = & & % # p p p p E ) ) ( +.` ....) ) ) ) ) #.                                                                                                                                                                                                                                                            ",
"                                                                                                                                                                                                                                                                                  ~  ... .) ) ( _ +.O.+.E R R ! 3 - - # 7 - = 7 7 9 7 = - * * * > > : : ; : : : : : : : : : * * * % * * + . . . . % * & & % % & < $ , , W E E ) ..O...| ( ) ) ) / #.                                                                                                                                                                                                                                                            ",
"                                                                                                                                                                                                                                                                                  ~  ...) ) / / _ _ +.:.E R R ! 3 * < $ 2 = = 7 9 9 7 = - & + + + + * : : : * * : * * * * * + + * + + + O . . . . % * & & & & % - $ $ , W E ) ....' _ ( / ) ) ) / $.                                                                                                                                                                                                                                                            ",
"                                                                                                                                                                                                                                                                                  B.~ } #.~ #. .( _ ..$.R a a v 0 2 2 * - = = 4 7 7 7 ; = : e y y y y y y t t r r e 8 8 8 2 ; : : * * * * . . . . O + & & & & & : * $ , ! Q E | +.+...@.$.#.#.#.#.B.                                                                                                                                                                                                                                                            ",
"                                                                                                                                                                                                                                                                                  v v a a a a a E ( | #.3 , , $ X @ @ . & - - = 7 9 7 = * % : y u e u u u y t e r e e 8 8 e ; ; 2 - - * * . . . . X o . o + O # O X X $ v a R Q ....$.R   a   a a p                                                                                                                                                                                                                                                             ",
"                                                                                                                                                                                                                                                                                                R )  .~ , O X + . @ o . # - - ; 7 7 = 4 8 8 u K H G G B y B y r r r e 8 8 9 = ; 2 = - - = O O O O . . . o * * * + . . X 3 p a Q ..| #.                                                                                                                                                                                                                                                                          ",
"                                                                                                                                                                                                                                                                                                E } } ~ , o . . . . o . O # # = = 4 4 r B y B Y P P P K J H B t t t r 9 9 9 2 7 2 = & - = % & & * . . . o + + + X X . X 3 p p ~ | | ~                                                                                                                                                                                                                                                                           ",
"                                                                                                                                                                                                                                                                                                R )  .~ , . . . . . o . X # # - = 4 & 7 c t B Y K K P J J H c r r r 9 9 9 9 2 2 2 = & & = & - = - . . o . o X X X O . X $ , 3 W @.} ~                                                                                                                                                                                                                                                                           ",
"                                                                                                                                                                                                                                                                                                W ) } ~ , X X . . o o o O # X - 5 5 & 7 B y c K K K K B B B y 9 t r 7 9 9 9 2 2 7 2 & & - - = = = . . o . . X X . . . X X , , ! $.} ~                                                                                                                                                                                                                                                                           ",
"                                                                                                                                                                                                                                                                                                W Q Q ~ , $ X X X o o o O # O = - 4 - y U U U .XH.U U J J J H B B B 9 9 9 9 7 7 7 5 & - & = 4 4 = . . . . . X X X . . O X $ , ! ~ #.~                                                                                                                                                                                                                                                                           ",
"                                                                                                                                                                                                                                                                                                ! ~ B.B.3 < < 2 # O O o O O O = 7 4 & t U Y Y H.H.H.U J J H H B H B 0 9 9 9 5 < 2 5 & - & 4 5 4 ; . . o . . X . @ o + O X $ 3 J.B.B.!                                                                                                                                                                                                                                                                           ",
"                                                                                                                                                                                                                                                                                                      p 3 9 r 0 $ $ # O % % % = 7 = & y U Y Y U U U U J J H H V V B 9 9 9 9 7 2 5 7 & - & 5 5 5 7 % * * o . X . . @ o o # - $                                                                                                                                                                                                                                                                                   ",
"                                                                                                                                                                                                                                                                                                      , 9 2 2 2 $ $ $ * O * % = 7 5 & t U P Y P P P P V H H J V V V q q r t 2 7 7 7 - 4 = 5 9 5 7 = & & % . . . . . o o O $ , ,                                                                                                                                                                                                                                                                                 ",
"                                                                                                                                                                                                                                                                                                    - - 8 8 2 2 $ $ # & + * % ; 7 7 = B hXU H.U U U H.V H V H V V V q t t r 2 2 2 = & = = 7 5 5 7 = = - % . . . . . . . o * - <                                                                                                                                                                                                                                                                                 ",
"                                                                                                                                                                                                                                                                                                  % : : : * * : # X O * # * O ; w 7 - B jXjXkXjXjXjXjXc H H H H H H r t t c 9 7 9 7 = 5 5 w 9 w 7 = 4 4 % o . . . . . . o * - -                                                                                                                                                                                                                                                                                 ",
"                                                                                                                                                                                                                                                                                                  + * * . o . O X X X # # O O = 2 - & B jXjXjXjXjXjXjXc J H V B B B t t r t 7 9 9 9 7 = 5 w 5 5 9 = 4 5 % . o . . . . . @ + * *                                                                                                                                                                                                                                                                                 ",
"                                                                                                                                                                                                                                                                                                  * * * X X . o X . X * & # O 9 B B t H .XH.hXjXjXjXjXc V B V V V B c c c B 9 9 2 2 2 = 5 q w w w = = 5 % . . . . . . . . + * *                                                                                                                                                                                                                                                                                 ",
"                                                                                                                                                                                                                                                                                                  $ * * X O O O X . . O O # & w V V B H Y Y H.jXjXjXhXG c c B H H B B B B t 7 = = 2 7 9 7 9 q q w = 4 5 & o o O . . . . X + * *                                                                                                                                                                                                                                                                                 ",
"                                                                                                                                                                                                                                                                                                  . o O X X + + ; 8 ; 2 7 7 7 B J J J L I P P H.U U U Y L K J B H H r 2 2 ; P hX.X.XU U B 7 9 5 5 5 5 5 = & & * . . X X X O O O                                                                                                                                                                                                                                                                                 ",
"                                                                                                                                                                                                                                                                                                  . o . . X * * 8 e 9 r r r q V L J J L P P Y H.U U Y jXjXjXH.H H J 9 e r * Y U H.U Y U B & 7 5 4 5 5 5 5 7 7 2 . . X X . . . .                                                                                                                                                                                                                                                                                 ",
"                                                                                                                                                                                                                                                                                                  . o O X X O & 2 8 9 8 q q 9 B L L L L P P Y U U U U zXhXhXU H K J t r r ; P .X.X.XU .XB = 7 7 7 5 5 9 4 4 7 4 . . . . . . . @                                                                                                                                                                                                                                                                                 ",
"                                                                                                                                                                                                                                                                                                  . O O & O O & 9 r r 9 q w 7 B I L L L P J Y hXhXhXhXlXIXlXhXK P K y e e 8 Y hXhX.XU U G 2 8 2 = 5 5 5 4 5 7 7 . . . . . . . . .                                                                                                                                                                                                                                                                               ",
"                                                                                                                                                                                                                                                                                                + * * - 7 7 7 9 r r 9 9 t t t V V L L L U U J * : 2 2 c G G y i e e : ; : . + X O . X * O . . . % 7 4 5 5 5 7 9 o o . O . . . . y u e                                                                                                                                                                                                                                                                           ",
"                                                                                                                                                                                                                                                                                                o O O O 7 7 7 9 r r u r t B z V F L L L P P J * 8 r e G H H y e u e : : : ; ; : ; : : : : O . . o 7 4 = 5 9 7 9 o O % * . . . @ u e e                                                                                                                                                                                                                                                                           ",
"                                                                                                                                                                                                                                                                                                O O O O 7 2 2 7 r u t 9 t z t B L V V L P P J = e r u B H H y u e e ; ; > : : : : : : + * o . . o 9 5 = 5 9 5 5 & - * * . . . . e e e                                                                                                                                                                                                                                                                           ",
"                                                                                                                                                                                                                                                                                                & = = 2 t t t t 9 9 9 = V H V V L L P L V J V X X O . X . . . . . . . . . @ . . . . . . . . . o o 9 5 4 5 w 5 9 = = ; 8 e u y t : > :                                                                                                                                                                                                                                                                           ",
"                                                                                                                                                                                                                                                                                                & = < 5 B B y B 9 = ; # P I I I H.I I L J J B X . . . . . . . . . . . . . . . . . . . . . . o o . 5 4 4 5 w w w 9 9 8 8 y y y y + +                                                                                                                                                                                                                                                                             ",
"                                                                                                                                                                                                                                                                                                - - = = B B c B 9 ; 7 O P I I I H.H.H.P H J B X X . X . . . . . . . . . . . . . . . . . . . o . o 5 = 4 5 w 9 w 9 9 9 8 y y B y .                                                                                                                                                                                                                                                                               ",
"                                                                                                                                                                                                                                                                                              . 9 w w w V B B B 8 = ; . L Y I I H.I H.P H J B = 8 8 2 . X X . . . X . . . . . . . . . . o O O % O = 4 = 5 w 9 w 7 4 8 ; y y B y                                                                                                                                                                                                                                                                                 ",
"                                                                                                                                                                                                                                                                                              . 9 w q q V V H H 8 ; 8 X L Y I U H.U H.P J J H 7 e 8 2 O O O . . . O . . . . . . . o o o O o o o & 4 = = 5 w w w 7 7 8 8 y B B y                                                                                                                                                                                                                                                                                 ",
"                                                                                                                                                                                                                                                                                          r r 9 q q w 9 9 9 9 e + X * . L I I H..X.X.XH.I U Y H J H H t t t r 8 8 8 : : : = = ; 4 7 9 9 7 = = = & 4 = = 9 q w w 8 9 8 8 e e e e                                                                                                                                                                                                                                                                                 ",
"                                                                                                                                                                                                                                                                                        7 w 9 7 q q q 9 9 9 e r + O + . L I I H.hX.XhXH.Y Y I V J J H c y y r 8 8 8 ; : : = - = = 4 7 7 4 - & & - 4 4 4 9 q q q 8 9 e e e e e e                                                                                                                                                                                                                                                                                 ",
"                                                                                                                                                                                                                                                                                        - 9 9 9 0 9 9 9 9 9 r r * X + . K I I H.hX.XhXH.U U Y J J H G c c c r 8 8 e = ; ; ; = ; ; 7 7 7 7 = - - & 4 5 5 9 q q w 9 8 8 e 8 e e ;                                                                                                                                                                                                                                                                                 ",
"                                                                                                                                                                                                                                                                                      5 0 g g q z B c B B B c B > @ > O K Y I .XhXhXhX.XH.H.Y J J L J G G H c t t t 2 2 2 2 = = = 4 4 4 4 - & & & = 4 5 5 w w 9 9 e e u ; ; : :                                                                                                                                                                                                                                                                                 ",
"                                                                                                                                                                                                                                                                          H L L L I vXvXvXkXvXvXAXGXGXGXHXHXHXJXY K P G U H.I H.U U U Y Y Y Y J L L J H H J c t y t 7 2 7 2 = - - = = = 4 - & & & & = 4 5 9 9 9 P P P P y e ; i                                                                                                                                                                                                                                                                                 ",
"                                                                                                                                                                                                                                                                          B B B V N .X.X.X.X.X.XjXlXlXlXvXIXIXSXK H K G U U Y H.H.U U Y U U Y J J L J H V H c t t t 2 2 8 8 = - = ; 7 7 4 = & - & & = 4 7 w w 9 J J K K u e : :                                                                                                                                                                                                                                                                                 ",
"                                                                                                                                                                                                                                                                          V V V L L .X.XjXkXkXkXvXSXSXSXPXPXPXLXP K K B Y U Y U U U U Y U Y P H J H J H G H c r t t 2 2 2 2 : : ; 8 8 8 8 = * = - - = 7 9 r r 9 L P J Y r e i : .                                                                                                                                                                                                                                                                               ",
"                                                                                                                                                                                                                                                                          7 0 0 q w F V V V V V B B V H J K P Y t u r * hXkXjXhXjXjXjXjXjXjXjXhXhXhX.XU Y U P H J H t r r e ; : = : : : : % O % O O % & = 7 9 2 kXlXkXlXP K G G B H J B K K u u 7 ;                                                                                                                                                                                                                                                             ",
"                                                                                                                                                                                                                                                                          q q 0 q q V V V V B V B t c y * : ; : i e e X hXlXlXjXhXhXhXjXhXhXhXhXhXhXhXU Y U P G H B 9 9 9 9 ; = ; ; ; ; = & O O o o o O & ; 7 2 hXjXhXjXJ y t u t y B y U U r t t r                                                                                                                                                                                                                                                             ",
"                                                                                                                                                                                                                                                                          q 0 q q t J J H V B B y t c B * : 2 ; i 2 e X hXlXlXkXjXjXhXjXkXzXjXhXhXhXhXU U U P B H B e 8 8 8 ; : ; ; ; ; = % . . o o O O * ; 7 2 hXjXjXkXJ y u e u t y y U U 0 w t t                                                                                                                                                                                                                                                             ",
"                                                                                                                                                                                                                                                                        - r q t r t B G G B B G B B B c : : : * : : e . zXSXSXSXIXlXlXlXlXIXlXU hXhXhXP P P K B G y e e e e : : : : : : : * @ . . . . o + : ; = .X.X.XhXG u e e t t y y P P t w w 0                                                                                                                                                                                                                                                             ",
"                                                                                                                                                                                                                                                                    V z z < < = < * O o . . . . . X . . . . . . y G T . lXSXIXSXLXPXPXSXSXSXlXy H H y * : : * @ > > . . . . . . . . . . . . . . . . . . X O # O y c t G O . . . O . . + e 9 - & 5 9                                                                                                                                                                                                                                                             ",
"                                                                                                                                                                                                                                                                    V z z 2 9 2 2 * . . . . . . X X . . . . . . u y T . lXSXSXPXLXPXLXPXSXPXIXu K K G : : 8 8 : : : . . . . . . . . . . . . . . . . . . . X O . t c t G O . . @ : * @ * 8 9 5 5 5 9                                                                                                                                                                                                                                                             ",
"                                                                                                                                                                                                                                                                    V B t 9 8 2 2 : . . . . . . . . . X . . . . y y y + zXSXSXPXLXLXLXPXLXLXSXK Y U P r u t u ; e ; o . . . . . . . . . . . . . . . . . . + * # c B B K * . . @ 8 : : : r w 5 5 5 w *                                                                                                                                                                                                                                                           ",
"                                                                                                                                                                                                                                                                    t c c ; * * * @ @ @ . . . . @ X @ + ; ; ; ; y y y + zXSXSXPXKXLXJXSXzXzXhX. * * # X X . . . . . . . . . . . . . . . . . . . . . . . . O X O 9 9 9 8 : ; : : : : + : ; ; - w w q -                                                                                                                                                                                                                                                           ",
"                                                                                                                                                                                                                                                                        # X X X @ . @ @ . . X X * : : * t u u u y y y + zXSXSXPXJXLXJXIXzXzXhX. * * # X X . . . . . . . . . . . . . . . . . . . . . . . . O O . ; 7 7 9 8 8 e e * * O * * = & w q t =                                                                                                                                                                                                                                                           ",
"                                                                                                                                                                                                                                                                        # X X X . . @ @ . X X X * 2 8 ; y e u u y y y * zXSXSXPXJXLXJXSXzXzXhXX ; - & O O X X . @ @ . . . . . . . . . . . . . . . . . . . @ O o 8 7 9 9 9 e e e * % O % * - & w q t -                                                                                                                                                                                                                                                           ",
"                                                                                                                                                                                                                                                                        * X X + . . @ @ . X X X : 8 : e u y y u y y y + zXSXSXSXJXLXJXSXhXlX.X# # # # # # $ X X . . . . . . . . . . . . . . . . O . . . . @ O O 8 2 8 ; r e e 8 & * % * = = - q w t -                                                                                                                                                                                                                                                           ",
"                                                                                                                                                                                                                                                                        * X X @ + @ @ . . @ X X K Y K K @ O * + t u y O jXIXvXSXPXPXPXhX2 2 c jXhXhXhX.X.X.XI J L J B B t t q w 9 9 9 9 9 w w w ; . . . . . . . * * = * r 9 r 9 O % % * = - & w q t -                                                                                                                                                                                                                                                           ",
"                                                                                                                                                                                                                                                                        . . @ @ + @ @ @ + > > X U hX.XhX+ > : + u u u . jXlXlXSXPXSXPXH.8 t c kX.X.X.XH..X.XL B V V q q q q w w w 9 9 9 w w q q 9 . . . . . . . + O * % 9 9 q 9 O & % * = - & w q q &                                                                                                                                                                                                                                                           ",
"                                                                                                                                                                                                                                                                        . . + + + + @ @ > : : . hXlXlXlX* * : > u u y . hXlXkXvXPXSXGXhX2 r t jX.X.X.XH..X.XL V V V q q q q w w w w w w w w q t 9 . . . . . . . + * * % 9 9 9 9 & & % * = - & w 9 w                                                                                                                                                                                                                                                             ",
"                                                                                                                                                                                                                                                                        y r : * + + + @ > : : . hXlXjXlX* : : > u u y X hXjXjXlXSXIXSXH.2 r t jX.X.X.X.X.X.XL V V V q t t t q q w w w w q q q r 9 . . . . . . . O % % % 9 9 8 9 & & & * - = & 9 w r                                                                                                                                                                                                                                                             ",
"                                                                                                                                                                                                                                                                          * 7 9 9 8 O * + + > @ K Y U U > > + * y t c * hXjXjXjXkXkXlXY = r t H.U I I P I P V t y y 7 ; 9 ; ; = 4 = 4 4 4 9 9 9 7 . . . . . . . O O O % - = ; ; - & = + +   + : ; :                                                                                                                                                                                                                                                             ",
"                                                                                                                                                                                                                                                                            c K J B - * . X @ . @ @ @ > . @ + . G B G 2 hXjXjXjXhXhXjXL - e 7 H c B B r t t 8 ; 8 8 . . . . . . . . o o O = = = = . . . . . . . . . . . o O O O = & =                                                                                                                                                                                                                                                                           ",
"                                                                                                                                                                                                                                                                            H H B y # * O X @ . @ @ @ . @ @ + O G G H e hXjXjXhXhXhXjXP ; u e B B B B t c c t 8 8 8 O . . . . . . . O o O = 4 = = . . . . . . . . . o o O O O O = = =                                                                                                                                                                                                                                                                           ",
"                                                                                                                                                                                                                                                                            L J H B & : . X . @ . @ @ @ + + @ @ c B G t hXkXkXjXjXjXlXP * 8 8 B c c y 9 r r ; O % + . . . . . . . . . . o = 7 7 = . . . . . . . . . o o O O O O - & =                                                                                                                                                                                                                                                                           ",
"                                                                                                                                                                                                                                                                            B L K B : 8 * + + + . . . . @ + * @ G G H y hXjXjXhXH.H.hXK O * : r 9 9 8 O O O . . . . . . . . . . . . . . . * ; = * . . . . . . . . o o o o . . . - - =                                                                                                                                                                                                                                                                           ",
"                                                                                                                                                                                                                                                                              J J B : e 8 8 e i @ . @ . + . + . K K K G .XhXhXU J K P c . . . ; ; 2 ; . . . . @ . . . . . . . . . . @ . . . . . . . . . . . . . O o o O O o . . ; = ;                                                                                                                                                                                                                                                                           ",
"                                                                                                                                                                                                                                                                              P K G 8 e 2 ; e e . . . . ; * : . K K K J .XhXhXH.J P Y c X . @ e 8 8 ; X . . . . . . . . . . . . . . . . . @ . . . . . . . . . . . . o o . . . . = - =                                                                                                                                                                                                                                                                           ",
"                                                                                                                                                                                                                                                                              t r t 8 e ; > : : @ @ @ . ; : : * K P K H H.H..XI B J K u . . @ : : * + . . . . . . . . . . . . . @ . . . . . . . . . . . . . . . o O O O . . . . ; = :                                                                                                                                                                                                                                                                           ",
"                                                                                                                                                                                                                                                                                  : e 8 + . . . @ + + + 8 e e ; K K K L L L P H r t c 2 . . . . . . . . . . . . . . . . . . . . . . . . . . . . . . . . . . . . O O O + . . . . : - *                                                                                                                                                                                                                                                                           ",
"                                                                                                                                                                                                                                                                                  : e e + . . . + > + + e e e ; K P P P P P I L y y G e . . . . . . . . . . . . . . . . . . . . . . . . . . . . . . . . . . . . O O O % . . . . : - =                                                                                                                                                                                                                                                                           ",
"                                                                                                                                                                                                                                                                                  * e ; + . . @ . + * + ; ; ; 2 P P P P P P I L t y T e . . . . . . . . . . . . . . . . . . . . . . . . . . . . . . . . . . . . O O % % . . . . : = =                                                                                                                                                                                                                                                                           ",
"                                                                                                                                                                                                                                                                                    > : : : ; ; ; : : : B B c y L P P P P P P J r t y ; . . . . . . . . . . . . . . . . . . . . . . . . . . . . . . . . . . . . % % & * . . . . = - *                                                                                                                                                                                                                                                                           ",
"                                                                                                                                                                                                                                                                                    : ; e e u u i : > > G G B y P P I P P P P J r r y ; . . . . . . . . . . . . . . . . . . . . . . . . . . . . . . . . . . . . & & - - . . . . * & *                                                                                                                                                                                                                                                                           ",
"                                                                                                                                                                                                                                                                                    e e u e u u ; : : * G y c y P I I I P P P J r t y ; . . . . . . . . . . . . . . . . . . . . . . . . . . . . . . . . . . . . - = - = . . . . * & *                                                                                                                                                                                                                                                                           ",
"                                                                                                                                                                                                                                                                                    u u u u u u : @ @ @ J H H B P Y Y I P I P J r t c 8 . . . . . . . . . . . . . . . . . . . . . . . . . . . . . . . . . . . . = = 4 = . . . . * + *                                                                                                                                                                                                                                                                           ",
"                                                                                                                                                                                                                                                                                    y u u e u u : @ @ X K H H G Y Y U Y I Y Y K r y c 8 X . . . . . . . . . . . . . . . . . . . . . . . . . . . . . . . . . . . 7 7 7 4 o . . . + + *                                                                                                                                                                                                                                                                           ",
"                                                                                                                                                                                                                                                                                  < t t t u y u ; @ + O K J J G Y U Y Y P P P H 8 t t 2 O X X X X X . X . @ . @ @ @ . . . . . . . . . . . . . . . . . . . . . . 7 5 5 9 . . . . + % *                                                                                                                                                                                                                                                                           ",
"                                                                                                                                                                                                                                                                                  N V B 9 + @ @ @ . . . J G c y hXjXjXjXjXkXkXhXP Y Y L B B B y y y y t u u e e e e > > + + . @ . . . . . . . . . . . . . . X . r q w q O . . . O + +                                                                                                                                                                                                                                                                           ",
"                                                                                                                                                                                                                                                                                  F x V 9 + > > + . @ . J y B t hXhXhXhXhXjXjXH.K P P J c c y r y u u u u u e i e ; + @ @ @ . . . . . . . . . . . . . . . . . . w w w q O . . . O o O                                                                                                                                                                                                                                                                           ",
"                                                                                                                                                                                                                                                                                1 F x V 9 # > : + . . @ G B B y hXjXjXhXjXjXjXhXK Y Y K B B B t y t t u u u e i e : @ @ @ + @ @ . . . . . . . . . . . . . . . . w w w q O . . . . . .                                                                                                                                                                                                                                                                           ",
"                                                                                                                                                                                                                                                                                6 x g B 9 & > : @ @ @ . H y y t hXhXhXhXjXjXjXhXK P Y J B B B t y y y u u u e : ; : @ @ @ @ . . . . . . . . . . . . . . . . . . q q q q % . . . o . .                                                                                                                                                                                                                                                                           ",
"                                                                                                                                                                                                                                                                                g f - = & O + @ : > * * G y B r hXhXhXhXjXjXjXhXK P Y K G H G y y y y u u u e : : : @ @ @ @ . . . . . . . . . . . . . . . O O O q w w q % o . . O O O                                                                                                                                                                                                                                                                           ",
"                                                                                                                                                                                                                                                                        L G.F N C z X + ; e e 2 P U U hX+ + > * P Y Y P H.H.H.Y y B G c t y t e e e e : : : > @ @ @ . . . . . . . . . . . . . . . . . . * 9 9 5 q w w q & & * * & & *                                                                                                                                                                                                                                                                           ",
"                                                                                                                                                                                                                                                                        Z V.C h x x . o 8 r 8 ; J K K P @ : e + P Y Y P H.H.H.Y y c G c c c y e r r e : : : + . . . . . . . . . . . . . . . . . . . . . = 8 9 5 q q w q & & & % = = =                                                                                                                                                                                                                                                                           ",
"                                                                                                                                                                                                                                                                  V C S C.G.n k C z O > : e 8 * J K K P > : : * P K P P U U U P r c t y y y t 8 8 8 e * > > @ @ . . . . . . . . . . . . . . . . . & % & = 9 9 5 w q w q - & & & = * ;                                                                                                                                                                                                                                                                           ",
"                                                                                                                                                                                                                                                                  F V.q.F.OXm h h g . + : ; : $ H K K K + > * + B B H B J J J c X * * 2 8 e e ; : : : . X . . . . . . . . . . . . . . . . . . . . = - = 4 9 9 5 w q w q & O O O ; = 2                                                                                                                                                                                                                                                                           ",
"                                                                                                                                                                                                                                                                  w.C.y.p.OXA k C x # O * ; : : G K K K * @ % : H H K H J J H c # - * 8 9 r 8 - : ; : . . . . . . . . . . . . . . . . . . . . . . = = = 4 5 5 5 5 q w w % . . . 4 = ;                                                                                                                                                                                                                                                                           ",
"                                                                                                                                                                                                                                                          z L F 6.F.F.F.I.#XA k C C < e T K Y Y e * O > : ; 8 + y y c t H B H y O * O 2 e r 8 * : : : X . . . . . . . . . . . . . . . . o + * & O 5 4 4 5 9 5 9 5 w w w O . . . 2 = :                                                                                                                                                                                                                                                                           ",
"                                                                                                                                                                                                                                                          h 5.1.p.F.D.I.oX#X2.C C x < 2 y K K K e : : * > * : : e e r 2 c c c r O & O 7 e e 8 * : ; : X X . . . . . . . . . . . . . . . o % * & & 5 4 5 5 9 9 9 5 9 5 9 o . . . 2 = *                   ;                                                                                                                                                                                                                                                       ",
"                                                                                                                                                                                                                                                          2.G.OXOXoX$XoXoX1XA h C N - : y K K K e ; : ; + : : : e e r e L P I L c B y B G B y 9 e e 8 + + O O @ . . . . . . . . . . . . o % & & & 5 = 4 5 w w w 4 5 4 7 o . . . * % O                 : ; :                                                                                                                                                                                                                                                     ",
"                                                                                                                                                                                                                                                    F 5.3.F.#XoXOXOX$XoXP.=X2.k x x * > y K K P e : : ; @ : * + e r r 8 P P I P c B B H H H B r r r e * + + O O . . . . . . . . . . . . O & - - & 5 = 5 5 w w w - 5 = 7 . . . . . . .                 : 8 :                                                                                                                                                                                                                                                     ",
"                                                                                                                                                                                                                                                  x V.V.A.OXoXoXoXOX$XoXoX=Xm j x x * + y H c H e : i : + * : * e r r 7 P P L L c B B B B B B r e r r * + O @ O o . . . . . . . . . o o O & - & & 5 4 5 5 w 9 9 = 7 ; 7 . . . . . .                   ; e ;                                                                                                                                                                                                                                                     ",
"                                                                                                                                                                                                                                                  C q.0.e.L.oXOXoXoXoXoXU.1Xm d h x # * e y T T i : > : @ @ + * e r u 8 P P Y P y t c c y c c 8 e e 9 : O X X . . . . . . . . . . o O o O & & & & 4 4 5 5 5 9 9 4 7 2 2 O o . . . . .                 : 8 2                                                                                                                                                                                                                                                     ",
"                                                                                                                                                                                                                                                  D C.t.t.L.oX$XoX+X$X$XoX1X1.k C N , 2 2 : : : y T y G e e e 8 : * O . t y y c B J K K K J K Y P P P J B y u e e 8 8 8 8 8 7 4 = 4 4 = 4 5 7 5 5 5 5 5 5 & & & . o O % % * * * . . .                 8 u e                                                                                                                                                                                                                                                     ",
"                                                                                                                                                                                                                                              F h C.OXF.D.OXoXoXoX+X%X%XoX1X3.Z S C < 9 2 X + @ y K H J e u u t O . . . e e 8 e H U H.U U Y H.lXjXlXkXhX.XU P J J H G G B B y t y t t t t r r w w 9 9 w 7 % O o o O o O = ; ; ; . . .                 e u e                                                                                                                                                                                                                                                     ",
"                                                                                                                                                                                                                                              F d C.F.D.D.#X#XU.+X$X%X*X$X=X3.m S C < 2 = O > . y H G G e u e u + . X . 8 r e u J U Y Y Y Y U lXjXjXjXhXU Y K B G G B B B B y t y t t r r 9 9 9 9 9 7 9 7 O o o . . . . ; ; ; ; . . . .               e t u                                                                                                                                                                                                                                                     ",
"                                                                                                                                                                                                                                              l   e.F.L.D.I.U.#XU.+X$X$X+X=X4.m m n , < 2 X * . c K P K y r r y O X X . * e 8 8 P hXhXhXhXhXjXSXSXSXlXlXzXhXU Y Y P P K K J G G B B c c c y t y t t u r 8 * O o . o o o ; : ; ; . . . . .             e u e                                                                                                                                                                                                                                                     ",
"                                                                                                                                                                                                                                    V I XXXX1XqX1X%XD.D.D.#X#XU.+X*X=X=X&X3XC.q.A.V.x V z X X . : ; : 2 t t y r K K K J J J B r . * X X X X @ : > > > : : + @ @ @ . . . . . . . o . . . . . . . . . . o . . . . . . . . o . . . . . . . . . . . .     ; e                                                                                                                                                                                                                                                       ",
"                                                                                                                                                                                                                                    x F V.q.S.S.S.F.F.OXD.L.U.$XU.$X%X$X@X:Xu.e.y.q.h N z X X X : ; ; : t t y u J K J H J H G e X X . . . . . X @ @ @ @ @ @ . . . . . . . . . . . . . . . . . . . . . . . . . . . . . . . . . . . . . . . . X X X X   2 r                                                                                                                                                                                                                                                       ",
"                                                                                                                                                                                                                                    j 5.6.e.S.F.OXF.S.F.D.oX$X+X$X%X%X$X-X:Xu.7.y.q.h x g X X X * 2 8 8 y y y r J J H H J B B 8 . . . . X . . + + + + @ @ @ . . . . . . . . . . . . . . . . . . . . . . . . . . . . . . . . . . o o . . . X X X X X X < r                                                                                                                                                                                                                                                       ",
"                                                                                                                                                                                                                            h h     A 6.0.t.p.p.A.A.A.A.p.L.+XP.oX%X%X*X@X;Xa.r.r.y.k C g , $ # 2 * : : 2 e e e H H H B L L L c * : ; * . . @ . . . . . . . . . . . . . . . . . . . . . . . . . . . . . . . . . . . . . . . . . O O O O X X X < 1 1 1 f z z f 0 f g g 0 <                                                                                                                                                                                                                                       ",
"                                                                                                                                                                                                                      F F S XXXXXXG.G.F.S.u.d.e.y.y.C.y.d.s.oXP.P.%X$X&X&X:XK.u.a.S.m F F x N V 2 X X X X . . . y y c c H..X.XY 2 u y 8 + + O . . . . . . . . . . . . . @ . . . . . . . . . . . . . . . . . . . . . . . . . . O - - & 2 9 0 1 g C x x x N C C C N N C N N x N N x x z 0                                                                                                                                                                                                                         ",
"                                                                                                                                                                                                                    g I 5.m G.A.A.C.t.t.u.u.t.t.q.q.t.y.d.s.OXoXP.*X%X%X&X;XL.a.a.D.1.2.S k N N 0 # X X X X . X c y y t hXhXhXP : u u : X O O . . . . . . . . . . @ . . . . . . . . . . . . . . . . . . . . . . . . . . . . X . & & # 9 g g g x h h h h h k k C k n n h h h h g h g x g 1 0 0                                                                                                                                                                                                                   ",
"                                                                                                                                                                                                                    C V.q.6.p.S.F.S.p.t.u.u.y.y.y.t.C.y.y.s.OXOXL.*X=X*X&X-XY.a.v.F.3.5.A k k N 1 X X X X X X X y t y y jXkXkXH.: e u ; X O . O . . O . @ . . . . + . . @ . . . . . . . . . . . . . . . . . . . . . . . . . . X # # $ 1 f f f h k k k k k k k k k k k h h h h j h j h C C F F                                                                                                                                                                                                                   ",
"                                                                                                                                                                                                              V N x w.A.y.t.u.D.u.u.p.p.S.S.t.t.t.y.y.y.y.p.D.D.a.%X=X%X@X&XoXP.P.I.4.0.3.1.2.F g 1 < < X X X X r t u e H.H.H.L r t y e + @ > G y y y O : @ : u e u @ . . . . . . . . . . . . . . . . . . . . . . . . . . . . X # - , 6 g h h k k k k k k m Z m m m m n n n n k k k h C C C C g                                                                                                                                                                                                                 ",
"                                                                                                                                                                                                              H.J.V.q.C.e.e.r.r.d.t.D.F.D.D.S.S.S.t.t.t.t.t.S.p.s.$X%X$X@X&X=X%X*X*XS.F.y.7.7.V.S x x x < < - ; : 2 : * K K K G G G G y > > y hXU U Y e u i K UXU U e @ . . . . . . . . . . . . . . . . . . . . . . . . + + + # 0 f 6 C F F S S Z m A A 2.5.5.5.5.5.5.D A S A Z Z S C C C C C F V                                                                                                                                                                                                               ",
"                                                                                                                                                                                                              V.5.w.6.y.e.e.t.d.d.d.S.F.D.D.D.a.D.p.t.t.t.C.S.Z.u.$X%X$X@X@X=X*X$X+Xu.F.y.4.4.6.Z h h x , , - = ; ; : : K P P K c G G y > @ e hXP P Y : e : T Y Y Y > . . . . . . . . . . . . . . . . . . . . . . . . . + * + # 0 s s C S S S k A m A 2.2.2.2.2.2.2.2.A A S A Z n C C n C C n C V                                                                                                                                                                                                               ",
"                                                                                                                                                                                                              V.5.3.0.0.e.e.t.t.t.y.S.F.S.D.D.u.p.t.d.t.t.C.Z.Z.u.oX%X$X@X+X*X%X&X+Xi.p.9.<.8.4.m d d h , , , , < < 2 ; P P P J G J H y : + e UXP Y P : e : T Y Y Y : . . . . . . . . . . . . . . . . . . . . . . X X X # $ # X s s p k m m A m l l l 1.1.2.2.5.3.3.2.1.A A A m k n Z n k m n C V                                                                                                                                                                                                               ",
"                                                                                                                                                                                                        g j 2.V.6.7.q.0.0.0.e.p.t.t.I.oXU.U.K.D.F.u.d.t.t.t.Z.u.i.oX$XoXoX:X>X:X;X>X>X:X*XoXoX%XF.C.C.A.A A S F h h g f x x z z 8 : 2 : + @ : J B B y O + X ; G G G + . . . . . . . . . X . . . . . . . . X . X 9 6 0 6 N x h k 5.3.3.q.C.y.y.A.t.u.t.Z.S.A.A.y.y.C.C.e.0.7.0.5.3.3.3.2.2.2.3.2.I z                                                                                                                                                                                                             ",
"                                                                                                                                                                                                        C n 5.V.7.7.0.6.0.0.0.p.p.t.OX#XU.U.K.L.F.p.y.t.t.t.Z.u.t.OX$XoXoX:X>X>X>X4X2X3X:X&X&X=XI.D.F.F.8.6.5.q.k k k h x x x z - # * * * + : K G B B + * . ; G c c @ . . . . . . . . . . . . . . . . . X X . X z g h h D D A 2.F.Z.t.S.F.S.F.OXL.I.L.I.I.I.I.F.D.D.F.t.t.y.y.0.0.6.q.3.3.3.q.6.V.x                                                                                                                                                                                                             ",
"                                                                                                                                                                                                        C Z 5.V.q.q.q.0.0.0.0.t.t.t.OX#XU.U.K.K.D.t.y.y.y.t.t.t.u.OX$XoXoX:X>X>X:X>X,X:X;X@X$X*XP.D.D.D.8.4.3.q.l d j j h k C h , $ X X $ $ : G B y B O * . : y y y + . . . . . . . . . . . . . . . . . X X . X f s s s Z A m ,.S.u.r.u.u.u.u.D.D.K.v.K.K.D.L.u.a.p.S.y.e.e.y.4.6.6.6.3.3.3.6.5.w.h                                                                                                                                                                                                             ",
"                                                                                                                                                                                                      f S A 5.w.q.6.0.0.0.0.e.t.t.t.OXoXU.U.K.K.F.t.d.t.t.t.C.t.t.I.oXL.P.=X:X:X;X>X2X,X>X:X:X>X+XP.P.I.9.e.e.y.3.m A A C C Z k 1 $ X $ , $ 2 J V B B * + X e G G y + . . . . . @ @ . . . . . . . O O O - < - , C n n k 6.7.4.4.I.P.I.U.oXU.U.oX+X+XT.+XU.U.oXK.D.D.D.t.t.y.t.0.7.0.7.3.3.3.6.6.q.C                                                                                                                                                                                                             ",
"                                                                                                                                                                                                      L 5.2.2.A 2.2.6.0.0.e.y.t.t.t.OXoXU.U.K.K.L.p.t.t.t.t.Z.u.d.F.I.L.L.*X&X&X-X>X6X6X6X6X6X7X2X3X3X2XoX$X#X%XOXF.F.G.q.q.q.5.2.w.V.F C C x f 0 1 < # 2 2 X . . X . . X X X . . . . X X 7 9 9 0 z g z F F F C XXXXOXS.1X1X=X=X2X2X4X6X6X2X2X2X4X4X4X2X;X;X:X+XoXoXoXD.D.S.S.t.y.C.y.6.0.6.q.q.0.2.C F J                                                                                                                                                                                                       ",
"                                                                                                                                                                                                    0 V.2.2.D A D A 6.y.7.e.y.t.p.p.OXOXU.U.K.K.F.p.t.t.t.t.t.t.t.F.F.F.P.*X=X:X@X>X6X7X7X7X7X7X>X:X3X>XoX+XoX%XD.u.S.S.7.7.0.4.1.A 2.S k k C j 6 6 1 , - < # # X X X X X X X X X X X X X 7 9 < 6 h j j n C m l G.F.D.p.*X*X*X*X2X2X2X2X2X2X3X2X>X>X4X>X-X-X;XP.U.I.U.D.D.S.S.t.y.y.y.6.6.6.6.7.y.1.k C V                                                                                                                                                                                                       ",
"                                                                                                                                                                                                    f J.D 2.2.2.D D 7.y.9.e.y.A.p.p.I.OXU.U.K.L.L.p.t.t.t.t.t.t.t.F.F.F.P.*X:X:X&X2X7X7X7X7X7X7X>X,X2X>X+X+XoX%Xa.a.p.a.9.9.9.4.3.3.3.A k k k s s 6 1 , - - # X X X X X X X X . X . X X X 9 6 5 1 h j s k k k l F.S.D.u.%X*X*X*X3X3X3X3X,X3X2X>X>X>X4X>X-X;X:XP.U.L.I.a.a.p.S.y.e.y.0.3.6.4.6.7.y.1.n C V                                                                                                                                                                                                       ",
"                                                                                                                                                                                                    f J.2.2.A Z D Z 6.e.9.e.C.F.S.a.OXoXU.oXP.I.I.a.u.p.u.u.u.t.t.F.D.D.F.%X*X&X&X>X7X6X7X7X7X7X4X4X6X2X&X&X&X:XP.P.L.P.i.i.i.i.4.0.7.3.m m C d j j s 1 1 < , $ - $ # # # X $ $ # $ - - $ f f s s D Z n 3.6.q.4.1X=X=X%XqXqX3X3XqX9X9X6X6X6X6X6X4X4X4X4X-X;X>XP.oXOXU.a.a.a.S.t.e.y.0.3.4.3.3.6.6.1.n C N                                                                                                                                                                                                       ",
"                                                                                                                                                                                                    f 5.S A Z Z Z m 7.y.e.e.A.F.F.D.I.oXU.U.U.I.OXL.D.D.F.p.t.t.t.S.p.u.p.L.oX+XP.:X,X>X4X7X7X7X8X0X0X0X8X8X0X8X6X6X7X7X6X4X2X:XoX%X#XI.F.F.S.y.y.C.q.2.5.5.S C C C x x x x x x x C F F C 5.5.5.w.1X1X1XcXcXcXcXnXnXbXbXnXnXnXmXbXbXbXbXbXxXbX0X8X8X0X8X2X2X5X+X$XoX$XL.D.F.F.y.y.y.q.3.3.3.2.5.3.A C C F                                                                                                                                                                                                       ",
"                                                                                                                                                                                                    f 5.S A m Z D Z 7.y.e.e.A.F.F.L.OXoXOXU.OXU.L.L.a.a.D.p.d.t.d.u.u.u.a.OX%X%XP.:X2X,X4X7X6X6X8X8X8X8X6X7X7X6X2X2X4X2X>X:X;X&XL.P.P.i.r.u.r.4.4.7.3.m m A l d d d s s s s s s s j k k d m 1.,.,.%XOXF.1XqX9XqXxXxXxXxXbXbXbXnXcXxXbXxXxXxXbX9X9X9X8X7X>X3X5X+X+XoX$XL.D.D.F.y.e.y.0.3.3.2.2.5.5.D k N F                                                                                                                                                                                                       ",
"                                                                                                                                                                                                    f F S A Z D D Z 6.y.e.e.S.F.F.D.I.I.L.P.U.P.U.L.a.a.D.p.d.d.t.S.S.p.D.oX%X%X+X3X6X4X6X8X8X9X8X0X0X8X9X9X8X8X4X2X2X2X:X;X;X&Xa.D.a.r.9.9.9.<.8.8.,.l l l d p p p p 3 3 3 3 3 3 p p p p l l l M v.s.i.%XqX6X6X0XxX0XxXxXcXcXbXcXcXbXcXcXxXbX9X9X9X0X7X>X3X4X+X%X$X%XI.K.L.I.y.y.y.C.3.5.5.5.5.5.F S F F                                                                                                                                                                                                       ",
"                                                                                                                                                                                                    0 C k k n D D Z w.q.e.e.p.F.D.D.I.I.L.I.oXoXoXoXU.I.I.D.p.p.p.S.S.u.p.D.L.L.a.oX$X+X&X>X:X:X2X6X6X6X6X6X6X6X6X6X6X6X2X,X2X3X3X3X3X3X3X3X3X*X=X1X%X#X#X1X#XG.XXXXG.G.G.G.G.G.G.XXXX#XOX1X3X1X=X0X8X9X0XxX0XxXbXbXbXbXnXnXnXnXmXmXmXnXnXbXnXxX0X9X0X7X:X>X2XP.U.P.U.a.u.u.S.7.4.6.6.m S Z C C C C C C C                                                                                                                                                                                                       ",
"                                                                                                                                                                                                    < x j d k 5.D A q.q.0.e.t.S.p.S.F.I.L.I.oX+X+X+XoXoXoXL.D.D.D.F.D.u.u.p.a.a.u.L.L.v.U.+X+XP.;X:X>X>X4X6X5X6X4X4X4X4X>X,X2X2X:X:X,X>X:X3X3X&X;X&X*XoXoX#XI.L.OXI.S.S.S.A.S.A.S.F.OXI.F.=X=X=X:X0X9X9XxXbXxXxXbXnXbXnXmXmXmXmXmXmXmXmXmXnXmXxX0X0X0X6X:X>X>XY.U.I.U.a.r.t.C.4.4.6.5.k n k k h k C S F C g z                                                                                                                                                                                                   ",
"                                                                                                                                                                                                    9 z j d k 5.D S w.q.0.0.p.S.p.S.F.L.L.I.oX+X+X+XoX+XoXL.a.s.D.D.S.S.p.S.a.a.u.F.D.D.U.$X+X+X:X>X>X>X6X6X5X6X6X6X6X4X>X,X,X,X,X,X>X,X,X>X;X@X-X&X&X+X+X%XoXU.P.K.a.p.p.s.D.D.s.D.I.P.v.:X3X>X:X0X8X9XxXbXxXxXbXnXnXnXmXmXmXmXmXmXmXmXmXnXmXxX0XxXxX9X:X>X3XP.P.L.I.u.d.t.C.6.6.6.w.k C k C h n C S C C x z                                                                                                                                                                                                   ",
"                                                                                                                                                                                                    7 g f s k 5.D A w.q.0.0.t.p.S.D.F.OXI.OXoX+X+X+X+XoXoXL.s.a.D.D.u.u.p.p.p.p.p.L.I.L.#X%X$X$X:X3X>X,X7X7X6X7X7X6X6X6X4X,X,X,X,X,X>X>X2X4X2X:X>X:X:X&X+X$XU.P.U.U.a.i.i.d.d.u.d.s.K.K.a.&X:X&X>X8X7X9X0XxXxXxXbXbXbXbXmXmXmXmXmXmXmXmXmXmXmXxX0XxX0X7X;X:X>XY.U.U.OXD.u.S.A.4.6.5.w.k C k C C h C S S C h f                                                                                                                                                                                                   ",
"                                                                                                                                                                                                    7 z g s k w.2.2.q.q.0.0.d.t.t.t.S.D.D.F.I.OXoX+X+X+X+XoXL.L.L.F.D.D.D.D.D.D.d.D.D.a.D.L.D.K.P.+X+X+X&X;X&X;X;X&X;X;X-X-X;X;X-X-X&X&X@X@X+XP.T.Y.oXP.P.I.L.K.K.K.K.L.L.L.%X=X*X3X6X6X3X8X8X7X6X8X8X8X0X0X9X0XxXxXxXxXbXmXmXmXmXmXmXmXnXnXnX0X9X9X8X4X@X&X&Xa.a.a.D.r.9.e.0.1.m Z C s j s f s d k S Z S h x V                                                                                                                                                                                                 ",
"                                                                                                                                                                                                    < V g f C 5.2.3.6.6.0.6.y.t.t.t.S.S.D.a.L.L.L.oX+X+X$X+XU.$X$XD.L.L.L.I.D.u.i.a.D.D.p.S.u.u.D.P.L.L.+X+X+X+X+X+X+X+X-X-X-X&X@X@X+XT.U.U.P.v.K.K.K.D.D.D.D.a.a.D.U.oXP.K.3X3X:X6X8X9X9X8X8X8X8X8X8X8X8X9X9X9X0X0X0XxXnXmXmXmXmXmXmXmXnXnXnX9X9X9X9X3XP.+X$Xi.i.u.Z.e.7.7.q.k k k h 1 6 6 6 s s h F S C h h C                                                                                                                                                                                                 ",
"                                                                                                                                                                                                    < z 0 f C V.3.3.4.0.0.6.y.t.y.t.S.S.D.D.I.L.I.oX+X+X$X+XU.+X#XD.L.L.F.I.D.p.u.a.D.D.D.F.S.u.I.#XoXOX=X%X$X%X+X@X&X@X:X;X;X-X@X@X+XT.U.oXU.L.L.L.L.K.K.K.D.a.a.D.P.P.L.a.:X:X-X,X7X7X7X8X8X8X8X8X8X8X8X8X8X8X0X0X0XxXnXmXmXmXmXmXmXmXnXbXnX9X9X9X9X3XT.+X%Xa.u.S.S.y.7.0.q.m k C N 6 6 6 6 f s h F F C h h C                                                                                                                                                                                                 ",
"                                                                                                                                                                                                    6 z g g C 5.2.1.6.q.0.0.y.y.C.y.S.S.S.a.L.L.L.oXOXOXoXU.U.+XoXL.L.L.D.L.D.s.u.a.D.D.D.D.D.a.I.oXoXOX=X%X$X+X&X&X&X@X:X-X;X&X@X+X+XoXoXoXI.D.D.D.D.D.D.D.D.D.D.D.P.P.K.a.&X&X&X,X6X6X7X8X8X8X8X8X8X8X8X8X8X8X0X0XxXxXnXmXnXnXmXmXmXmXnXnXnX0X9X8X8X2X+X$X=XD.S.F.F.y.7.0.q.Z k C N 6 0 0 6 f f h F C C N k C                                                                                                                                                                                                 ",
"                                                                                                                                                                                              t L F x g 6 6 h D A m 6.0.q.0.0.y.q.0.y.y.t.t.S.D.D.D.D.D.K.L.U.oXU.I.U.I.P.I.I.I.L.L.I.I.L.D.D.D.a.p.p.u.L.D.D.v.L.v.v.Y.@X@X@X+X+X+X+XP.U.I.D.p.D.D.s.D.D.F.L.I.L.P.$X$X&X+X6X2X,X6X8X8X7X6X6X6X6X6X6X4X7X5X5X4X7X6X6XqXxXxXxXxXcXcXcXxXxX0XxX2X>X3X2X&Xv.L.U.r.t.t.C.7.3.3.5.k h h x < < < < 6 1 f h g g h j N                                                                                                                                                                                                 ",
"                                                                                                                                                                                              J F L x 6 6 6 h C k l 3.w.0.0.0.0.q.0.0.0.y.e.p.p.p.p.s.s.s.a.L.U.P.oXoXoXoXoX$X$X+X%X%X$XU.D.K.K.u.r.r.r.u.i.u.i.a.a.a.v.$X&X&X+XoXoXU.P.L.L.D.u.u.u.u.u.p.D.L.I.oXoX:X>X3X:X7X7X7X8X0X0X8X6X4X4X4X4X4X4X4X5X5X4X5X4X2X2X0X9X9X9XxXxX0X9XqX5X9X=X&X;X:X+Xa.D.I.e.e.e.y.4.1.2.2.h f g z , , - < < 1 6 f f f j j N                                                                                                                                                                                                 ",
"                                                                                                                                                                                              L F F x 6 6 6 h C n k 5.q.q.q.0.0.q.q.y.y.y.y.S.p.p.p.s.s.p.D.I.I.P.$X+XoXoXoX+X+X+X$X$XoXL.i.a.K.i.r.r.d.p.u.a.a.D.a.a.a.+X$X$XoXoX+XoXL.L.L.D.p.p.p.p.p.a.D.L.oXU.P.:X:X:X;X6X6X4X7X8X8X7X6X4X4X4X4X4X4X4X5X5X5X4X5X5X5X0X8X8X0X0X0X0X9X6X5X9X;X;X:X:X%Xa.D.F.e.y.y.C.6.2.2.5.k g x z - - & - < < 6 0 f f g f x                                                                                                                                                                                                 ",
"                                                                                                                                                                                              F F 5.h 6 6 6 x C C k 5.w.w.q.q.q.q.q.q.q.y.y.A.p.p.t.S.s.u.D.I.L.K.$X+XoXoXoX+X+X+X+X+X+XY.a.v.P.i.r.t.u.u.u.p.p.D.D.D.L.%X%X*X*XU.oXOXP.K.D.s.a.i.u.u.s.s.a.D.L.P.K.&X&X;X;X7X7X8X8X0X0X8X7X5X5X2X4X4X4X4X5X5X5X5X7X7X5X8X8X8X0X0X0X0X8X7X7X8X>X:X:X3X*XD.F.F.e.0.0.q.5.2.2.5.x g z z - < - - < < 0 0 f f h h N                                                                                                                                                                                                 ",
"                                                                                                                                                                                      L C C F F D D h 6 6 6 x C C h D 2.D 3.3.6.w.6.q.0.0.7.e.e.y.y.t.t.d.p.D.a.a.+XoXoX+X+X&X&X&X&X&X&X+X+X+X%XD.u.D.S.S.t.u.t.t.d.i.d.a.u.i.i.v.v.v.a.a.a.D.s.L.I.OXoXoXoX+X*X*X+X&X@X+X+X:X;X-X-X-X;X;X@X@X@X&X&X-X-X-X-X-X-X-X;X-X-X>X4X4X4X5X5X5X>X;X-X>XT.P.P.U.K.r.y.C.3.3.3.3.A Z Z S g g z z 2 8 7 2 < - < < 6 6 g g x                                                                                                                                                                                                 ",
"                                                                                                                                                                                    0 N N C S D A 5.h 1 6 6 g C C h D D 2.2.6.6.w.5.q.q.7.0.y.y.e.y.t.p.t.u.L.D.D.oX$X$XoX%X@X&X+X&X&X&X@X+X+X&XL.D.D.F.t.t.t.d.t.t.u.d.p.i.i.a.v.v.K.a.i.a.a.I.I.L.L.oXoXU.$X&X@X&X&X&X&X&X-X-X-X-X-X-X;X&X@X@X@X&X;X&X&X-X-X-X-X-X;X-X>X>X4X4X5X4X4X>X;X;X>XP.P.P.U.D.r.y.C.3.3.3.5.A S C C x z z z 2 8 8 2 - & < 7 < 0 g g x                                                                                                                                                                                                 ",
"                                                                                                                                                                                    0 N C S S A S 5.h 6 6 6 g N C k D D 2.2.w.w.w.3.q.q.7.7.y.y.y.y.t.A.t.u.F.a.D.oX$X+XU.+X@X&X@X&X&X&X@X+X+X$XK.a.D.F.t.t.t.t.u.u.u.d.u.i.i.i.K.v.v.a.i.a.a.L.L.P.P.oXU.P.+X@X@X@X&X&X&X&X-X-X-X&X-X-X;X@X@X@X@X&X&X&X&X-X-X-X-X;X;X-X>X>X4X4X7X6X6X3X:X:X>XT.P.U.U.K.r.t.C.3.5.5.5.S S C F x z z c 8 8 8 2 - - = 7 5 9 g f z                                                                                                                                                                                                 ",
"                                                                                                                                                                                    0 C C S A D S F h 6 6 6 g N N h S D D D 5.5.3.3.q.q.7.0.q.q.q.y.C.C.y.S.I.F.D.oXoXoXU.%X&X&X+X&X&X&X@X+X+X$XK.D.D.F.y.t.t.t.t.t.t.d.a.a.a.a.L.v.K.a.a.a.a.K.K.K.K.T.U.P.@X&X@X&X&X&X-X-X-X-X-X&X-X-X;X@X@X@X@X&X*X&X&X-X;X-X-X-X-X-X>X>X4X4X6X6X6X>X;X&X:XP.P.P.U.D.9.e.C.1.2.2.D S C C C x z c B 8 8 8 ; * = = = 2 9 z g x                                                                                                                                                                                                 ",
"                                                                                                                                                                                    0 N N C m Z h C s < < < 0 g g s b C n n Z A A A 6.5.3.3.6.6.3.6.6.4.4.e.S.u.u.L.L.P.K.oX+X+X+X@X@X@X@X+X+X&XP.D.D.F.y.y.t.y.S.S.S.D.#X#X$X$X=X*X*X%X%X*X$X$X+X+X$X:X;X;X2X4X4X4X5X6X6X6X4X4X6X4X4X>X>X+X+X+X+X+X+X+X+X+X@X+X-X@X@X-X>X4X4X4X4X4X4X:X&X&X=XK.L.K.L.u.7.7.q.1.A S D C C C C z z z c - * : * O . . . X $ 0 f g                                                                                                                                                                                                 ",
"                                                                                                                                                                                    0 N x C Z S h N 6 < 5 < 0 g g f C C C n D D A A 5.5.6.5.6.3.6.q.6.6.4.y.F.F.u.D.L.I.K.+X+X+X+X&X&X@X&X$X%X*XL.D.F.F.e.y.y.y.S.t.u.p.OX#X+XoX$X+X$X+X$X$XU.U.U.U.+X&X&X&X>X4X4X4X4X4X4X4X4X4X6X4X2X4X>X+X+X+X+X+X+X+X+X+X+X+X@X@X@X@X4X4X5X5X4X4X4X:X&X@X=XL.L.L.L.Z.4.7.q.A S F F C C C C z z c c ; : * # X . . . X # z g z                                                                                                                                                                                                 ",
"                                                                                                                                                                                    0 N x C S F C C f 5 5 < g x h g C F C C D D D D w.w.w.5.w.5.6.6.6.6.4.y.F.S.S.F.I.I.I.$X%X$X+X&X&X@X@X+X%X*XP.D.D.D.e.y.y.y.F.Z.u.a.#X$X$X+X%X%X=X%X$X%X$XoXU.P.+X&X&X&X>X4X2X4X4X4X4X4X4X4X>X,X:X,X>XT.+X+X+X+X+X+X+X@X@X@X&X@X@X-X4X4X5X4X4X4X4X:X*X@X=XP.L.K.L.Z.4.7.q.A S F F C C C F z z c B 2 ; : * O @ . . X $ z g z                                                                                                                                                                                                 ",
"                                                                                                                                                                                    0 z g h h x f g 5 & - & 0 f f s h b b b C Z Z m 2.2.2.2.5.2.3.5.6.0.4.0.A.t.t.S.D.D.a.U.U.P.P.+X$X+X+XoX+X+XD.a.p.a.9.e.y.e.Z.u.u.u.I.P.P.P.L.P.U.K.D.L.D.D.L.K.Y.@X@X@X:X4X>X2X4X4X4X4X4X6X7X6X2X6X2XP.T.P.P.P.P.Y.Y.T.T.T.@X@X-X-X>X>X4X>X4X4X4X;X@X+X*XK.D.D.D.t.4.7.q.S S C S C C C C g r t y - * # # * + . . X # 0 f 0                                                                                                                                                                                                 ",
"                                                                                                                                                                                    0 z f g j g 1 0 < & - & 6 0 6 6 g h h h n C C n D D D D 2.2.2.2.3.3.3.4.y.y.y.t.t.t.r.D.K.K.a.P.U.P.P.L.P.U.a.u.u.u.9.9.e.e.S.S.D.u.K.K.K.K.v.K.L.a.u.p.u.a.i.i.a.oX+XT.;X>X,X>X4X4X4X4X6X7X7X6X2X6X2XP.T.U.P.P.Y.K.K.P.U.P.@X@X@X@X;X;X>X>X5X5X4X-X@XT.$Xa.a.u.S.y.4.6.6.Z C S C C C N N g q q t # O X # : ; . X X # < < 9                                                                                                                                                                                                 ",
"                                                                                                                                                                                    0 z f g g g 6 6 < & & & 9 0 0 6 g h h h C C C n D D D D 2.2.2.3.6.5.3.0.y.y.y.t.t.t.u.s.D.D.a.P.oXP.P.L.L.U.D.u.u.u.e.9.e.9.S.Z.u.D.D.K.K.L.K.a.L.p.u.a.u.D.D.a.a.$X+XP.:X,X>X,X4X4X4X4X7X7X7X6X5X4X5XP.U.U.I.K.I.K.I.I.U.P.@X@X@X@X,X>X>X>X5X4X4X-XT.$XR.a.u.u.S.y.4.6.w.C Z C C C C N V 0 0 0 r # X X O = = & & $ O X                                                                                                                                                                                                     ",
"                                                                                                                                                                                    0 g f g f 0 < 5 < # & & < 0 6 5 g h g g N C C C D D D D 5.5.2.2.3.3.3.0.C.y.y.t.t.t.u.p.D.s.a.L.OXP.P.L.L.P.D.u.Z.u.e.e.y.e.S.S.p.a.D.K.K.K.K.K.L.s.u.p.u.S.p.u.a.$X+XU.:X>X:X,X4X4X6X4X7X7X7X6X4X4X2XY.P.P.U.K.I.K.I.I.U.P.@X@X@X@X>X>X>X>X4X4X4X-XU.U.U.u.u.u.Z.y.3.5.6.m Z Z C C C N V 0 9 9 0 # X X O - < - - - O .                                                                                                                                                                                                     ",
"                                                                                                                                                                                    0 g f f f 6 < < - # # O < 9 5 < f g g g h b b h C n n n D A 2.2.3.3.3.0.y.y.y.t.C.t.p.S.D.D.D.U.oXU.U.U.U.U.a.u.u.u.y.r.y.r.S.p.p.a.D.K.v.a.a.i.a.u.i.u.u.u.u.u.a.$X+XU.&X:X>X:X4X6X7X6X8X7X8X7X6X6X6XP.P.P.U.K.K.a.K.I.I.L.@X@X@X@X,X>X>X,X-X-X;X+XK.L.I.u.u.t.C.y.3.5.5.n Z C C C x N V 0 0 9 0 & # O & < < - = = +                                                                                                                                                                                                       ",
"                                                                                                                                                                                    0 g f g f 1 < < - # O O < 5 5 < f g g g h h b b C C C C 2.2.2.2.2.3.3.3.6.6.4.4.7.7.7.e.y.r.r.u.a.a.a.a.a.a.u.u.u.u.y.y.y.y.p.u.u.a.a.K.v.a.a.a.a.a.a.a.a.u.u.i.a.oX+X+X&X:X:X:X4X4X7X4X7X7X8X7X6X6X5Xv.Y.P.I.i.a.i.D.K.P.K.&X&X-X@X,X,X>X>X-X;X;X$XK.I.I.u.u.t.C.y.3.5.5.C C C C N x x N 0 < < 2 # # O # - = - - - O                                                                                                                                                                                                       ",
"                                                                                                                                                                                    0 x f g f 6 < < - # O O < 9 5 < g h g g h b b h C C C Z D D D 2.5.2.3.3.3.3.6.4.4.4.7.y.t.t.r.u.a.a.a.a.i.u.u.i.i.i.d.d.d.r.u.u.u.u.a.a.a.i.i.r.r.i.i.i.r.r.r.r.i.P.$X%X:X2X3X2X7X9X8X8X0X0X8X7X6X7X6XP.U.U.L.r.u.u.D.D.K.K.&X-X-X@X>X,X>X,X;X;X3X$XK.P.L.u.t.t.C.q.3.2.5.C C C C N h x N 1 - - < # # O # * - $ # O                                                                                                                                                                                                         ",
"                                                                                                                                                                                    0 g f g f 6 < < - # % O 2 9 9 < g N b b b C N b C C Z S 5.5.2.5.5.5.5.5.5.3.3.6.6.4.7.y.t.t.r.p.D.Z.u.u.i.u.u.u.u.d.d.d.d.d.I.I.I.U.U.U.U.P.U.U.U.$X*X%X$XP.+XU.P.P.P.K.K.P.Y.P.@X&X-X&X,X>X2X2X3X3X3Xb.Y.P.P.u.u.u.D.D.K.K.@X@X@X@X;X-X;X-X@X@X*XU.a.D.D.y.y.y.y.q.A A 5.k C C C h h x N < - < < & - # & # * X                                                                                                                                                                                                             ",
"                                                                                                                                                                                    0 g f g 0 < - = - # % O < 9 9 < g N N N b C N b C C Z S 5.5.D 5.5.5.6.5.3.3.5.6.6.4.7.y.t.y.y.D.D.S.Z.u.u.u.u.u.u.d.t.t.d.d.L.I.I.U.I.P.L.L.I.I.P.$X=X&X&X+X+X+XP.K.K.K.K.K.b.v.+X+X@X+X:X>X>X>X3X>X>Xv.P.I.L.u.u.u.D.D.K.K.+X@X@X+X-X-X-X-XT.T.T.L.i.D.F.y.e.e.y.6.m Z D k C C C h h x N < # < < # # # * O #                                                                                                                                                                                                               ",
"                                                                                                                                                                                    0 z f g 0 < - = - # % O < 5 5 < g b b b h n b b C C Z D 5.5.5.5.5.5.5.6.5.6.5.6.6.6.0.y.t.y.y.S.F.D.Z.u.u.u.t.u.u.d.t.t.d.d.L.I.I.I.I.P.I.I.U.U.P.$X=X&X&X+X+X+X+Xv.K.P.K.K.b.Y.+X+X+X+X:X3X>X3X3X>X>XY.U.U.K.i.u.t.S.D.D.a.$X@X@X@X-X-X;X;XT.T.$XI.u.S.F.e.y.y.y.6.m S D k C C C h h x N < - < < # $ # * * $                                                                                                                                                                                                               ",
"                                                                                                                                                                                    2 z g 0 0 < - & * & % O 5 5 6 < h h b b b b n n C C C S D 5.D D 2.5.2.2.5.3.3.w.6.6.0.0.y.y.y.C.S.S.Z.Z.Z.t.u.t.t.t.t.u.t.t.I.I.I.I.I.K.L.I.I.I.K.%X*X&X@X+X+X+X+Xv.P.P.U.P.P.P.+X+X+X&X:X3X3X3X>X3X;XU.I.U.L.r.u.t.S.S.a.i.$X+X+X@X&X;X&X@XK.P.I.D.u.Z.F.7.7.0.0.5.Z S F k C C C h h z z < - - < $ # * * O                                                                                                                                                                                                                 ",
"                                                                                                                                                                                    0 V z z q 2 = & & # O O < 5 6 < N C C n C C n n C C C Z Z Z Z Z Z Z Z A 2.2.3.6.6.6.6.4.0.7.4.7.e.y.y.y.t.y.t.t.t.t.t.u.u.t.t.u.u.u.u.r.r.r.a.a.i.P.P.P.+X+X+X+X&X+X+X$X$X+X+X+X+XT.P.Y.T.+X+X+XP.+XU.v.v.K.D.e.y.y.u.u.u.i.oXU.P.T.@X@X+X+XK.L.I.u.t.t.S.4.3.6.3.2.k n C h h h h f f f g < $ $ # X X                                                                                                                                                                                                                       ",
"                                                                                                                                                                                                X X O O % % 7 0 6 < C C C C C S C Z Z Z Z A D D Z Z Z D Z A 2.3.3.w.0.0.0.4.0.7.7.e.y.y.y.t.t.t.u.u.u.u.p.p.a.a.u.u.u.u.r.r.r.r.i.u.i.L.U.oX+X&X$X$X&X+X&X&X@X+X$X+X+XT.P.P.P.T.oXP.Y.P.P.i.a.D.D.e.y.y.t.t.u.i.$X+X+X+X@X*X@X+Xv.K.K.u.y.t.C.4.6.6.5.2.C C F h h h h j f g g < , - < $                                                                                                                                                                                                                         ",
"                                                                                                                                                                                                  X O # % % 7 0 6 1 C C C C S Z C n Z A Z Z D A D Z Z Z Z D 2.2.3.6.6.6.4.4.0.e.9.e.y.y.y.t.t.d.u.u.u.u.u.u.u.u.u.u.u.i.u.i.u.i.r.r.r.D.oXoXoXoX$X$X+X+X&X$X$X+X+X+XT.T.T.P.P.P.oXP.K.P.K.i.a.D.S.e.y.y.t.t.u.u.#XoXU.U.+X+XT.U.D.K.L.u.t.y.C.4.3.3.5.D n C F h h h h g f g g < , < < #                                                                                                                                                                                                                         ",
"                                                                                                                                                                                                  . O & & O 5 0 6 1 C C Z Z S Z Z Z A D A A D A D Z Z Z Z A 2.2.,.7.7.4.7.4.7.9.4.9.e.e.r.d.r.r.u.i.i.u.i.i.i.i.r.r.r.r.r.r.r.r.r.r.u.D.L.I.$X%X=X=X%X=X&X+X+X+X+X+X+XP.T.T.P.P.P.P.K.P.K.i.u.Z.u.e.t.y.y.y.t.r.U.I.P.I.U.U.U.I.a.a.D.t.y.y.C.6.3.3.3.D n C C h h h g f f f g < , < < #                                                                                                                                                                                                                         ",
"                                                                                                                                                                                                  X O % % O 5 0 0 6 C Z Z Z A A Z m A A A A D A D D D D D 2.5.3.4.S.F.S.F.F.F.F.D.K.L.L.I.R.I.L.$X$X$X$X$X+X$X+X$X$X$X%X*X%X*X%XI.L.L.d.9.4.9.u.r.u.i.+X+X+X&X&X&X@X+XT.T.+X+XP.U.P.K.I.L.u.u.u.u.9.y.y.y.y.y.e.u.i.i.i.i.i.u.u.u.u.Z.y.7.7.y.3.3.3.5.D n C C h h h g g f f f < < < 2 $                                                                                                                                                                                                                         ",
"                                                                                                                                                                                                + O & - & % 5 6 6 1 C Z Z Z Z A A A A 2.A A D D D A Z Z D 2.5.5.8.S.F.F.I.I.L.L.L.I.P.L.L.I.I.K.%X@X&X&X+X+X+X+X+X+X+X+X$X$X$X$XU.U.OXr.4.4.y.u.u.D.a.%X&X+X@X@X&X@X+X+X+X+X+XP.+XU.P.I.K.u.t.t.t.9.y.e.y.e.y.e.u.i.i.u.a.u.u.u.u.u.Z.e.7.7.y.3.3.3.2.S k C C g h g g f f 0 0 < < < < $                                                                                                                                                                                                                         ",
"                                                                                                                                                                                              + + # - 2 5 = 0 g g s 5.q.q.q.V.C.q.q.C.C.q.q.q.w.w.2.A A A 2.5.5.3.F.I.F.L.I.I.K.L.L.K.D.K.I.I.L.*X&X&X&X&X&X&X&X&X&X&X@X@X@X$X+XU.U.oXr.9.9.9.r.r.i.i.+X+XT.@X;X&X&X&X&X&X&X@X+X+XoXI.I.L.Z.Z.Z.t.e.y.y.y.y.y.e.Z.u.a.a.a.a.Z.D.Z.D.D.t.7.7.y.3.3.2.2.D k C C h h x z g 0 0 g < < < 2 -                                                                                                                                                                                                                         ",
"                                                                                                                                                                                              ; = < 5 < 5 < 0 g g 6 5.q.q.q.q.q.0.q.q.q.0.y.3.3.6.D Z A A D 5.3.8.F.F.F.D.D.i.u.u.u.r.e.a.K.K.v.&X;X;X;X-X;X;X&X@X+X+X+XY.K.K.P.&X&X+X:X>X:X*X$X$XoX$Xa.v.a.U.$X+X&X:X;X,X>X-X-X-X$XK.L.F.8.8.4.3.k m m 1.6.3.8.Z.u.i.i.I.P.L.K.K.Y.I.t.7.7.q.A A A S C j g h 1 < 6 9 $ X # X 2 - < - X                                                                                                                                                                                                                         ",
"                                                                                                                                                                                            O ; - < 5 6 6 5 q g g 6 5.q.0.0.0.y.q.y.q.0.7.q.4.3.6.D Z A Z D 2.3.1.S.F.F.L.D.u.i.u.u.y.y.D.L.L.K.*X;X;X;X;X;X;X;X+X+X+X+XL.K.L.U.&X-X@X:X>X>X&XP.$X$X$Xi.a.a.U.%X+X@X;X-X-X;X-X-X-X$XK.I.F.4.4.3.3.k m m 1.6.4.8.Z.u.i.i.I.P.L.K.K.L.F.y.7.7.V.A m Z S k f g g < , < < X . X X - - < - #                                                                                                                                                                                                                         ",
"                                                                                                                                                                                            # 7 2 < 5 1 5 < 0 g g 6 5.0.7.0.7.e.e.e.0.7.7.0.3.3.3.A m m m A 3.3.3.S.F.F.F.F.u.d.d.t.9.e.S.F.L.D.&X;X:X:X;X&X;X;X+X+X+X%XP.K.K.U.&X&X+X:X:X:X+XY.Y.P.P.r.i.a.U.$X+X@X:X;X,X:X-X-X&X$XK.I.F.4.4.3.5.m Z m A 5.3.8.Z.u.u.a.I.I.L.L.F.F.F.y.7.6.q.S C C C x f g g < < 2 2 X X X X = = < - O                                                                                                                                                                                                                         ",
"                                                                                                                                                                                            # 9 9 5 6 6 5 5 g g g s q.p.C.S.t.S.S.p.t.y.e.y.6.0.q.2.2.2.3.6.q.0.7.F.F.F.L.L.D.a.s.s.e.e.u.D.D.a.+X+X+X+XT.P.P.T.K.K.K.I.a.a.Z.K.P.Y.L.&X:X>X>X:X>X>X:XU.P.P.I.U.Y.P.*X&X&X@X@X@X&XT.a.D.F.3.3.3.2.k Z n A 5.5.4.Z.Z.u.u.L.L.L.D.F.F.F.y.6.5.5.Z C C C N f g g < < < = X . X X = 2 < - X                                                                                                                                                                                                                         ",
"                                                                                                                                                                                              8 2 < 6 6 6 6 g h N s A.OXI.OXI.I.I.I.F.S.t.C.0.q.q.q.q.q.q.y.F.F.u.#X$X$XoX%X+XoXU.U.a.i.K.K.K.v.P.+X+XP.Y.Y.P.P.a.i.i.a.r.r.r.u.K.a.a.*X:X:X3X6X6X6X4X&X&X$XI.K.Y.Y.+X+XoXU.*X*X@XT.a.D.S.8.3.3.5.k Z C S 5.5.1.C.Z.u.u.L.L.F.F.S.S.A.q.6.5.w.S C C C N f g g < - - * X X . X ; 2 2 -                                                                                                                                                                                                                           ",
"                                                                                                                                                                                              ; - & 5 6 6 5 g h N s F.I.I.I.I.I.I.I.D.u.t.C.0.q.q.q.q.q.0.y.F.F.D.%X=X=X*X:X&X*X;X:X%X$X*X&X&X@X@X+X+X+XP.P.P.P.P.K.D.L.a.u.Z.D.L.D.K.%X*X@X&X,X;X-X-XT.+X$XP.v.K.a.D.i.u.i.$X$X$XU.i.D.S.4.3.5.5.h k k k k k l 7.7.4.4.r.r.r.9.,.,.1.m k n S j j j g f < < < X X . X . . . . O * # #                                                                                                                                                                                                                           ",
"                                                                                                                                                                                                * & 5 0 6 6 h b x s F.I.I.I.U.P.P.P.a.u.t.S.y.q.q.0.q.0.7.t.F.F.s.%X*X*X&X=X&X&X+X*X$X+X&X+X@X@X+X+X+X+XT.T.T.+Xb.b.a.L.i.u.u.D.F.F.D.$X$X@X&X-X-X-X-XT.+X$XL.a.K.a.D.u.u.i.%X*X%XR.a.D.D.4.4.6.5.h k k k C k l q.7.7.4.y.y.e.9.1.1.3.A Z S F k h h g f < 5 5 X . . . . . . . X                                                                                                                                                                                                                                 ",
"                                                                                                                                                                                                    < 0 0 6 h h x p F.I.U.U.P.P.P.P.a.u.d.t.7.7.0.6.7.4.4.d.D.a.a.%X&X&X+X@X&X&X$X*XoXoX+XoX+X+X@X+X@X&X;X:X3X2X3X2X3X3X$XI.L.OX#X#XL.$X+X&X-X;X-X-X@XT.T.+Xv.i.i.i.D.a.p.t.%X%X*X#XD.D.F.4.4.3.5.j k k k k k k q.0.7.7.y.y.e.7.1.2.2.A Z S F h h h x g < 9 7 X . . . . . .                                                                                                                                                                                                                                     ",
"                                                                                                                                                                                                    6 g 0 6 h C C d F.$XoX$XU.U.U.oXp.d.p.t.e.e.y.t.p.d.d.D.%X%XoX&X:X:X:X:X,X:X:X:XoX+X+X+X+XT.+X@X&X@X:X:X3X3X:X:X2X2XI.D.L.OXF.D.D.$X+X+X@X;X-X-X-X,X:X:X&X$X*X%Xi.u.d.t.t.u.t.Z.Z.S.S.3.3.6.5.d k k k k k l V.q.e.e.7.7.e.4.1.1.2.S C C F h g f g 0 < < - X . . . . . .                                                                                                                                                                                                                                     ",
"                                                                                                                                                                                                    0 z g f h C C d F.oX#X%X#X#XoX$Xp.p.t.t.t.p.y.p.F.D.s.OX*X%X&X:X>X,X,X4X,X:X3X3X$X$X+XoX+XP.+X$X@X@X:X:X3X2X3X:X:X3Xa.u.u.r.t.u.r.L.U.T.+X2X>X>X>X5X4X6X4X3X3X3Xi.u.r.y.e.9.9.e.Z.C.F.4.4.4.6.d k k k k C k V.q.0.e.7.7.e.7.A A D Z C C C f s 6 0 6 - $ $ . . . . X X .                                                                                                                                                                                                                                     ",
"                                                                                                                                                                                                    0 g 0 6 h C C d F.#X#X$XI.OX#X#Xt.S.A.p.y.e.t.s.F.a.a.OX*X=X+X,X4X4X>X4X4X2X2X3X$X$XoXU.U.P.$X$X%X$X:X:X>X3X=X&X:X2Xa.a.a.i.u.i.i.K.+XU.T.4X>X,X>X4X4X5X2X3X2X2Xi.i.r.e.9.4.4.e.S.y.C.3.4.6.w.d k k k k k k V.V.q.0.7.6.7.6.m S D C C C C f 6 6 0 < $ # O . . . . @ O X                                                                                                                                                                                                                                     ",
"                                                                                                                                                                                                    0 g 6 f h C C d F.#X%X%X#X#X#X#XC.A.t.y.p.e.9.u.a.a.i.v.oX$X&X:X2X4X4X6X4X6XqXqX%X%X#X#X#X$X%X=X=X*X3X3X2X2X3X>X,X:Xa.d.r.r.r.r.r.a.P.P.T.:X2X2X2X6X2X5X2X3X2X:Xi.r.r.Z.9.0.7.y.G.A.C.6.3.3.3.d k k k k C k V.V.q.q.q.q.q.6.S S D C C C C f 6 0 0 9 $ O + . . . . O * O                                                                                                                                                                                                                                     ",
"                                                                                                                                                                                                  < g g g g h h h d A.p.t.e.<.8.3.3.1.1.3.<.OX#X#X3X0X9X9X8X8X8X9X*XoXoX$XP.9.8.4.4.m m M m m m m m ,.,.8.4.9.8.P.oXoX+X2X2X4X6X9X6X2X3X&X@X@XP.Y.Y.Y.+XT.+XT.P.U.+XU.#X#X#X8.1.1.1.k m m 7.e.C.V.k S Z k j j s C Z n m A A A Z k k C j f f g < , < < # X . . . . . . + * O                                                                                                                                                                                                                                     ",
"                                                                                                                                                                                                  < g g g g h h h d A.S.S.t.4.4.3.3.2.m 1.M #X#XOX3X0X0X8X9X6XqX0X=XoX%X=XOX9.4.6.6.m A m A A m m m m m 4.7.9.8.oX+X+XL.6X2X2X6X8X7X7X3X@X&X*Xb.K.K.Y.+XU.+XT.+X+XoXT.U.U.*X,.8.2.A k m m q.7.7.q.l S C k s s d j h j k n Z Z k h h h g s f f < , < - # X . . . . . . * * #                                                                                                                                                                                                                                     ",
"                                                                                                                                                                                                  < g g g g h b h d A.S.S.t.3.6.6.5.2.2.3.M #XOXoX2X0X8X9X9X6X6X9X%X+X%X%XL.9.7.q.q.2.2.2.2.2.D D D 2.1.6.0.e.4.oX%X+XP.2X,X2X7X7X7X8X:X&X;X=XK.L.Y.Y.+XU.+XT.+XoX+XP.U.U.*X,.8.2.A n n k q.e.y.V.k Z C h s s s h k h k C C C C h h x g 6 0 f < < < & O . . . . . . X # $ O                                                                                                                                                                                                                                     ",
"                                                                                                                                                                                                    f h g g h h b s A.A.A.A.6.6.3.5.A 1.M M #X#XoXqX0X0X8X9X9X9X0X=X%X%X%XI.e.7.7.q.A 2.2.D D A Z D D A 3.6.0.4.#X#X$X+X6X6X6X7X9X0X8X:X;X&X*XK.P.L.I.$XU.+X+X+XoX%XY.U.U.*X<.1.2.Z n k n q.V.7.V.d C n h s s s h C h k C C C C h x N g 0 0 q < - = - O . . . @ . . X * #                                                                                                                                                                                                                                       ",
"                                                                                                                                                                                                    0 N h b h h h h 5.w.w.6.w.q.q.6.F.F.p.u.$X=X%X=X3X3X3X=X#X%X1XS.F.S.F.C.q.6.0.6.0.6.6.6.6.6.6.3.3.6.4.7.e.e.S.F.S.s.oX%X$X=X=X=X%X$XU.U.L.u.u.u.a.D.D.D.K.P.L.v.K.K.K.L.9.4.7.2.n k C S S D S Z Z S k h h h j f g g x h x h g g h 6 6 < q & # * O X . . . @ . @ @ .                                                                                                                                                                                                                                         ",
"                                                                                                                                                                                                    0 C b n h h N g k k l n 5.C.q.0.1X9X9XqX2X:X3XoXs.F.OXd.<.4.4.,.1.,.1.4.0.0.q.0.y.y.y.C.C.C.C.y.y.y.e.e.y.e.3.4.4.<.7.9.4.9.r.d.r.r.r.r.r.9.e.9.4.4.4.4.e.r.r.r.i.i.i.D.t.t.C.6.Z S n s 1 1 p S S S S C h x 1 1 1 1 f s s s f s f 1 < - 2 X             X X @ @ .                                                                                                                                                                                                                                           ",
"                                                                                                                                                                                                    0 C b n h h b b n C n m q.C.y.9.1XqX2X2X>X:X2X%XOXOX#XS.9.y.t.0.0.6.4.0.y.0.0.7.y.y.y.y.y.y.y.y.y.y.e.y.y.y.0.e.y.e.t.t.y.u.u.u.S.D.D.F.S.t.y.e.e.e.e.e.C.S.u.u.K.K.a.D.r.t.t.4.m S C f f f d 5.S 2.S n N N s 6 6 6 g g f f f f 6 < < - 2 X                 @                                                                                                                                                                                                                                               ",
"                                                                                                                                                                                                    f C n k k k b b k n n m q.y.e.9.:X2X3X2X:X>X;X$XoX#XOXp.0.y.y.3.3.4.4.4.4.4.4.4.y.y.e.e.e.e.7.0.0.e.4.7.e.e.7.7.e.e.t.t.y.u.D.D.D.D.D.S.u.r.e.y.y.e.e.y.C.Z.Z.Z.Z.Z.a.D.i.u.t.7.m A Z s s s d F C F C N C C 6 6 6 6 f f s f f f 0 < < - = X                                                                                                                                                                                                                                                                 ",
"                                                                                                                                                                                                    f C C k n C C C Z A m ,.0.y.d.d.=X2X2X5X:X3X2X%XOX#XOXp.0.y.y.y.0.e.d.F.#X%X#X#X=X=X%X=X%X%X#X#X#X#XD.D.D.F.y.e.r.e.y.t.r.u.i.r.i.r.r.r.r.9.9.9.4.4.4.7.e.C.C.C.S.F.F.F.D.Z.S.7.,.3.2.s s s 1 F F C F C N C s s f f f f f f f 0 0 < - $ & .                                                                                                                                                                                                                                                                 ",
"                                                                                                                                                                                                    0 x h j S D D n w.0.0.e.p.p.t.d.oXoX$X$Xu.u.D.9.7.7.0.y.t.t.t.#X%X#X$X3XqXqX9X9X0XxX0X0X0X0X0X0X9X9X3X3X=X3Xa.u.u.u.u.i.i.i.K.a.i.i.i.i.r.9.9.9.9.7.7.7.7.6.3.3.q.e.7.4.9.9.t.7.1.1.2.d d f g x g j h k k k s j f f 6 1 1 1 6 6 0 < # # X .                                                                                                                                                                                                                                                                 ",
"                                                                                                                                                                                                    < g f s Z 5.D m 1X1X3X:X%X$X%XOXs.e.t.t.7.0.4.1.4.8.8.y.F.F.r.3X9X5X5X9X9X7X7X6X8X8X9X9X9X9X8X8X7X8X:X>X>X3X+XT.+XT.I.I.P.U.*X%X$XU.Y.K.Z.r.t.t.t.e.7.4.1.l Z k k l l l 8.8.,.8.7.7.V.2.A C N $ , 1 1 j k h j j g f 1 < < < < < < # X X X .                                                                                                                                                                                                                                                                 ",
"                                                                                                                                                                                                    < g f s S 5.2.l #X$X%X$XT.+XOXOXD.p.F.F.q.q.q.3.6.7.4.y.F.Z.i.2X2X3X2X5X5X7X7X7X8X8X9X0X9X9X7X8X7X7X,X>X,X2XT.Y.T.U.Y.K.K.P.$XoXU.P.D.D.u.r.r.y.e.e.7.4.1.m 1.m A A m m 3.1.1.3.6.3.5.m m Z C , 1 1 s h h h j j g g < < < < < < < # X O X . .                                                                                                                                                                                                                                                               ",
"                                                                                                                                                                                                    < h s s S 2.2.l #X%X%X+X+XU.U.U.D.p.F.S.0.0.0.6.6.7.8.t.F.D.u.3XqX>X2X2X6X7X7X7X8X8X8X8X8X8X7X8X7X8X-X,X>X2XT.P.+XU.K.K.K.L.$X+XOXL.D.D.u.r.r.y.e.y.0.7.<.,.,.1.l m m k 2.2.2.2.5.q.5.m m Z C $ 1 3 1 x h x j h h g , < < < < = = # X O X . .                                                                                                                                                                                                                                                               ",
"                                                                                                                                                                                                    6 C h j A 3.2.m OX%X%X+X+XP.T.T.K.a.F.F.t.t.e.e.y.y.4.S.OXOXOX3X3X3XqX2X2X2X6X4X6X7X7X6X7X7X7X7X7X8X:X2X2X5X%XU.#XR.L.L.I.R.OXL.L.a.D.D.i.i.r.i.r.y.9.7.<.,.1.1.m m A A S S S F D D m A m m C 1 s s 6 f f g g f f f 6 6 1 < # # * X X X . . X .                                                                                                                                                                                                                                                             ",
"                                                                                                                                                                                                9 0 x 5.D A q.q.q.3.$X%X%X%X%X$X@X@X+XP.+XoXI.U.oX1X3XqX3XbXmXmXbXnXnXnXnXbXbXbXxX8X9X6X;X@X@X+XK.D.a.D.9.9.r.9.8.,.,.,.,.,.1.4.a.i.i.v.Y.Y.L.Y.Y.U.I.U.K.L.a.u.Z.t.4.1.2.2.j j s j j d d 3.q.q.w.D F F h 1 < # 9 0 0 6 g h g f X . X . . X X O * + O                                                                                                                                                                                                                                                           ",
"                                                                                                                                                                                              9 0 6 h D D M 6.6.0.<.%X%X&X+X+X$X@X@X+XT.+XU.P.oXP.=X3X3X=X9X0XfXnXbXbXbXbXbXxX0XxX6X6X6X&XY.P.U.D.u.u.Z.4.9.9.9.1.1.1.1.1.1.1.4.u.r.r.b.Y.Y.K.Y.Y.U.Y.Y.K.K.i.r.u.t.8.3.5.5.j j h h h h d 5.6.6.3.1.D F g < < < 9 9 0 6 g j j s X . . . . . X + : : *                                                                                                                                                                                                                                                           ",
"                                                                                                                                                                                              7 0 6 h D Z M 5.0.0.,.%X@X@X@X*X*X$X+XoXU.OXP.L.P.K.=X3X3X=X0XbXbXbXbXbXbXbXbXxXxXxXqXqX6X&XU.+X$XD.S.F.S.9.9.e.e.8.1.1.1.1.1.A 6.S.r.r.D.U.Y.K.K.Y.Y.Y.Y.Y.L.i.r.r.y.,.1.2.5.k h j j k h d 5.6.6.7.1.2.D h 1 < < 0 0 0 6 g g j 6 X . . . . . X * ; : *                                                                                                                                                                                                                                                           ",
"                                                                                                                                                                                              0 6 1 j M M M 1.4.<.,.+X-X>X:X*X*X=X=X%X%X%X%X%X$XoX3X9XqX3X0XnXbXnXbXnXnXbXbXbXbXbX0X9X9X3X+X$X#XD.u.u.t.9.7.9.7.l m ,.A 1.1.3.q.F.S.S.#X#X#X#X$X$X$XR.T.I.K.i.r.r.t.1.1.m A d d j j h j d 5.V.V.q.2.2.D h 1 , $ 0 1 6 6 g g h 0 X . .       X * : : *                                                                                                                                                                                                                                                           ",
"                                                                                                                                                                                              L F n 7.F.A.p.F.#X#XOXD.i.s.p.e.0.4.4.3.3.3.3.3.3.8.d.$XOXL.=XqXqXqX3X3X3X3X=X#X$XOXI.L.I.D.u.a.a.u.u.u.u.D.D.D.F.S.C.C.0.3.3.1.3.3.1.1.3.3.3.3.8.8.8.4.9.e.t.y.u.u.D.r.e.y.A.1.A m k k h h k k h k Z n C h h g h 1 1 1 1 6 0 0 < . .           * - - *                                                                                                                                                                                                                                                           ",
"                                                                                                                                                                                              L S k 7.I.F.F.#X#XOX1Xd.d.t.t.1.m 1.m A A M M A 1.,.0.#XOXL.$XqX3X2X*X*X%X$XD.9.r.9.9.9.9.d.d.r.r.d.r.r.r.a.K.K.K.t.y.C.e.3.1.1.1.k n m m m m A 1.,.,.,.4.4.0.e.Z.Z.K.R.F.R.#X1.A A k j h h f f j d S C n C b h N 1 1 1 1 < < 9 < .             * * * +                                                                                                                                                                                                                                                           ",
"                                                                                                                                                                                              F Z l 7.I.I.K.#X%X%X=Xp.t.t.p.<.,.A A D M A Z D 2.m t.#X#XOX=XqXqX2X*X%X*X%XD.r.r.9.e.4.e.9.d.r.d.d.d.d.d.a.a.D.K.r.r.u.7.,.,.m m k m l m m m m m m m 1.6.7.7.C.F.K.K.R.R.F.#X1.1.A k j h h j f s j C C F C h C x 1 1 1 1 < 9 9 2 .             + : *                                                                                                                                                                                                                                                             ",
"                                                                                                                                                                                            s S A 1.0.F.D.K.U.oXoX#Xt.t.d.t.8.1.3.3.D A D D A A M 3.q.y.y.S.F.I.I.$X$XoXI.K.i.u.r.i.d.u.i.u.i.i.i.s.a.i.U.P.U.U.K.K.K.u.9.7.e.4.m A m A 1.1.A 1.1.1.1.4.4.7.7.9.9.t.Z.A.A.A.3.A A m k k h j g g h C x x h g h h 6 6 1 6 , # - # .               + @                                                                                                                                                                                                                                                             ",
"                                                                                                                                                                              0 z x N F J.J.5.V.q.q.0.e.9.9.9.9.9.d.e.y.y.A.y.t.y.y.6.3.3.2.m n k l d d d d d l l e.y.t.u.L.oXU.oX%X=X=X=X2X3X3X7X7X7X4X7X6X4X4X7X7X6X6X3X3X3X#X7.q.7.C.C.C.y.q.0.0.6.1.1.1.m l l l l d l l 1.3.3.5.5.q.5.Z n n j s s s s f f g 6 6 0 0 $ X X X .                                                                                                                                                                                                                                                                               ",
"                                                                                                                                                                              g z x x C S A 2.6.q.q.7.7.e.r.r.u.i.t.t.t.y.t.y.e.t.t.4.3.3.3.m m Z n n C Z S D 3.1.F.S.S.u.K.I.P.K.P.+X%X$X=X&X&X;X>X>X>X>X,X:X;X:X,X>X3X&X%X=Xa.8.6.3.7.0.0.4.4.7.7.4.1.8.3.1.m m A m m m l 2.2.2.2.1.1.2.k k k C s j f f g f g 6 0 0 q # X . . .                                                                                                                                                                                                                                                                               ",
"                                                                                                                                                                      9 t 0 0 C h h k A m ,.1.7.6.4.4.4.9.9.9.9.9.9.9.0.7.7.e.7.4.4.,.l l l d d d p p 1 3 p d d l 4.8.4.9.i.a.a.v.Y.oX%X&X:X:X>X5X5X7X7X6X6X6X6X9X9X9X9XqX3XqX*X4.7.8.7.7.4.8.4.8.8.,.,.,.m l l k k d l d l A A 1.1.,.,.1.l l k k 1 s s f g g g 6 6 0 q # X X . . .                                                                                                                                                                                                                                                                             ",
"                                                                                                                                                                    - z N g g C n k m q.0.e.y.S.C.C.C.S.F.D.D.F.L.D.F.F.F.F.F.F.OXoXF.F.F.#XOX#XXX1X1X1X1X1XqX1X1X9XqXqXqX9X6X9X2X2X&X&X+XP.P.U.i.i.i.i.9.9.4.4.8.4.8.8.<.<.8.,.,.1.,.9.y.t.u.K.D.D.D.F.F.F.A.C.C.V.2.5.2.5.3.3.1.0.C.C.A.1.1.2.D s h f f 6 1 6 6 < < 9 # X X . . .                                                                                                                                                                                                                                                                             ",
"                                                                                                                                                                  < < z x g h C m m A A.y.y.t.t.S.S.S.F.L.F.F.L.L.L.F.OXOX#X#XoXOXoXOXI.#X#X%X=X#X1XqXqX3XqXqXqXqX0X9X9X0X0X0X0X0X9X=X=X$XK.Y.Y.Z.Z.t.t.4.4.4.3.1.1.1.1.1.1.1.1.1.1.,.7.t.y.u.K.L.K.L.I.I.F.F.C.G.G.3.3.1.3.3.1.,.e.S.A.A.3.1.2.5.s j f 6 6 6 6 < 5 5 7 # X O . . . .                                                                                                                                                                                                                                                                           ",
"                                                                                                                                                                  1 1 x h h h n m m A A.q.y.C.F.S.S.F.F.F.OXOXOXOX#XOX#XOX#XOX#X#X#X#X#X#X1X1X1X1XqXqXqXqX9X0X9X9X0X0X9X8X0X0X0X0X9X%X=X$XK.R.I.Z.C.t.y.4.4.8.3.1.1.1.A 2.A Z A 2.A A q.C.C.Z.R.I.I.I.I.I.I.F.Z.Z.F.8.8.4.8.4.8.,.0.S.C.A.3.1.2.5.s j g f 6 0 9 < 9 9 7 * X O . . . .                                                                                                                                                                                                                                                                           ",
"                                                                                                                                                                6 s s h h n j n n m Z q.q.q.q.A.y.C.C.A.A.A.F.A.F.A.G.F.A.G.A.G.G.G.G.G.G.XXXXXXXXXX1X1X1X1X1X1X1XqXqXqXqX9XqX0X9X9X*X=X#XF.F.F.y.9.e.9.<.8.<.<.,.,.,.1.A A 2.A S S S 5.V.0.y.#XD.Y.L.I.L.I.K.D.K.u.9.8.8.4.8.8.8.9.Z.S.C.3.2.2.D s j h f < < < < < < - * O . . . . . .                                                                                                                                                                                                                                                                         ",
"                                                                                                                                                        q t g g F F F C s s s n n n h n k k l k k k l d d s d s s p s p p p p p 1 1 1 , , , , , $ , , , , 1 1 p p ,.8.,.<.OX%XoXL.0XbXnXbXnXmXmXbXbXbXbX0X0X0XxX#XOX#X#Xq.3.2.S d j j d d d l e.9.9.9.a.b.K.Y.T.T.U.U.R.#X#XZ.r.r.u.Z.Z.Z.7.7.6.5.d h h 6 $ X X X           . . @ @ @ @ @                                                                                                                                                                                                                                                                       ",
"                                                                                                                                                        q 0 0 f C F F C j j j C n n n n C S Z Z C C k h h h h h h h k h h h j j j j f s s s s s s s f s s g b h l 6.6.0.4.#X#X1XOX0XbXbXbXbXbXbX0X0X8X9X2X4X6X8XY.K.D.F.4.3.3.A s h h h j d k A.y.9.9.D.b.b.Y.T.U.L.b.a.K.L.r.r.r.r.r.r.Z.7.7.6.5.d h x 0 $ # #                   @ @ @ @                                                                                                                                                                                                                                                                       ",
"                                                                                                                                                        t q 6 s F F F C h h g b N n n n C C C n C S n h h h j g h h h h h h g j j j s s s s s s s 6 f f 6 g N h h 5.5.5.3.#X#X#XOXqXbXbXxXxXbXbX0X8X8X9X2X4X7X8X@X+XU.#X4.4.3.A j j j h h l k G.q.e.e.D.a.K.P.P.T.P.v.K.K.L.r.r.r.r.r.u.Z.4.4.4.5.d h x f $ $ &                   @ + @ @                                                                                                                                                                                                                                                                       ",
"                                                                                                                                                        t q f j F F F C g g g b N h n C n k k k k k j s s j f f f f j j j j f s j j s s s s 6 6 6 6 6 f 6 g N N h J.V.V.V.1X1X1X1XnXmXnXnXbXbXbX0X0X9X6X7X7X8X8X&X=X=X=X4.8.3.,.s d d d d h n G.V.C.y.I.D.D.U.P.Y.v.v.v.K.K.r.9.9.r.r.u.t.8.8.8.6.d h h 0 $ # +                       @                                                                                                                                                                                                                                                                         ",
"                                                                                                                                                        9 6 6 6 j h h h g g g N N h C 5.5.2.6.q.V.V.2.C C C C C C C S S F F C C C C b b n N N N N b N h g g g f g j j j d d d d p l l l 1.0.7.4.I.oX+X+X;X&X;X&X&X:X:X3XD.D.F.F.q.A.G.D k j j n k l l e.e.9.K.U.T.T.T.T.U.$XL.L.L.K.a.D.Z.9.7.7.6.d h h 0 $ # *                                                                                                                                                                                                                                                                                                 ",
"                                                                                                                                                        7 0 6 6 g g j s s f f h h h C w.5.6.y.S.A.A.5.m m Z Z Z Z Z S S D D Z Z S C C n n C C C C b b N b b h h h g f j j j j s s n Z n 6.y.7.8.K.U.T.+X>X;X:X;X,X:X=X=XoXoX%XI.C.F.XXm d h h h k l l y.y.9.I.$XP.T.T.@X*X*XI.I.U.K.a.a.S.7.7.6.q.d h h 6 $ X O                                                                                                                                                                                                                                                                                                 ",
"                                                                                                                                                        2 0 6 6 f g h g g f f h h h n q.5.6.7.t.y.t.8.l l l l n l l m m m m m n n n k h k h h n n h h h n h j j h g g h j j f j s C Z n w.V.V.e.#X*X*X*X2X:X:X;X:X:X>X:X&X+X%XU.d.Z.F.l d d j h h k n V.y.y.I.U.T.T.T.T.T.@XY.I.L.K.a.a.S.7.4.6.q.d h h f $ #                                                                                                                                                                                                                                                                                                   ",
"                                                                                                                                                        9 5 6 6 0 0 f 0 f 6 f g h h n w.3.3.S.#X#XoXL.i.d.t.t.t.t.t.t.t.t.t.y.y.e.7.y.0.0.q.6.6.6.Z n C S C h N b j j h h g s f s g h h C F D S C.C.t.u.2X:X&X@X,X>X>X>X:X:X:X>XoX*X3Xd.e.6.D j h k n w.6.8.L.U.Y.b.@XT.T.@XT.T.T.Y.K.K.D.9.7.7.q.d h h f $ #                                                                                                                                                                                                                                                                                                   ",
"                                                                                                                                                        9 5 5 5 6 6 6 6 0 6 6 g g s b w.3.4.F.3X3X2X>X*X*X=X%X$X%X$XoXOXOXOXI.L.L.D.I.I.I.F.C.y.y.3.A Z F C h C C h h h h g s 6 6 f s 6 f s s 1 m m ,.<.=XoX+XT.:X>X>X>X>X4X4X4X6X4X6XoX#X1XA.d h h j C l l d.D.K.b.@X@X@X-XT.T.T.Y.K.K.D.9.7.7.q.d h h 0 X                                                                                                                                                                                                                                                                                                     ",
"                                                                                                                                                        7 5 < 5 6 6 6 6 0 6 6 g h j k w.3.8.F.3X:X:X$XU.oX$XoXoXoXOXL.D.D.D.D.D.D.D.L.L.L.F.d.e.t.4.,.A D Z n n C h h h h h s s s f f s g g g s S A 3.,.1X$X%X+X>X2X>X>X4X4X4X4X2X>X6XP.a.OXA.d k k h C m l t.I.D.i.@X@X@X-X@XT.$XI.K.K.K.9.7.7.V.d h h 0 X                                                                                                                                                                                                                                                                                                     ",
"                                                                                                                                                        7 5 5 5 6 6 6 6 6 6 6 h j d l 6.3.8.D.3X:X3X=X$X%X$XOXI.oXI.L.K.K.K.K.K.i.i.a.i.a.a.d.9.9.,.m m m m l k n j j j h j s s 6 s 6 6 f f f s Z D 2.3.1X#X%X$X2X2X3X:X4X4X4X4X4X>X7X+XK.I.t.p l h k C Z m y.F.F.D.=X@X@X@X$XT.T.Y.K.K.K.9.7.7.V.d h h 0                                                                                                                                                                                                                                                                                                       ",
"                                                                                                                                                        9 9 6 6 6 0 0 f f s s C n n 1.A.d.r.U.:X=X3XoXK.P.K.P.oXoXoXoXU.P.P.U.U.+XoX&X$X+X$XOXoXoXD.p.S.A.y.6.w.w.D Z Z Z C h h b b h h h g g s C S A A XXF.F.D.$X$X$XT.3X:X3X3X5X>X4X-X&X*XL.,.2.2.S k n k q.C.e.7.U.Y.P.P.U.U.Y.K.b.K.K.r.7.7.q.d h g 0                                                                                                                                                                                                                                                                                                       ",
"                                                                                                                                                        9 q f f g h b b h h j w.V.V.A.#XI.P.%X=X=X=Xa.r.r.r.P.%X$X$X%X&X$X@X&X&X&X&X3X,X>X>X&X:X:X=X=X%X%XOXA.F.A.q.q.w.w.w.D D Z F n C b b h h j j d d 2.m m m 7.7.9.9.K.K.P.T.4X>X2X:X,X:X3XI.F.XXA.k j d n k m l t.i.a.a.L.L.K.K.v.K.K.9.7.6.6.d h g 0                                                                                                                                                                                                                                                                                                       ",
"                                                                                                                                                        q g g g j h h b h b j w.q.e.t.#XP.K.+X*X%X=XD.r.i.r.v.$XoX+X+X+X+X+X+X+XT.+X;X-X;X;X@X&X&XoXoXoX$XL.d.t.t.0.6.3.3.2.Z Z Z C n n h h g g h h h h 2.A A m 0.0.7.4.F.I.oX$X4X3X>X>X>X>X=Xr.Z.F.C.d l k S S S m F.S.D.a.K.D.D.K.K.K.D.9.4.6.6.s j g 0                                                                                                                                                                                                                                                                                                       ",
"                                                                                                                                                        6 f s s j j j h j j d w.7.9.r.U.L.v.+X=X*X3XD.r.r.r.v.+X+X+X+X+X+X+X+X+X+X+X-X-X-X;X@X&X&X+XP.oXoXK.r.r.u.0.4.4.4.3.A Z Z n h n h g g h h h h h 5.D 5.D V.V.q.0.OXOX#X%XqX2X3X>X;X>X:Xi.D.S.y.d l j n S S S G.F.F.D.OXI.D.K.K.K.D.9.4.5.5.s j g 0                                                                                                                                                                                                                                                                                                       ",
"                                                                                                                                                        F C m m A A D D m A m A.S.u.L.oX+X+X+XL.L.P.P.L.P.P.+X3X;X:X&X@X+X;X@X-X&X&X@X;X;X&X&X&X&X+XP.+XU.L.a.a.D.y.9.7.7.7.3.2.2.D C C C h h b h h h h n n n n F Z Z Z w.q.0.y.#XI.P.$X&X&X&Xb.K.I.F.m A A Z n Z C q.q.y.e.Z.t.t.u.a.a.u.7.4.5.q.p h g 0                                                                                                                                                                                                                                                                                                       ",
"                                                                                                                                                  g x h G.V.A.A.F.A.C.A.A.A.0.#X%X$X*X%X$X%XOXi.i.i.U.=X%X$X:X6X6X6X:X&X&X;X>X2X,X>X;X;X:X&X&X&X&X+X+X+X+XU.P.I.L.u.u.t.t.t.0.q.6.5.D D D C C C b h h j h j h j h j j j m M m 1.p.r.d.P.&X@X&X+X*X*X#X4.q.V.D k k k 6.7.7.4.e.e.e.y.u.u.Z.7.7.6.V.p g g 0                                                                                                                                                                                                                                                                                                       ",
"                                                                                                                                                  f h d A.q.y.d.A.y.t.t.t.y.9.%X%X%X$X+X+X*XOXi.i.r.P.=X+XoX3X6X3X6X&X&X&X@X,X,X:X>X&X&X&X&X&X&X&X+XU.+X+XU.P.I.L.i.t.t.t.t.7.6.6.6.2.D Z n C C h h h h h j g j h h h j Z Z M 2.A.e.9.L.&X@X&X@X+X$XI.4.0.q.2.k k k 5.6.4.4.7.0.0.y.Z.S.Z.7.7.6.V.s g g 0                                                                                                                                                                                                                                                                                                       ",
"                                                                                                                                          f     s D 2.A F.A.p.D.p.p.p.t.d.r.d.$X+X$X+X+X+X$XP.i.i.r.P.*X+XoX:X4X2X6X&X@X@X+X;X:X:X:X&X&X&X&X@X&X&X$X+X+X+XU.P.I.I.i.u.t.t.y.7.4.4.3.1.A Z n n C h h h h h g h h b b h h Z Z M 3.A.y.9.P.=X&X&X&X@X&X#X4.4.6.A k k k 5.6.6.0.q.C.q.C.F.F.S.7.6.q.V.s f g 0                                                                                                                                                                                                                                                                                                       ",
"                                                                                                                                  z z N C J.V.V.V.XXXXF.OXF.L.D.F.F.D.a.oX+XoX=X=X=X&X$X+X+X+X%X$X*X+X+X+X+X;X2X3X>X2X2X2X2X2X6X2X2X:X&X&X&XU.+X+XP.I.U.U.P.P.I.L.u.u.u.u.u.t.y.e.0.3.3.D Z Z D b h h h j f g g g g g g F Z M 3.F.a.i.U.:X;X;X@X&X&X$Xd.C.A.3.l Z k 5.6.6.6.3.5.3.7.y.y.y.3.3.2.5.1 s f 2                                                                                                                                                                                                                                                                                                       ",
"                                                                                                                                  V N C C V.q.w.3.F.F.F.D.D.L.L.L.L.U.U.4X6X2X2X:X:X&X+X+X+X:X6X9X0X*Xv.Y.L.+X3X&X+X8X0X0XxX9X8X8X9X>X:X:X:XY.Y.K.v.K.K.P.K.K.K.K.u.t.t.u.u.t.t.t.y.4.3.3.D D D n h h h 6 6 6 6 0 f 6 s C m m 6.%X$XP.&X>X:X;X+X+X+XoXu.F.G.6.k A m 6.6.6.3.m n k A 3.3.3.m A S D 1 6 0 <                                                                                                                                                                                                                                                                                                       ",
"                                                                                                                                  C x h n V.q.4.7.F.F.F.L.L.L.L.F.L.U.Y.2X>X;X;X>X:X&X+XoXP.;X6X2X9X%Xv.Y.v.+X:X>X+X8X0X8X0X9X9X8X8X>X;X;X:XK.K.Y.Y.P.P.L.K.K.K.L.u.u.u.u.u.t.t.t.y.4.3.3.1.2.D n h h h 6 6 6 6 0 f f s S Z A 0.=X+XP.&X:X;X:X+X@X@X%XD.Z.G.7.l m k 3.6.6.6.n n n A 3.3.3.m A S F 1 s 0 <                                                                                                                                                                                                                                                                                                       ",
"                                                                                                                                  F C n n q.q.0.e.F.D.p.OXL.L.P.L.D.L.L.4X2X>X>X:X:X&X+X+X+X;X7X6X9X+Xa.v.v.$X>X&XP.8X0X0X0X0X9X8X8X:X&X&X:Xv.K.K.K.K.K.K.K.K.K.L.u.u.u.u.u.t.t.t.y.4.3.3.2.2.2.n h h h 6 6 0 6 0 f f s C S m 0.3X@XT.;X;X-X:X+X+X+X$XZ.Z.G.7.l Z m 5.6.6.5.k k k A 5.3.3.A A S F 1 f 0 <                                                                                                                                                                                                                                                                                                       ",
"                                                                                                                                  F C S Z C.y.t.t.F.F.D.I.L.P.L.L.L.L.P.>X>X>X>X:X:X&X+X+X+X:X6X6X6X*Xa.L.K.$X;X&X+X6X9X9X9X6X6X6X6X:X&X&X&XL.K.K.K.K.K.K.K.K.K.K.u.u.u.t.u.t.t.t.y.6.3.3.2.2.2.n h h h s f 6 6 f f f s C Z A 0.%X&X@X-X;X;X;X+X+X+XU.a.Z.F.6.k Z m 3.3.3.5.n n n S 2.3.3.A S S C 6 6 6                                                                                                                                                                                                                                                                                                         "
};
