/* XPM */
static char *_4dedd00f9cc4097aa06ec4f5e34340fFT3ULKpM8CWqnI2U[] = {
/* columns rows colors chars-per-pixel */
"128 64 220 2 ",
"   c #010101",
".  c #0B0101",
"X  c #010902",
"o  c #030309",
"O  c #0A090A",
"+  c #070909",
"@  c #140001",
"#  c #1B0000",
"$  c #11060A",
"%  c #0F0E10",
"&  c #151515",
"*  c #1A1A17",
"=  c #1C1C1C",
"-  c #161715",
";  c #09120E",
":  c #240000",
">  c #2C0000",
",  c #320000",
"<  c #3B0000",
"1  c #221C1C",
"2  c #271919",
"3  c #19221E",
"4  c #23211D",
"5  c #2A1D22",
"6  c #1B2623",
"7  c #132E29",
"8  c #242424",
"9  c #2C2425",
"0  c #232C25",
"q  c #2A2629",
"w  c #242B2A",
"e  c #2B2B2B",
"r  c #262629",
"t  c #352A2D",
"y  c #362428",
"u  c #27322C",
"i  c #34302E",
"p  c #2E2E31",
"a  c #252F30",
"s  c #362D33",
"d  c #2D3333",
"f  c #2B3A37",
"g  c #333333",
"h  c #3C3C3C",
"j  c #373839",
"k  c #4C0101",
"l  c #4A080A",
"z  c #540000",
"x  c #5B0201",
"c  c #59090A",
"v  c #5A0F13",
"b  c #6C0001",
"n  c #650003",
"m  c #740102",
"M  c #790101",
"N  c #76050B",
"B  c #6E0213",
"V  c #443B3D",
"C  c #38463C",
"Z  c #4A443D",
"A  c #3D3D42",
"S  c #543F43",
"D  c #4B3E48",
"F  c #3B4A45",
"G  c #3B4645",
"H  c #394C4F",
"J  c #444444",
"K  c #444C46",
"L  c #444B4A",
"P  c #4C4C4C",
"I  c #494747",
"U  c #544C4D",
"Y  c #554748",
"T  c #46514C",
"R  c #54514E",
"E  c #4A5252",
"W  c #485559",
"Q  c #545454",
"!  c #5B5454",
"~  c #5C5C5C",
"^  c #54585A",
"/  c #4F4D52",
"(  c #635A5B",
")  c #5C635E",
"_  c #57625B",
"`  c #4C605F",
"'  c #66665B",
"]  c #5F5C63",
"[  c #685B64",
"{  c #5B6764",
"}  c #646463",
"|  c #6B6462",
" . c #626B66",
".. c #6C6C6C",
"X. c #67666A",
"o. c #736A6C",
"O. c #736568",
"+. c #6B736D",
"@. c #65726D",
"#. c #72726E",
"$. c #6A6C72",
"%. c #776C72",
"&. c #6C7674",
"*. c #737373",
"=. c #7B7475",
"-. c #717B77",
";. c #7B7B7B",
":. c #787678",
">. c #860000",
",. c #8B0000",
"<. c #860309",
"1. c #980000",
"2. c #A40403",
"3. c #B40C05",
"4. c #B9171B",
"5. c #AC0D16",
"6. c #9E1725",
"7. c #B70E24",
"8. c #A71B26",
"9. c #B71825",
"0. c #A8152B",
"q. c #A42034",
"w. c #C80907",
"e. c #D90703",
"r. c #C70812",
"t. c #D30916",
"y. c #C31318",
"u. c #D51715",
"i. c #CE120B",
"p. c #C81625",
"a. c #CD1526",
"s. c #84797A",
"d. c #78837F",
"f. c #80837C",
"g. c #7B7F80",
"h. c #877E81",
"j. c #7E8281",
"k. c #838383",
"l. c #8C8B8B",
"z. c #858A87",
"x. c #949494",
"c. c #9B9B9B",
"v. c #928E8F",
"b. c #A4A4A4",
"n. c #AAAAAA",
"m. c #ADADAD",
"M. c #A3ADAE",
"N. c #B4ABAE",
"B. c #ADB5B4",
"V. c #B2B2B2",
"C. c #B5B5B5",
"Z. c #B6B4B3",
"A. c #B9B9B9",
"S. c #BDBDBD",
"D. c #BEBEBE",
"F. c #BDBBBD",
"G. c #B9B8B8",
"H. c #ACB1AD",
"J. c #C4B6BC",
"K. c #B2C8B8",
"L. c #C3C1BD",
"P. c #BCBFC4",
"I. c #CCBDC3",
"U. c #B5C6C6",
"Y. c #C1C1C1",
"T. c #C2C2C2",
"R. c #C5C5C5",
"E. c #C3C5C5",
"W. c #CACACA",
"Q. c #CDCDCD",
"!. c #CECECE",
"~. c #CACACC",
"^. c #C5C6C6",
"/. c #D6CBCA",
"(. c #C8D4D4",
"). c #D0D0D0",
"_. c #D3D3D3",
"`. c #D5D5D5",
"'. c #D6D6D6",
"]. c #D5D0D4",
"[. c #D5DCDA",
"{. c #D9D9D9",
"}. c #DADADA",
"|. c #DDDDDD",
" X c #DFDFDF",
".X c #DCDBDC",
"XX c #D5D7D7",
"oX c #C9D2D0",
"OX c #E8D1D2",
"+X c #D8E2DD",
"@X c #CCE1DC",
"#X c #F1E4DE",
"$X c #DCDCE2",
"%X c #D1DFE0",
"&X c #DEE7E4",
"*X c #E1E1E1",
"=X c #E6E6E6",
"-X c #E8E8E8",
";X c #EBEBEB",
":X c #ECECEC",
">X c #EEEEEE",
",X c #EBECEC",
"<X c #E7E6E8",
"1X c #F7E7E5",
"2X c #F5E9F3",
"3X c #ECF6F3",
"4X c #F1F1F1",
"5X c #F2F2F2",
"6X c #F6F6F6",
"7X c #F4F4F4",
"8X c #F5F3F3",
"9X c #F9F9F9",
"0X c #FBFBFB",
"qX c white",
"wX c #FEFEFE",
"eX c #FCFCFC",
"rX c #FEFCFD",
"tX c #FAF8F7",
"yX c #EEEDED",
"uX c #E3D8E8",
/* pixels */
"e g 8 e g g 8 g q g q q e g r q q q e g e e q e g 8 g r g q e q e q g r g r r g r g q q g q q e q g e r g g e e q q q g e q e e q e q e q e p q q g g 8 e q e q q q e g e e q e g 8 g r g q e q e q g r g r r g r g q q g q q e q e q 0 q p e q e g e e r g r g ",
"..:.*.*.*...*...*...Q ~ Q J q e g J ~ P ~ ..*.....*...*...*.*.......*...:.*.........~ ^ Q J e e g h Q Q ~ ..*...*.*.*.....*...*.*.*...*.*.X.*.*...X.~ ~ ~ I q e g J ~ P ~ ..*.....*...*...*.*.......*...*.*.........~ Q Q J e e g I Q ~ } ..*.....*...*.*.......",
"X.Q x...:.;...:.} ~ ~ *...P r e q h ;.*.*.~ ~ ..k...*.P I ~ X...*.;.k.:.} ~ Q X.( } Q P J J r q e h ..) P P Q J h J J Q Q *.Q X.} ~ x.X.;.k.*.:.X.Q ~ ....P 8 e q h ;.*.*.~ ~ ..k...*.P I ~ X...*.;.k.*.} ~ Q X.~ } Q P J I r q r I ~ ~ P P Q Q J I P ~ } X.Q X.",
"} ~ *...k.*.*...J I Q *...J 8 e e J l.~ ~ Q ~ ..*.....Q Q h } Q ....X.} ~ } Q Q Q ~ ~ I g I q g e j ~ J g h J h h Q Q Q ~             *.k...*...J h ~ ..*.I r g q J l.~ ~ Q ~ ..*.....Q Q h } Q ....X.} ~ } Q Q Q ~ ~ I g I q g q J Q P J h h g J J P Q I } h } ",
"} ..} } ;...} Q I Q ~ ..} J q g q h k.~ *.X.} ~ *.~ } Q h Q I ..*.X.~ ~ ~ *.} Q I ~ ~ J e I r q g J Q J P I g e I h P J   C.5X6X|.|.Y.  :.*.~ P P Q ~ X.~ I 8 q q h k.~ *.X.} ~ *.~ } Q h Q I ..*.X.~ ~ ~ *.} Q I ~ ~ J e I 0 e g h J J I I J e J P Q I Q ~ I ~ ",
"Q ..:...*.*.Q ~ Q ~ Q ~ ^ I q r g g ..X.:.....*.~ ~ ~ } ~ I ~ ~ ..} } } ~ X.~ P P { Q J h P e r 8 h J P Q I g g g P P   K.6Xh   g |.{.k.  :.Q } P ~ I ~ P P q e g g ..X.:.....*.~ ~ ~ } ~ I ~ ~ ..} } } ~ X.~ P P ) ^ J h / e r e h I I J J h g g J J J *.P Q J ",
"X.X.} *.X.Q } Q Q ~ Q ~ Q I e q r J *.+.:.d.:.....Q ..I Q P ~ X.*.~ ~ ~ ..*.X.Q Q ~ P J J J e q g J g P h g g J g I   A.*X6X..g *.5XXX'.  ~ Q Q Q ~ P ~ ~ h e e r J *.+.:.k.:.....Q ..I Q P ~ X.*.~ ~ ~ ..*.X.Q Q ~ P J J J e q q g J J h h h h h J I I ..J I Q ",
"..                                                              O                       O             J h h I J h h   V.A.=X6X0XqX=X*X).  Q Q } Q ~ ~ Q Q                                       O                       O                                     P ",
"*.  :.l.c.b.b.n.b.c.l.x.;.~ } ....;.x.x.x.b.n.n.c.  l.k...~ ..*.;.l.c.c.b.V.l.x.:.;...~ ..k.;.l.c.b.  J g Q J J h g         -XqX0X-X:X|.  } ~ ..Q J } Q Q   n.b.n.c.l.*.k...*.~ *.;.k.c.x.b.V.n.b.c.x.*.:.:.  *...:.l.c.b.m.b.c.c.x.l.;...Q ..*.:.l.x.x.m.n.  I ",
"..X.  {.'.-XqX5XqX-X{.).'.D.C.Y.E.!.|.*X:XqXqX0Xx.  ).{.'.Y.A.D.).=X'.-XqXqX-X:X*X!.Y.~.C.C.).|.-X:X    g Q h J h J Q ..Q O 5X=XqX:X=X|.  I X.*.J P P X.    qXqX0X:X8X'.|.E.A.Y.A.Y.).{.:X5X6X6XqX-X|.*X'.Y.  :.E.!.{.=X5X0XqX0X:X0X*XD.{.Y.C.E.~.).5X:X0X  Q J ",
"~ ~ X.  *X=X6XqX0XqX0X-X).~.E.n.C.D.!.'.=XqXqXqX0Xx.O {.).D.V.V.E.E.|.:X=XqX0X-X=X|.E.C.V.E.E.!.{.5Xx.  h e I J I e } *.    -X-X6XqX6X=X  } ..X.J P I Q   b.:X:X6X6X=X*X).Y.*XC.D.Y.).{.'.-X:XqXqX=X6X{.{.  *.A.D.T.).|.=X5XqXqX0X=X5X*X'.A.C.n.A.E.=X).  Q h ..",
"} *.h ..  -X=X0XqXqX|.5X|.'.).E.C.D.!.'.|.:X5X0XqX0Xk.  ~.!.D.A.C.{.~.=X5X=XqX-X6X{.E.'.A.C.D.!.{.*X5X  O g J h h Q }     c.|.-XqXqX0X:X  ..P Q P I J &   :X6XqXqX5X5X:X:X'.).E.D.D.E.).|.-X-X:XqX0X=XqX  ..~.Y.D.Y.).|.*X=X5X6XqX-X-X*X{.).Y.D.~.'.).  P ~ ~ P ",
"Q ~ ~ *.}         O                             O     O     O       O                         !.'.{.|.c.    J I e ..    ..!.{.6X=XqX6XqXc.  *.Q I P     *.|.-X6XqX                                                                                    I X.P ) P ",
"= 8 8 = 8 &   c.m.c.C.x.c.l.l.;...} X...;.x.x.b.c.C.c.x.k.  '.D.C.Y.D.).  x.5XqX:Xb.  |.'...  A.!.!.=X5Xx.      O     *.Y.).).).:XqXqXqX=Xc.        O ..!.=X=X5X-X  x.-X:X  *.{.'.C.*.O !.'.:X:X:XqX  b.x.k.x.:...} ..*.k.l.c.b.m.b.x.c.x.l.;...} O & r 8 * = 8 ",
"= * * = * = =   =X5X0X0X0X{.|.!.E.A.A.D.!.|.=X5X0X6XqX:X*Xk.      O       5X-XqX0X    x.).A.:.  Y.E.*X5X5XqXx.  |.).  D.E.C.O |.5X  -X0X-X  c.{.  *.m.~.A.!.{.5X  x.qX5Xx.    {.).Y.n.O             x.=X5X6X{.).).D.A.E.!.{.-X5X*XqXqX-X-X!.'.Y.  * = * = = e & ",
"r e e 8 e q r =   0XqX0XqX-X*X{.!.Y.Y.D.Y.!.{.:X:XqXqX6X:X*Xl.  E.m.A.Y.  |.5X6X  x.:X  '.Y.  ..  ~.!.'.:XqXqX  -X|.  D.Y.E.  !.{.  -XqX  c.:X|.  !.Y.V.Y.!.*X  c.  qX0X  :Xx.  |.~.~.  Y.).{.:X  c.6XqX6X:X-X*X'.D.C.D.E.).|.-XqX6XqX-X:X6X{.  r r q q 0 r 8 q ",
"r e e g q e q e 8   6XqXqX-X*X!.'.Y.A.D.Y.!.|.{.-XqX0X0X:X|.!.l.  D.A.Y.  x.|.  x.0X0X  c.O ..Y...  ).|.:X-XqX  -X*X  ).E.C.        c.  x.O |.6X  ~.Y.V.C.Y.  *.:Xc.  c.  5X:Xx.  '.*.  A.A.).  *.:X6XqXqX=X6X{.{.'.Y.V.D.).*X5X-XqXqX6X6X:X  r q g q e q q q e ",
"g J P ~ Q ..*.*.X...                                              O           x.5X5X6X6X  x.{.C.D.    ~.{.:XqX  :X  ..  E.V.O *.'.X.  5X:X5XO     !.).E.m.  O |.'.5Xx.  qX-X5X5Xc.  O               O                             O         I ..*.*.~ Q Q I e e ",
"e J } *.} *.*.~ #.} ..  b.n.c.x.l.k.*...X...:.:.l.x.n.b.c.c.x.l.;.*.  Y.D.!.  |.:X5XqX    |.'.'.  *.*.  =X'.=X    6X6X|.    ..~.'.'.  {.:XqX  5X  |.).Y.  *.}   *X-X-XO   0X0X5X6X  !.~.D.  ;.*.x.l.x.n.n.n.n.c.x.:.*.*.~ ..l.l.l.x.n.n.  ..X.X.~ I J J h J q r ",
"q J ~ } } X.} Q ' ~ X.P   0XqX:X{.!.Y.A.V.C.E.).|.:XqXqXqXqX-X{.'.'.x.      O k.-X-X  x.5X  ).    D.V.      5XqX    =X{.O A.  V.C.  X.  |.  c.  0XqX      C.E.    |.  qXx.  6X0Xx.        ..C.'.).|.:XqX0X5XqX=X:X{.'.).A.V.Y.E.*X-X5X  } ..*.*.Q Q J h I I = h ",
"q J ~ X.*...X...X.~ ..~ Q   6X-X:X|.!.E.A.V.A.!.).|.*X6XqX0X5X-X'.).A.l.  !.E.  x.  x.qX-X5X  x.).Y.m.O ).x.      qX  O '.).Y.    :.Y...  x.  0X    x.|.  E.n.E.*.  =X*X0Xx.  c.  :X-X  *.~.C.E.!.'.5X:X:XqXqXqX0X-X'.~.Y.C.D.'.!.{.  } *.;.:.} ..Q Q I J J r q ",
"q J } #.;...} X.X.~ J X.~ P O 0X-X|.).~.Y.C.C.^.).=X-X5XqX0X6X:X|.).|.D.k.  m.|.  :.=X-X6X-X    l.'.  *.C.'.  *X  0X  -X  *X{.  *.D.D.  ).*X  6XqX  =X'...  A.*.    =X:X0X0Xl.  0X6X  *.).D.C.n.).'.{.*X:X0X0XqX6X5X*X{.).D.V.K.D.O J ~ ..*.:.~ ~ X.I h Q Q 8 g ",
"g J } ....X.*.*.:.X.Q ..P Q Q           O                 O           O             l.5X0X  c.*X    O m.Y.  X.'.  :X  -XO |.  *.  m.E.  {.).  qX:Xc.  -X|.  O   E.*.  -X-Xx.&                                                     ~ P ..~ } ..~ } } P J I I e 0 ",
"e h *.;.....;...X.~ Q P X.~ } :.;.k.*.X.......X.~ J I J P J * q e r *.} } ;.~ ~ Q J   l.  x.qX5X|.  ..  A.  D.).  |.  qX6X  *.!.*.      D.  O qXqX6X  -X  *.  C.V.D.:.  ..  } ~ Q I P h / I 8 r r q *...~ :.~ ~ Q I Q ~ ~ ~ X.Q ~ X.P ..P Q ~ X.~ *.Q J P J q e ",
"e h k.:...X.;.~ } ~ ~ ....~ ..l.;.l.*...X.} X.*.P Q P I P J e e q J l.*.*.*.X.Q I P Q   k.6XqXqX  '.'...    ..Y.      0X  x.  {.).  A.m.  *.:X  0Xc.    x.*XE.  C.Y.)...  } ..*.P Q P I P J q e q J l.*.*.*.X.Q Q J Q I ~ } ..I X.Q Q } Q P } ~ } :.X.} Q P 0 e ",
"q h k.*.*.X.*.~ ..} } } ~ ~ ..k.;.;...X.*.X.~ ~ I Q / h C J e r r h ;.*.;.:.X.Q P g I h     x.5X  :X{.{.  D.      {.      5Xl.      C.  *.).*X      qX  5X'.|.  Y...    *.~ ..I I Q Q h h J e r r h ;.*.;.:.X.Q J h I J } } } } ..~ P ~ / ~ *...:.l.*.../ J r g ",
"e J :.....} *.} ..X.....} X.....*.*.*...*.~ ~ Q Q ~ P J P J q p g J k.:.:.*.~ Q ~ P I g } }   O c.:X{.!.O C.A.~.  ).  5X        |...  *.  Y.*X  5XqX5X  -X|.{.;.  O *.} ..X.Q ~ Q ~ P J I J q e g J k.:.:.*.~ Q Q I J h } Q P ..~ Q P } Q } } Q X.:.*.*.~ I q e ",
"e J ..} X.~ X.~ X.} ..*.....*.~ *.*...X.*.~ } } ~ ~ Q P Q J r e r h :.*.*...} ' ....J P P J h     x.5X  !.~.b.      {.0XqX  0X  *X'.  D.O A.  |.  6XqXqXO *Xc.    ..*.X.;.} Q ..~ ~ Q P Q J r e r h :.*.*...} ~ *.} Q J ~ J J X...X.Q ~ P X.X.~ :.:.....~ I q e ",
"q h } } *.......*.} X...X...*.X.:...X.} ;...#.X.P ~ ~ J P I e q q J *.*.*...} ~ *.~ ~ Q I J Q } ..      !.'.!.  C.  !.  O   qX    O *.      O |.  5XqX:X      ..:...~ ..k.} ..~ P ~ ~ J P I e q q J *.*.*...} ~ *.~ Q I P J I ~ X.X.P Q J } ....*...~ } ~ J e e ",
"g g J g g q r r q = = 8 = 3 r 8 r = = = e 8 q 8 g g g g g g q e e g J h g g q 8 r 8 8 & 8 = 3 * * r r   c.!.D.  A...  ~.  c.qX  6Xx.    ~.A.  {.& *X5Xc.  8 & = q 8 = = q 8 g 0 g g g g g g q e e g J h g g q 8 q 8 r 8 = 8 8 r * r = r = q q r r e g h h g r e ",
"q * 8 & & * = 8 = = = = = = = * & = = 8 = & 8 8 = & * 8 8 = = q e 8 = * & = = = * = * * r * 8 = 8 * & 8     *.  m.!.  '.  {.qX  6X:X  ).D.C.  D.  ..    & & r = & * * * * 8 & 8 = & * 8 8 = = q e 8 = * & = = = * * = * * = * * * 8 * = * * 8 = * * * * * * 8 q ",
"g 8 q q q q q r 8 q q 8 r q q q q q r q r r e r q r g q 8 q q r e r r e q r r e e 8 e q 8 q r q r e q q e *     *.V.D.  ..XX4X  qX-X  &XoXX.    .   3 8 g q q r q e e r q r e = q r g e 8 q q r e r r p q r r e q q q r q q 8 q q q r q q r q r e q q q e q q q ",
"q g q g r r g q q e e r p e r g e e r p q g q q q g = g e r q e e r e q r q q e e q r q e q e q p e g r i t 9 2 . Z.E.    +     .   +     X   ..  = d e q s s p p e r e q g q q q g = g e r q e e r e e r q q e e q r q e q e q r e e g q e q e q g r g q q e r ",
"*.....*.*...:.*.:.*.^ Q I P q e r J ~ ~ ~ ..*.....*.*.......*.*.*...*.*.*.:...*.*...X.~ Q I e e g L ~ ! ! | s.O.=.  *.F.{.E.[.    qX:XXX+X@.+   o.s.~ ^ Q J e e r J ~ ~ ~ ..*.....*.*.......*.*.*...*.*.*.:...*.*...X.~ Q I e e g J P ~ Q ..*.*.....*.+.*...*.*.",
"*.} ~ ..} ~ X.X.~ ~ / Q P P r q e h *.....~ ~ *.:...*.P Q ~ } ....;.k.*.~ ~ Q } ~ ~ ~ Q J I 8 r w G ~ o.| | #.)  . .  %.N.].    . . rX4X=Xl.  } O.U U P E F e p t h :.....~ ~ *.:...*.P Q ~ } ....;.k.*.~ ~ Q } ~ ~ ~ Q J I 8 r e J } *.} #.*.~ ..} :.Q } Q ~ ~ ",
"*.Q :.~ *.J *.} P I I J / J e e e J l.X.X.~ ~ X.k.....I J J ~ } *.*...X.~ X.Q ~ Q ~ ~ I h P q d a G Q X.' } ) _ { ^ *.o   $ $ . $   O   . $ o.~ V ( Y P T F r q e J l.X.X.~ ~ X.k.....I J J ~ } *.*...X.~ X.Q ~ Q ~ ~ I h P q g r J ~ } } } } ^ ~ ~ ..P } ~ ..~ ",
"~ ~ *.*.X.} ..X.} Q J h / I e q r h ;.~ ..} ~ ~ ..~ } ~ I I Q ~ *.X.Q ~ } ..~ Q I ..Q J g J e r e J  . .+.+.) { } $.  P.S.M.. @       0X&X[.  } o.V j h T K q e 0 h ;.~ ..} ~ ~ ..~ } ~ I I Q ~ *.X.~ ~ } ..~ Q I ..Q J g J e r q J ~ X.*...X...X.X.} ~ ~ Q ~ Q ",
"*.:.k.*...*.*.*.P I h I I I r q g h *.#.;.*.X...~ ~ ~ ~ Q P ~ } *.} } } } } ~ Q J X.Q J h J g q t j ) @.-. .{ &.X.o E.X.    I /.+X+XL X   @.+X  ! V I U / J 9 e g h *.+.;.*.X...~ ~ ~ ~ Q P ~ } *.} } } } } ~ Q J X.Q J h J g q q J } *.;...} X.X.Q J ~ } I Q ~ ",
":.;...X.Q ..~ ..J I I ~ P I r e 3 J ......k.:.....~ X.P Q Q Q X.:.Q ~ ~ ......Q Q ~ Q J I J q 9 j V ~ +.-.) k...o XXX.O J.G.F K.(.XXZ tXqX  ; XX  / G ~ Y Y y t 1 J ......k.:.....~ X.P Q Q Q X.:.Q ~ ~ ......Q Q ~ Q J I J q r g Z } ....X.*.*.;.} Q } } P Q X.",
"k.:.f.~ :...X.} Q J J J P J q e q I } *.*.;.:.:.} Q *.J Q Q P ~ ..P X.~ ~ Q ..} ~ Q Q J Q I r g 5 U =.=.*.} s.. <X+ L ~.I.N.C K./.#XS rXwX:XL   [.  E h U S t y q I } *.*.;.:.:.} Q *.J Q Q P ~ ..P X.~ ~ Q ..} ~ Q Q J Q I r g e h *.;.....;...X.Q ~ P ~ ~ X.:.",
";.l.*...X.} X.*.P Q P I P J q e e h X.X.:.;.;.k.Q Q ~ J ~ ~ Q X.*.Q Q ..Q P X.*.Q ' Q I ^ P q e i V s.h.o.o.:.  o ;XP Y /.. . : v < :   tXJ P :X  o / I P P 5 s e h X.X.:.;.;.k.Q Q ~ J ~ ~ Q X.*.Q Q ..Q P X.*.Q ) Q I Q I q e e h k.:.+.X.;.~ } ~ ~ ....~ ..l.",
";.;...X.*.X.~ ~ I Q Q h h J e r e J } *...:.....~ I Q P } ~ P } ~ I Q } ~ ~ X.~ X...Q h I J r e 0 I l.o.o.o.    7X0X1X. . : > x q.B : @ O   rX8X$X  O A L L r e e J } *...:.....~ I Q P } ~ P } ~ I Q } ~ ~ X.~ X...Q C I J r e q h k.*.*.X.*.~ ..X.' } ~ ~ ..k.",
"*.*.*...*.~ ~ Q Q ~ P J I J q e r J ~ *...:.:.*.Q P ~ ~ } ~ ~ X.~ J P } ~ ~ X.X.~ } Q I Q P e e w C z.~ s.. $XE E qX=X@ # , M 9.7.6.v @     wXrXQ A ~.  H E w p r J ~ :...*.:.*.Q P ) ~ } ~ ~ X.~ J P } ~ ~ X.X.~ } Q I Q P e e e J :.....} *.} ..X.....} X.....",
"*.*...X.*.~ } } ~ ~ Q P Q J r e e J } *.*.X.:.X.P Q } Q P ~ ~ Q I h P } Q P ~ ....X.Q J P J r r u C X.X.(   6X=XG   . # , b p.y.9.M k c : @     h <X%X  ` f f r e J } :.*.X.:.X.P Q } Q P ~ ~ Q I h P } Q P ~ ....X.Q J P J r q e G ..} X.~ X.~ X.} ..*.....*.~ ",
":...X.} :...#.X.P ~ ~ J P I e q e h } *.*.X.:.} ~ ~ ~ Q Q X.} P J I ~ } ~ X.....} ~ Q I P J q e u f X.}   .X.X X3XX . , m p.r.3.b k 1.5.b , @   ,X&X@X(.  E r e e h } *.*.X.:.} ~ ~ ~ Q Q X.} P J I ~ } ~ X.....} ~ Q I P J q e q h } } *.......*.} ....X...*.X.",
"r = = = e 4 q 8 g g g g g j q e e g g J e e q 8 q = * 8 = 8 8 = = * = 8 r q q 8 q e g g J h q e w j V g   E..X;X    # k 9.r.i.1.z M y.a.7.b > .   =X[.+X  h q g e g g J e e q 8 q = * 8 = 8 8 = = * = 8 r q q 8 q e g g J h q e g g J g g q r r q = = 8 = 3 r 8 ",
"& = = 8 = & 8 8 = & * 8 8 = = q r 8 * = & = - = = = * r & - * 8 q * & * = * * = = * * & * = * q 9 9 = =   L ^ J @ : l k >.4.i.w.2.3.i.w.t.7.m , @ Z Y U . 2 - 6 0 8 * = & = & = = = * r & & * 8 q * & * = * * = = * * & * = * q q * 8 & & * = 8 = = = = = = = * ",
"q q r q r r e r q r g e 8 q q r g r e 8 e e r q r e 8 q r e q r 6 q e r r e e 8 q q e r r r 8 g t 9 r w + U.E.].: c q.<.x >.w.e.e.i.w.2.r.a.0.b : tX1X1X@ 9 w u d r e 8 e e r q r e 8 q r e q r 8 q e r r e e 8 q q e r r r 8 g g 8 q q q q q r 8 e q r r q q q ",
"e e r e q g q q q g 3 g e r q e e r e q r q q e e q r q e q e r r e e g q e q e q g r g q q e 9 t 9 d u   C.L.OXB q.7.4.m n 2.e.e.u.,.n ,.4.7.6.v 1X#X7X  w j w p r e e r q q e e q r q e q e q r e e g q e q e q g r g q q e r q g q g r q g q q q e r p e r g ",
"r J ) ~ ~ +.*.....*.*.......*.*.*...*.*.*.:...*.*...X.~ Q I e e g J P ~ Q ..*.*.....*.+.*...*.:.o.=.{ &.  B.L./.< m p.4.5.1.i.w.u.w.4.>.x M 8.N > 1XtXtX  -.$.$.*...*.*.*.:...*.*...X.~ Q I e e g J P ~ Q ..*.*.....*.+.*...*.*.*...+.*.*...:.*.*.*.Q Q I P q e ",
"p h :.....~ ~ *.:...*./ Q ~ } ....;.k.*.~ ~ Q } ~ ~ ~ Q J I 8 r e J } *.} #.*.~ ..} :.Q } Q ~ ~ s.( X.-.X F K I @ > b 9.a.t.w.u.1.3.i.r.>.z c : . ! V Y   Q ..*...;.k.*.~ ~ Q } ~ ~ ~ Q J I 8 r e J } *.} *.*.~ ..} :.Q } Q ~ ~ :.} ~ ..} ~ X.X.~ ~ P Q P P r q ",
"e J l.X.X.~ ~ X.k.....I J J ~ } *.*...X.~ X.Q ~ Q ~ ~ I h P q g r J ~ } } } } ^ ~ ~ ..P } ~ ..( *.! %.~ X U.B.G.X . : b a.t.y.,.b 1.t.t.8.c #   + ].2XtX  J ' / #.*...X.~ X.Q ~ Q ~ ~ I h P q g q J ~ } } X.} Q ~ ~ ../ } ~ ..~ :.Q :.~ *.J *.} P I I J P J e e ",
"r h ;.~ ..} ~ ~ ..~ } ~ P I Q ~ *.X.~ ~ } ..~ Q I ..Q J g J e r q J ~ X.*...X...X.X.} ~ ~ Q ~ / ( | O.o.%   I./.Z.  . > m 8.n z ,.i.r.4.x # . + (.;X2X2X  I Z ' #.X.~ ~ } ..~ Q I ..Q J g J e r q J ~ X.*...X...X.X.} ~ ) Q ~ Q ~ ~ *.*.X.} ..X.} Q J h P I e q ",
"g h *.+.;.*.X...~ ~ ~ ~ Q P ~ } *.} } } } } ~ Q J X.Q J h J g q q J } *.;...} X.X.Q J ~ } I Q ~ o.=.x.o.( $ J.J.P     @ , z k m 4.y.5.m : .   o H $X<X. Q P ' ' *.} } } } } ~ Q J X.Q J h J g q q J } &.;...} X.X.Q J ~ } P Q ~ *.*.k.*...*.*.*.P I h I J I r q ",
"= J ......k.:.....~ X.P Q Q Q X.:.Q ~ ~ ......Q Q ~ Q J I J q r g Z } ....X.*.*.;.} Q } } P Q X.;.*.&.{ {   (.L L H._.. @ > B 8.5.9.b , @ O M.(.H W uX. ! U I ' :.Q ~ ~ ......Q Q ~ Q J I J q r g J } ....X.*.*.;.} Q } } P Q X.*.;...X.Q ..~ ..J P I ~ P I r e ",
"q I } *.*.;.:.:.} Q *.J Q Q P ~ ..P X.~ ~ Q ..} ~ Q Q J Q I r g e h *.;.....;...X.Q ~ P ~ ~ X.:.*.z.&.{ $.&.    B.D.L.  X @ , B 8.m > @ .   B.U.U.o o D ~ ! I ) ..P X.~ ~ Q ..} ~ Q Q J Q I r g e h *.;.....;...X.Q ~ P ~ ~ X.:.f.:.;.~ :...X.} Q I J J P J q e ",
"e h X.X.:.d.;.k.Q Q ~ J ~ ~ Q X.*.Q Q ..Q P X.*.Q ) Q I ^ I q e e h k.:.+.X.;.~ } ~ ~ ....~ ..z.-.l.&.} %.[ O.. I.Z.P J [.  . # l , # . OXY P B.U.  ^ I ~ ! ! | *.Q Q ..Q P X.*.Q ) Q I Q I q e e h k.:...X.;.~ } ~ ~ ....~ ..l.;.l.*...X.} } #.P Q P I P J e e ",
"e I } *...:.....~ I Q P } ~ P } ~ I Q } ~ ~ X.~ X...Q C I J r e q h k.*.*.X.*.~ ..X.' } ~ ~ ..j.d.-.;...%.[ [ U .   J Q.^.&XT ,XtX8XZ 1X#XR.I     E ^ E } } I [ ~ I Q } ~ ~ X.~ X...Q C I J r e q h k.*.*.X.*.~ ..X.' } ~ ~ ..k.;.;...X.*.X.~ ~ I Q Q h C J e r ",
"r J ~ *...*.:.*.Q P ~ ~ } ~ ~ X.~ J P } ~ ~ X.X.~ } Q I Q P e e e J :.....} *.} ..X.....} X.....g...=.[ =.o.~ ~ P % N.F.~.oXF &X&X7XI ,X=X*X/.. ( I K { ^ ] X.X.~ J P } ~ ~ X.X.~ } Q I Q P e e e J :.....} *.} ..X...X.} X.....*.*.*...*.~ ~ Q Q ~ P J P J q p ",
"e J } *.*.X.:.X.P Q } Q P ~ ~ Q I h P } Q P ~ ....X.Q J P J r q e G ..} X.~ X.~ X.} ..*.....*.~ ..:.%.%.=.~ { _ ^ Q . .   {.J 3X3X3XG ,X      s.Y ! &.F Q [ ^ ^ P h P } Q P ~ ....X.Q J P J r q e J ..' X.~ X.~ X.} ..*.....&.~ *.*...X.:.~ } } ~ ~ Q P Q J r e ",
"e Z } *.*.X.:.} ~ ~ ~ Q Q X.} P J I ~ } ~ X.....} ~ Q I P J q e q h } } *.......*.} ....X...*.X.h.%.U ..k. .@.{ ) Q ~ Q I   .         ; *._ f.! | R P Q ! [ { W G I ~ } ~ X.....} ~ Q I P J q e q h X.} *.......*.} X...X...*.X.:...X.} :...*.X.P ~ ~ J P I e q ",
"e g g J e e q 8 q = * 8 = 8 8 = = * = 8 r q q 8 q e g g J h q e g g J g g q r r q = = 8 = 6 8 6 8 8 8 8 8 = 6 u e e g g g j 5 t s e j r h j 3 0 1 9 8 8 5 1 6 3 = * = 8 r q q 8 q e g g J h q e g g J g g q r r q = = 8 = = r 8 r = = = e 6 q 8 g g g g g g q e ",
"r 8 * = & = & = = = * r & & * 8 q * & * = * * = = * * & * = * q q * 8 & & * = 8 = = = = = = = * - - 8 - - r 1 & 4 * - 6 1 & = 9 8 9 * 8 & = 6 7 3 & 3 ; = * * 8 q * & * = * * = = * * & * = * q q * 8 & & * = 8 = = = = = = = * & = = 8 = & 8 8 = & * 8 8 = = q ",
"g r e 8 e e r q r e 8 q r e q r 8 q e r r e e 8 q q e r r r 8 g g 8 q q q q q r r e q r r q q r w 6 w e 8 8 9 y 4 u 0 3 9 t 9 e i 1 t 9 t 9 a 7 w e 6 w w 0 9 9 1 q e r r e e 8 q q e r r r 8 g g 8 q q q q q r r e q r r q q q q q r r r r e r q r g q 8 q q r "
};
