/* XPM */
static char *_72601c72358426aac789c5a53707403rtOdOBblJOv2PLoV[] = {
/* columns rows colors chars-per-pixel */
"337 338 12 1 ",
"  c #040756",
". c #01022B",
"X c #060C6D",
"o c #050962",
"O c #03054A",
"+ c #02043E",
"@ c black",
"# c #010233",
"$ c #00011B",
"% c #070E79",
"& c #0B1494",
"* c #2C2C2C",
/* pixels */
"                                                                                                               ...........XXXXXXXXXXXXXXXXXXXXXXXXXXXXXXXXXXXXXXXXXXXXXXXXXXXXXXXXXXXXXXXXXXXXXXXXXXXXXXXXXXXXXXXXXXXXXXXXXXXXXXXXXXXXXXXXXXXXXXXXXXXXXXXXXXXXXXXXXXXXXXXXXXXXXXXXXX...........oooooooooooooooooooooooooooooooooooooooooooooooooo",
"                                                                                                               ...........XXXXXXXXXXXXXXXXXXXXXXXXXXXXXXXXXXXXXXXXXXXXXXXXXXXXXXXXXXXXXXXXXXXXXXXXXXXXXXXXXXXXXXXXXXXXXXXXXXXXXXXXXXXXXXXXXXXXXXXXXXXXXXXXXXXXXXXXXXXXXXXXXXXXXXXXXX...........oooooooooooooooooooooooooooooooooooooooooooooooooo",
"                                                                                                               ...........XXXXXXXXXXXXXXXXXXXXXXXXXXXXXXXXXXXXXXXXXXXXXXXXXXXXXXXXXXXXXXXXXXXXXXXXXXXXXXXXXXXXXXXXXXXXXXXXXXXXXXXXXXXXXXXXXXXXXXXXXXXXXXXXXXXXXXXXXXXXXXXXXXXXXXXXXX...........oooooooooooooooooooooooooooooooooooooooooooooooooo",
"                                                                                                               ...........XXXXXXXXXXXXXXXXXXXXXXXXXXXXXXXXXXXXXXXXXXXXXXXXXXXXXXXXXXXXXXXXXXXXXXXXXXXXXXXXXXXXXXXXXXXXXXXXXXXXXXXXXXXXXXXXXXXXXXXXXXXXXXXXXXXXXXXXXXXXXXXXXXXXXXXXXX...........oooooooooooooooooooooooooooooooooooooooooooooooooo",
"                                                                                                               ...........XXXXXXXXXXXXXXXXXXXXXXXXXXXXXXXXXXXXXXXXXXXXXXXXXXXXXXXXXXXXXXXXXXXXXXXXXXXXXXXXXXXXXXXXXXXXXXXXXXXXXXXXXXXXXXXXXXXXXXXXXXXXXXXXXXXXXXXXXXXXXXXXXXXXXXXXXX...........oooooooooooooooooooooooooooooooooooooooooooooooooo",
"            OOOOOO     ++++++           ++++++++++++++++++++++++++++++++++++++++++++     +++++++++++++++++.....@@@@@@@@@@@XXXXXX     XXXXXXooooo++++++     XXXXXX+++++++++++++++++++++++++++           +++++++++++++++++     XXXXXX     +++++++++++      XXXXXXXXXXX     +++++++++++@@@@@@@@@@@ooooooXXXXX      +++++      ooooooooooo+++++++++++",
"            OOOOOO     ++++++           ++++++++++++++++++++++++++++++++++++++++++++     +++++++++++++++++.....@@@@@@@@@@@XXXXXX     XXXXXXooooo++++++     XXXXXX+++++++++++++++++++++++++++           +++++++++++++++++     XXXXXX     +++++++++++      XXXXXXXXXXX     +++++++++++@@@@@@@@@@@ooooooXXXXX      +++++      ooooooooooo+++++++++++",
"            OOOOOO     ++++++           ++++++++++++++++++++++++++++++++++++++++++++     +++++++++++++++++.....@@@@@@@@@@@XXXXXX     XXXXXXooooo++++++     XXXXXX+++++++++++++++++++++++++++           +++++++++++++++++     XXXXXX     +++++++++++      XXXXXXXXXXX     +++++++++++@@@@@@@@@@@ooooooXXXXX      +++++      ooooooooooo+++++++++++",
"            OOOOOO     ++++++           ++++++++++++++++++++++++++++++++++++++++++++     +++++++++++++++++.....@@@@@@@@@@@XXXXXX     XXXXXXooooo++++++     XXXXXX+++++++++++++++++++++++++++           +++++++++++++++++     XXXXXX     +++++++++++      XXXXXXXXXXX     +++++++++++@@@@@@@@@@@ooooooXXXXX      +++++      ooooooooooo+++++++++++",
"            OOOOOO     ++++++           ++++++++++++++++++++++++++++++++++++++++++++     +++++++++++++++++.....@@@@@@@@@@@XXXXXX     XXXXXXooooo++++++     XXXXXX+++++++++++++++++++++++++++           +++++++++++++++++     XXXXXX     +++++++++++      XXXXXXXXXXX     +++++++++++@@@@@@@@@@@ooooooXXXXX      +++++      ooooooooooo+++++++++++",
"            OOOOOO     ++++++           ++++++++++++++++++++++++++++++++++++++++++++     +++++++++++++++++.....@@@@@@@@@@@XXXXXX     XXXXXXooooo++++++     XXXXXX+++++++++++++++++++++++++++           +++++++++++++++++     XXXXXX     +++++++++++      XXXXXXXXXXX     +++++++++++@@@@@@@@@@@ooooooXXXXX      +++++      ooooooooooo+++++++++++",
" OOOOOO+++++OOOOOO+++++++++++++++++++++++++++      +++++      +++++++++++++++++++++++++++++++++++++++++++++++++@@@@@@@@@@@XXXXXXXXXXX      +++++++++++++++++++++++++++......+++++...........++++++           +++++++++++++++++++++++++++++++++.....+++++++++++++++++++++++++++++++++@@@@@@@@@@@ooooooooooo           +++++++++++           ......",
" OOOOOO+++++OOOOOO+++++++++++++++++++++++++++      +++++      +++++++++++++++++++++++++++++++++++++++++++++++++@@@@@@@@@@@XXXXXXXXXXX      +++++++++++++++++++++++++++......+++++...........++++++           +++++++++++++++++++++++++++++++++.....+++++++++++++++++++++++++++++++++@@@@@@@@@@@ooooooooooo           +++++++++++           ......",
" OOOOOO+++++OOOOOO+++++++++++++++++++++++++++      +++++      +++++++++++++++++++++++++++++++++++++++++++++++++@@@@@@@@@@@XXXXXXXXXXX      +++++++++++++++++++++++++++......+++++...........++++++           +++++++++++++++++++++++++++++++++.....+++++++++++++++++++++++++++++++++@@@@@@@@@@@ooooooooooo           +++++++++++           ......",
" OOOOOO+++++OOOOOO+++++++++++++++++++++++++++      +++++      +++++++++++++++++++++++++++++++++++++++++++++++++@@@@@@@@@@@XXXXXXXXXXX      +++++++++++++++++++++++++++......+++++...........++++++           +++++++++++++++++++++++++++++++++.....+++++++++++++++++++++++++++++++++@@@@@@@@@@@ooooooooooo           +++++++++++           ......",
" OOOOOO+++++OOOOOO+++++++++++++++++++++++++++      +++++      +++++++++++++++++++++++++++++++++++++++++++++++++@@@@@@@@@@@XXXXXXXXXXX      +++++++++++++++++++++++++++......+++++...........++++++           +++++++++++++++++++++++++++++++++.....+++++++++++++++++++++++++++++++++@@@@@@@@@@@ooooooooooo           +++++++++++           ......",
" OOOOOO     OOOOOOOOOOOOOOOOO+++++++++++++++++++++++++++++++++++++++++++++++++...........++++++...........+++++@@@@@@@@@@@@@@@@@@@@@@@@@@@@@@@@@@@@@@@@@@@@@@@@@@@@@@@@@@@@@@@@@@@@@@@@@@@@@@@@@@@@@@@@@@@@@@@@@@@@@@@@@@@@@@@@@@@@@@@@@@@@@@@@@@@@@@@@@@@@@@@@@@@@@@@@@@@@@@@@@@@@@@@@@@@@@@@@oooooo     ooooooXXXXXXXXXXXooooo      +++++++++++",
" OOOOOO     OOOOOOOOOOOOOOOOO+++++++++++++++++++++++++++++++++++++++++++++++++...........++++++...........+++++@@@@@@@@@@@@@@@@@@@@@@@@@@@@@@@@@@@@@@@@@@@@@@@@@@@@@@@@@@@@@@@@@@@@@@@@@@@@@@@@@@@@@@@@@@@@@@@@@@@@@@@@@@@@@@@@@@@@@@@@@@@@@@@@@@@@@@@@@@@@@@@@@@@@@@@@@@@@@@@@@@@@@@@@@@@@@@@@oooooo     ooooooXXXXXXXXXXXooooo      +++++++++++",
" OOOOOO     OOOOOOOOOOOOOOOOO+++++++++++++++++++++++++++++++++++++++++++++++++...........++++++...........+++++@@@@@@@@@@@@@@@@@@@@@@@@@@@@@@@@@@@@@@@@@@@@@@@@@@@@@@@@@@@@@@@@@@@@@@@@@@@@@@@@@@@@@@@@@@@@@@@@@@@@@@@@@@@@@@@@@@@@@@@@@@@@@@@@@@@@@@@@@@@@@@@@@@@@@@@@@@@@@@@@@@@@@@@@@@@@@@@@oooooo     ooooooXXXXXXXXXXXooooo      +++++++++++",
" OOOOOO     OOOOOOOOOOOOOOOOO+++++++++++++++++++++++++++++++++++++++++++++++++...........++++++...........+++++@@@@@@@@@@@@@@@@@@@@@@@@@@@@@@@@@@@@@@@@@@@@@@@@@@@@@@@@@@@@@@@@@@@@@@@@@@@@@@@@@@@@@@@@@@@@@@@@@@@@@@@@@@@@@@@@@@@@@@@@@@@@@@@@@@@@@@@@@@@@@@@@@@@@@@@@@@@@@@@@@@@@@@@@@@@@@@@@oooooo     ooooooXXXXXXXXXXXooooo      +++++++++++",
" OOOOOO     OOOOOOOOOOOOOOOOO+++++++++++++++++++++++++++++++++++++++++++++++++...........++++++...........+++++@@@@@@@@@@@@@@@@@@@@@@@@@@@@@@@@@@@@@@@@@@@@@@@@@@@@@@@@@@@@@@@@@@@@@@@@@@@@@@@@@@@@@@@@@@@@@@@@@@@@@@@@@@@@@@@@@@@@@@@@@@@@@@@@@@@@@@@@@@@@@@@@@@@@@@@@@@@@@@@@@@@@@@@@@@@@@@@@oooooo     ooooooXXXXXXXXXXXooooo      +++++++++++",
" OOOOOO     OOOOOOOOOOOOOOOOO+++++++++++++++++++++++++++++++++++++++++++++++++...........++++++...........+++++@@@@@@@@@@@@@@@@@@@@@@@@@@@@@@@@@@@@@@@@@@@@@@@@@@@@@@@@@@@@@@@@@@@@@@@@@@@@@@@@@@@@@@@@@@@@@@@@@@@@@@@@@@@@@@@@@@@@@@@@@@@@@@@@@@@@@@@@@@@@@@@@@@@@@@@@@@@@@@@@@@@@@@@@@@@@@@@@oooooo     ooooooXXXXXXXXXXXooooo      +++++++++++",
" OOOOOOOOOOO                 OOOOO+++++++++++OOOOOO     OOOOOO++++++++++++++++...........++++++................@@@@@@@@@@@                                                                                                         @@@@@@@@@@@@@@@@@@@@@@@@@@@@@@@@@@@@@@@@@@@@@@@@@@@@@@@@@@@@ooooooXXXXX      ooooo      OOOOO+++++++++++......",
" OOOOOOOOOOO                 OOOOO+++++++++++OOOOOO     OOOOOO++++++++++++++++...........++++++................@@@@@@@@@@@                                                                                                         @@@@@@@@@@@@@@@@@@@@@@@@@@@@@@@@@@@@@@@@@@@@@@@@@@@@@@@@@@@@ooooooXXXXX      ooooo      OOOOO+++++++++++......",
" OOOOOOOOOOO                 OOOOO+++++++++++OOOOOO     OOOOOO++++++++++++++++...........++++++................@@@@@@@@@@@                                                                                                         @@@@@@@@@@@@@@@@@@@@@@@@@@@@@@@@@@@@@@@@@@@@@@@@@@@@@@@@@@@@ooooooXXXXX      ooooo      OOOOO+++++++++++......",
" OOOOOOOOOOO                 OOOOO+++++++++++OOOOOO     OOOOOO++++++++++++++++...........++++++................@@@@@@@@@@@                                                                                                         @@@@@@@@@@@@@@@@@@@@@@@@@@@@@@@@@@@@@@@@@@@@@@@@@@@@@@@@@@@@ooooooXXXXX      ooooo      OOOOO+++++++++++......",
" OOOOOOOOOOO                 OOOOO+++++++++++OOOOOO     OOOOOO++++++++++++++++...........++++++................@@@@@@@@@@@                                                                                                         @@@@@@@@@@@@@@@@@@@@@@@@@@@@@@@@@@@@@@@@@@@@@@@@@@@@@@@@@@@@ooooooXXXXX      ooooo      OOOOO+++++++++++......",
" OOOOOOOOOOOooooooooooo                 +++++                 OOOOO++++++++++++++++++++++......++++++++++++++++@@@@@@@@@@@      XXXXXXXXXXXXXXXXoooooo     +++++++++++XXXXXX+++++++++++ooooo+++++++++++ooooooXXXXXXXXXXX           @@@@@@@@@@@                      ++++++++++++++++@@@@@@@@@@@ooooooOOOOOOOOOOO     OOOOOOOOOOOOOOOOO+++++++++++",
" OOOOOOOOOOOooooooooooo                 +++++                 OOOOO++++++++++++++++++++++......++++++++++++++++@@@@@@@@@@@      XXXXXXXXXXXXXXXXoooooo     +++++++++++XXXXXX+++++++++++ooooo+++++++++++ooooooXXXXXXXXXXX           @@@@@@@@@@@                      ++++++++++++++++@@@@@@@@@@@ooooooOOOOOOOOOOO     OOOOOOOOOOOOOOOOO+++++++++++",
" OOOOOOOOOOOooooooooooo                 +++++                 OOOOO++++++++++++++++++++++......++++++++++++++++@@@@@@@@@@@      XXXXXXXXXXXXXXXXoooooo     +++++++++++XXXXXX+++++++++++ooooo+++++++++++ooooooXXXXXXXXXXX           @@@@@@@@@@@                      ++++++++++++++++@@@@@@@@@@@ooooooOOOOOOOOOOO     OOOOOOOOOOOOOOOOO+++++++++++",
" OOOOOOOOOOOooooooooooo                 +++++                 OOOOO++++++++++++++++++++++......++++++++++++++++@@@@@@@@@@@      XXXXXXXXXXXXXXXXoooooo     +++++++++++XXXXXX+++++++++++ooooo+++++++++++ooooooXXXXXXXXXXX           @@@@@@@@@@@                      ++++++++++++++++@@@@@@@@@@@ooooooOOOOOOOOOOO     OOOOOOOOOOOOOOOOO+++++++++++",
" OOOOOOOOOOOooooooooooo                 +++++                 OOOOO++++++++++++++++++++++......++++++++++++++++@@@@@@@@@@@      XXXXXXXXXXXXXXXXoooooo     +++++++++++XXXXXX+++++++++++ooooo+++++++++++ooooooXXXXXXXXXXX           @@@@@@@@@@@                      ++++++++++++++++@@@@@@@@@@@ooooooOOOOOOOOOOO     OOOOOOOOOOOOOOOOO+++++++++++",
" OOOOOOOOOOOooooooooooo                 +++++                 OOOOO++++++++++++++++++++++......++++++++++++++++@@@@@@@@@@@      XXXXXXXXXXXXXXXXoooooo     +++++++++++XXXXXX+++++++++++ooooo+++++++++++ooooooXXXXXXXXXXX           @@@@@@@@@@@                      ++++++++++++++++@@@@@@@@@@@ooooooOOOOOOOOOOO     OOOOOOOOOOOOOOOOO+++++++++++",
"       +++++      ooooooooooo     OOOOOO+++++OOOOOO           OOOOO+++++++++++...........++++++...........+++++@@@@@@@@@@@      oooooXXXXXXXXXXXXXXXXXooooo      XXXXX      ++++++++++++++++ooooooooooo                 +++++      @@@@@@@@@@@     OOOOOOOOOOO++++++++++++++++++++++@@@@@@@@@@@oooooo+++++++++++     ++++++OOOOOOOOOOO+++++++++++",
"       +++++      ooooooooooo     OOOOOO+++++OOOOOO           OOOOO+++++++++++...........++++++...........+++++@@@@@@@@@@@      oooooXXXXXXXXXXXXXXXXXooooo      XXXXX      ++++++++++++++++ooooooooooo                 +++++      @@@@@@@@@@@     OOOOOOOOOOO++++++++++++++++++++++@@@@@@@@@@@oooooo+++++++++++     ++++++OOOOOOOOOOO+++++++++++",
"       +++++      ooooooooooo     OOOOOO+++++OOOOOO           OOOOO+++++++++++...........++++++...........+++++@@@@@@@@@@@      oooooXXXXXXXXXXXXXXXXXooooo      XXXXX      ++++++++++++++++ooooooooooo                 +++++      @@@@@@@@@@@     OOOOOOOOOOO++++++++++++++++++++++@@@@@@@@@@@oooooo+++++++++++     ++++++OOOOOOOOOOO+++++++++++",
"       +++++      ooooooooooo     OOOOOO+++++OOOOOO           OOOOO+++++++++++...........++++++...........+++++@@@@@@@@@@@      oooooXXXXXXXXXXXXXXXXXooooo      XXXXX      ++++++++++++++++ooooooooooo                 +++++      @@@@@@@@@@@     OOOOOOOOOOO++++++++++++++++++++++@@@@@@@@@@@oooooo+++++++++++     ++++++OOOOOOOOOOO+++++++++++",
"       +++++      ooooooooooo     OOOOOO+++++OOOOOO           OOOOO+++++++++++...........++++++...........+++++@@@@@@@@@@@      oooooXXXXXXXXXXXXXXXXXooooo      XXXXX      ++++++++++++++++ooooooooooo                 +++++      @@@@@@@@@@@     OOOOOOOOOOO++++++++++++++++++++++@@@@@@@@@@@oooooo+++++++++++     ++++++OOOOOOOOOOO+++++++++++",
" OOOOOO+++++OOOOOO           OOOOO+++++++++++++++++OOOOOOOOOOOOOOOO++++++OOOOOOOOOOO.....++++++#####...........@@@@@@@@@@@      oooooXXXXXXXXXXXXXXXXX+++++oooooo           XXXXX+++++++++++      +++++      +++++++++++     ++++++@@@@@@@@@@@     OOOOOOOOOOOOOOOOO++++++++++++++++@@@@@@@@@@@ooooooXXXXX      +++++           +++++++++++......",
" OOOOOO+++++OOOOOO           OOOOO+++++++++++++++++OOOOOOOOOOOOOOOO++++++OOOOOOOOOOO.....++++++#####...........@@@@@@@@@@@      oooooXXXXXXXXXXXXXXXXX+++++oooooo           XXXXX+++++++++++      +++++      +++++++++++     ++++++@@@@@@@@@@@     OOOOOOOOOOOOOOOOO++++++++++++++++@@@@@@@@@@@ooooooXXXXX      +++++           +++++++++++......",
" OOOOOO+++++OOOOOO           OOOOO+++++++++++++++++OOOOOOOOOOOOOOOO++++++OOOOOOOOOOO.....++++++#####...........@@@@@@@@@@@      oooooXXXXXXXXXXXXXXXXX+++++oooooo           XXXXX+++++++++++      +++++      +++++++++++     ++++++@@@@@@@@@@@     OOOOOOOOOOOOOOOOO++++++++++++++++@@@@@@@@@@@ooooooXXXXX      +++++           +++++++++++......",
" OOOOOO+++++OOOOOO           OOOOO+++++++++++++++++OOOOOOOOOOOOOOOO++++++OOOOOOOOOOO.....++++++#####...........@@@@@@@@@@@      oooooXXXXXXXXXXXXXXXXX+++++oooooo           XXXXX+++++++++++      +++++      +++++++++++     ++++++@@@@@@@@@@@     OOOOOOOOOOOOOOOOO++++++++++++++++@@@@@@@@@@@ooooooXXXXX      +++++           +++++++++++......",
" OOOOOO+++++OOOOOO           OOOOO+++++++++++++++++OOOOOOOOOOOOOOOO++++++OOOOOOOOOOO.....++++++#####...........@@@@@@@@@@@      oooooXXXXXXXXXXXXXXXXX+++++oooooo           XXXXX+++++++++++      +++++      +++++++++++     ++++++@@@@@@@@@@@     OOOOOOOOOOOOOOOOO++++++++++++++++@@@@@@@@@@@ooooooXXXXX      +++++           +++++++++++......",
" OOOOOO+++++OOOOOO           OOOOO+++++++++++++++++OOOOOOOOOOOOOOOO++++++OOOOOOOOOOO.....++++++#####...........@@@@@@@@@@@      oooooXXXXXXXXXXXXXXXXX+++++oooooo           XXXXX+++++++++++      +++++      +++++++++++     ++++++@@@@@@@@@@@     OOOOOOOOOOOOOOOOO++++++++++++++++@@@@@@@@@@@ooooooXXXXX      +++++           +++++++++++......",
" OOOOOO+++++++++++     OOOOOO+++++++++++           +++++......+++++++++++OOOOOOOOOOOOOOOO++++++#####...........@@@@@@@@@@@      oooooooooooooooo+++++++++++++++++ooooo                      +++++++++++++++++###########+++++++++++@@@@@@@@@@@           OOOOOOOOOOO+++++...........@@@@@@@@@@@XXXXXX++++++++++++++++           OOOOOO.....++++++",
" OOOOOO+++++++++++     OOOOOO+++++++++++           +++++......+++++++++++OOOOOOOOOOOOOOOO++++++#####...........@@@@@@@@@@@      oooooooooooooooo+++++++++++++++++ooooo                      +++++++++++++++++###########+++++++++++@@@@@@@@@@@           OOOOOOOOOOO+++++...........@@@@@@@@@@@XXXXXX++++++++++++++++           OOOOOO.....++++++",
" OOOOOO+++++++++++     OOOOOO+++++++++++           +++++......+++++++++++OOOOOOOOOOOOOOOO++++++#####...........@@@@@@@@@@@      oooooooooooooooo+++++++++++++++++ooooo                      +++++++++++++++++###########+++++++++++@@@@@@@@@@@           OOOOOOOOOOO+++++...........@@@@@@@@@@@XXXXXX++++++++++++++++           OOOOOO.....++++++",
" OOOOOO+++++++++++     OOOOOO+++++++++++           +++++......+++++++++++OOOOOOOOOOOOOOOO++++++#####...........@@@@@@@@@@@      oooooooooooooooo+++++++++++++++++ooooo                      +++++++++++++++++###########+++++++++++@@@@@@@@@@@           OOOOOOOOOOO+++++...........@@@@@@@@@@@XXXXXX++++++++++++++++           OOOOOO.....++++++",
" OOOOOO+++++++++++     OOOOOO+++++++++++           +++++......+++++++++++OOOOOOOOOOOOOOOO++++++#####...........@@@@@@@@@@@      oooooooooooooooo+++++++++++++++++ooooo                      +++++++++++++++++###########+++++++++++@@@@@@@@@@@           OOOOOOOOOOO+++++...........@@@@@@@@@@@XXXXXX++++++++++++++++           OOOOOO.....++++++",
"OOOOOOO+++++      ++++++++++++++++++++++           +++++######...........+++++OOOOOOOOOOO+++++++++++......@@@@@@@@@@@@@@@@      XXXXXooooooooooooooooo+++++++++++oooooXXXXXXXXXXX           ++++++     +++++++++++###########......@@@@@@@@@@@           +++++++++++     ++++++.....@@@@@@@@@@@XXXXXX+++++XXXXXX     ......OOOOO...........++++++",
"OOOOOOO+++++      ++++++++++++++++++++++           +++++######...........+++++OOOOOOOOOOO+++++++++++......@@@@@@@@@@@@@@@@      XXXXXooooooooooooooooo+++++++++++oooooXXXXXXXXXXX           ++++++     +++++++++++###########......@@@@@@@@@@@           +++++++++++     ++++++.....@@@@@@@@@@@XXXXXX+++++XXXXXX     ......OOOOO...........++++++",
"OOOOOOO+++++      ++++++++++++++++++++++           +++++######...........+++++OOOOOOOOOOO+++++++++++......@@@@@@@@@@@@@@@@      XXXXXooooooooooooooooo+++++++++++oooooXXXXXXXXXXX           ++++++     +++++++++++###########......@@@@@@@@@@@           +++++++++++     ++++++.....@@@@@@@@@@@XXXXXX+++++XXXXXX     ......OOOOO...........++++++",
"OOOOOOO+++++      ++++++++++++++++++++++           +++++######...........+++++OOOOOOOOOOO+++++++++++......@@@@@@@@@@@@@@@@      XXXXXooooooooooooooooo+++++++++++oooooXXXXXXXXXXX           ++++++     +++++++++++###########......@@@@@@@@@@@           +++++++++++     ++++++.....@@@@@@@@@@@XXXXXX+++++XXXXXX     ......OOOOO...........++++++",
"OOOOOOO+++++      ++++++++++++++++++++++           +++++######...........+++++OOOOOOOOOOO+++++++++++......@@@@@@@@@@@@@@@@      XXXXXooooooooooooooooo+++++++++++oooooXXXXXXXXXXX           ++++++     +++++++++++###########......@@@@@@@@@@@           +++++++++++     ++++++.....@@@@@@@@@@@XXXXXX+++++XXXXXX     ......OOOOO...........++++++",
"OOOOOOO+++++      ++++++++++++++++++++++           +++++######...........+++++OOOOOOOOOOO+++++++++++......@@@@@@@@@@@@@@@@      XXXXXooooooooooooooooo+++++++++++oooooXXXXXXXXXXX           ++++++     +++++++++++###########......@@@@@@@@@@@           +++++++++++     ++++++.....@@@@@@@@@@@XXXXXX+++++XXXXXX     ......OOOOO...........++++++",
"O++++++++++++++++++++++      ++++++++++++++++......+++++++++++...........+++++++++++.....++++++.....++++++.....@@@@@@@@@@@      XXXXX           ooooooooooooooooooooooXXXXXXooooooooooo     OOOOOO+++++++++++     ###########++++++@@@@@@@@@@@     OOOOOOOOOOO+++++++++++...........@@@@@@@@@@@XXXXXXXXXXX+++++++++++++++++.....++++++...........",
"O++++++++++++++++++++++      ++++++++++++++++......+++++++++++...........+++++++++++.....++++++.....++++++.....@@@@@@@@@@@      XXXXX           ooooooooooooooooooooooXXXXXXooooooooooo     OOOOOO+++++++++++     ###########++++++@@@@@@@@@@@     OOOOOOOOOOO+++++++++++...........@@@@@@@@@@@XXXXXXXXXXX+++++++++++++++++.....++++++...........",
"O++++++++++++++++++++++      ++++++++++++++++......+++++++++++...........+++++++++++.....++++++.....++++++.....@@@@@@@@@@@      XXXXX           ooooooooooooooooooooooXXXXXXooooooooooo     OOOOOO+++++++++++     ###########++++++@@@@@@@@@@@     OOOOOOOOOOO+++++++++++...........@@@@@@@@@@@XXXXXXXXXXX+++++++++++++++++.....++++++...........",
"O++++++++++++++++++++++      ++++++++++++++++......+++++++++++...........+++++++++++.....++++++.....++++++.....@@@@@@@@@@@      XXXXX           ooooooooooooooooooooooXXXXXXooooooooooo     OOOOOO+++++++++++     ###########++++++@@@@@@@@@@@     OOOOOOOOOOO+++++++++++...........@@@@@@@@@@@XXXXXXXXXXX+++++++++++++++++.....++++++...........",
"O++++++++++++++++++++++      ++++++++++++++++......+++++++++++...........+++++++++++.....++++++.....++++++.....@@@@@@@@@@@      XXXXX           ooooooooooooooooooooooXXXXXXooooooooooo     OOOOOO+++++++++++     ###########++++++@@@@@@@@@@@     OOOOOOOOOOO+++++++++++...........@@@@@@@@@@@XXXXXXXXXXX+++++++++++++++++.....++++++...........",
"O++++++++++++++++++++++++++++++++++++++++++++++++++###########+++++++++++################+++++++++++######+++++@@@@@@@@@@@      ooooo           ++++++XXXXX+++++++++++      ooooooooooo     OOOOOO++++++++++++++++...........++++++@@@@@@@@@@@     OOOOOOOOOOOOOOOOO+++++++++++#####@@@@@@@@@@@XXXXXX+++++++++++++++++++++++++++.................",
"O++++++++++++++++++++++++++++++++++++++++++++++++++###########+++++++++++################+++++++++++######+++++@@@@@@@@@@@      ooooo           ++++++XXXXX+++++++++++      ooooooooooo     OOOOOO++++++++++++++++...........++++++@@@@@@@@@@@     OOOOOOOOOOOOOOOOO+++++++++++#####@@@@@@@@@@@XXXXXX+++++++++++++++++++++++++++.................",
"O++++++++++++++++++++++++++++++++++++++++++++++++++###########+++++++++++################+++++++++++######+++++@@@@@@@@@@@      ooooo           ++++++XXXXX+++++++++++      ooooooooooo     OOOOOO++++++++++++++++...........++++++@@@@@@@@@@@     OOOOOOOOOOOOOOOOO+++++++++++#####@@@@@@@@@@@XXXXXX+++++++++++++++++++++++++++.................",
"O++++++++++++++++++++++++++++++++++++++++++++++++++###########+++++++++++################+++++++++++######+++++@@@@@@@@@@@      ooooo           ++++++XXXXX+++++++++++      ooooooooooo     OOOOOO++++++++++++++++...........++++++@@@@@@@@@@@     OOOOOOOOOOOOOOOOO+++++++++++#####@@@@@@@@@@@XXXXXX+++++++++++++++++++++++++++.................",
"O++++++++++++++++++++++++++++++++++++++++++++++++++###########+++++++++++################+++++++++++######+++++@@@@@@@@@@@      ooooo           ++++++XXXXX+++++++++++      ooooooooooo     OOOOOO++++++++++++++++...........++++++@@@@@@@@@@@     OOOOOOOOOOOOOOOOO+++++++++++#####@@@@@@@@@@@XXXXXX+++++++++++++++++++++++++++.................",
"O++++++++++++++++++++++++++++++++++++++++++++++++++###########+++++++++++################+++++++++++######+++++@@@@@@@@@@@      ooooo           ++++++XXXXX+++++++++++      ooooooooooo     OOOOOO++++++++++++++++...........++++++@@@@@@@@@@@     OOOOOOOOOOOOOOOOO+++++++++++#####@@@@@@@@@@@XXXXXX+++++++++++++++++++++++++++.................",
"++++++++++++++++++###########+++++...........+++++++++++############################@@@@@###########...........@@@@@@@@@@@      ooooo      XXXXX+++++++++++++++++++++++++++++++++OOOOOOOOOOOOOOOOO+++++++++++++++++++++++++++......@@@@@@@@@@@           OOOOOOOOOOO+++++++++++#####@@@@@@@@@@@XXXXXX++++++++++++++++............................",
"++++++++++++++++++###########+++++...........+++++++++++############################@@@@@###########...........@@@@@@@@@@@      ooooo      XXXXX+++++++++++++++++++++++++++++++++OOOOOOOOOOOOOOOOO+++++++++++++++++++++++++++......@@@@@@@@@@@           OOOOOOOOOOO+++++++++++#####@@@@@@@@@@@XXXXXX++++++++++++++++............................",
"++++++++++++++++++###########+++++...........+++++++++++############################@@@@@###########...........@@@@@@@@@@@      ooooo      XXXXX+++++++++++++++++++++++++++++++++OOOOOOOOOOOOOOOOO+++++++++++++++++++++++++++......@@@@@@@@@@@           OOOOOOOOOOO+++++++++++#####@@@@@@@@@@@XXXXXX++++++++++++++++............................",
"++++++++++++++++++###########+++++...........+++++++++++############################@@@@@###########...........@@@@@@@@@@@      ooooo      XXXXX+++++++++++++++++++++++++++++++++OOOOOOOOOOOOOOOOO+++++++++++++++++++++++++++......@@@@@@@@@@@           OOOOOOOOOOO+++++++++++#####@@@@@@@@@@@XXXXXX++++++++++++++++............................",
"++++++++++++++++++###########+++++...........+++++++++++############################@@@@@###########...........@@@@@@@@@@@      ooooo      XXXXX+++++++++++++++++++++++++++++++++OOOOOOOOOOOOOOOOO+++++++++++++++++++++++++++......@@@@@@@@@@@           OOOOOOOOOOO+++++++++++#####@@@@@@@@@@@XXXXXX++++++++++++++++............................",
"+++++++++++++++++++++++############################...........+++++......#####......................@@@@@@.....@@@@@@@@@@@      XXXXXXXXXXX     +++++++++++++++++           +++++++++++++++++++++++++++OOOOOOOOOOO++++++...........@@@@@@@@@@@     OOOOOO+++++      ................@@@@@@@@@@@@@@@@@@@@@@@@@@@@@@@@@@@@@@@@@@@@@@@@@@@@@@@@@@@@@",
"+++++++++++++++++++++++############################...........+++++......#####......................@@@@@@.....@@@@@@@@@@@      XXXXXXXXXXX     +++++++++++++++++           +++++++++++++++++++++++++++OOOOOOOOOOO++++++...........@@@@@@@@@@@     OOOOOO+++++      ................@@@@@@@@@@@@@@@@@@@@@@@@@@@@@@@@@@@@@@@@@@@@@@@@@@@@@@@@@@@@@",
"+++++++++++++++++++++++############################...........+++++......#####......................@@@@@@.....@@@@@@@@@@@      XXXXXXXXXXX     +++++++++++++++++           +++++++++++++++++++++++++++OOOOOOOOOOO++++++...........@@@@@@@@@@@     OOOOOO+++++      ................@@@@@@@@@@@@@@@@@@@@@@@@@@@@@@@@@@@@@@@@@@@@@@@@@@@@@@@@@@@@@",
"+++++++++++++++++++++++############################...........+++++......#####......................@@@@@@.....@@@@@@@@@@@      XXXXXXXXXXX     +++++++++++++++++           +++++++++++++++++++++++++++OOOOOOOOOOO++++++...........@@@@@@@@@@@     OOOOOO+++++      ................@@@@@@@@@@@@@@@@@@@@@@@@@@@@@@@@@@@@@@@@@@@@@@@@@@@@@@@@@@@@@",
"+++++++++++++++++++++++############################...........+++++......#####......................@@@@@@.....@@@@@@@@@@@      XXXXXXXXXXX     +++++++++++++++++           +++++++++++++++++++++++++++OOOOOOOOOOO++++++...........@@@@@@@@@@@     OOOOOO+++++      ................@@@@@@@@@@@@@@@@@@@@@@@@@@@@@@@@@@@@@@@@@@@@@@@@@@@@@@@@@@@@@",
"+++++++++++++++++++++++############################...........+++++......#####......................@@@@@@.....@@@@@@@@@@@      XXXXXXXXXXX     +++++++++++++++++           +++++++++++++++++++++++++++OOOOOOOOOOO++++++...........@@@@@@@@@@@     OOOOOO+++++      ................@@@@@@@@@@@@@@@@@@@@@@@@@@@@@@@@@@@@@@@@@@@@@@@@@@@@@@@@@@@@@",
"@@@@@@@@@@@@@@@@@@@@@@@@@@@@@@@@@@@@@@@@@@@@@@@@@@@@@@@@@@@@@@@@@@@@@@@@@@@@@@@@@@@@@@@@@@@@@@@@@@@@@@@@@@@@@@@@@@@@@@@@@@      XXXXX           +++++++++++++++++                +++++++++++oooooooooooOOOOOOOOOOOOOOOOO.....$$$$$$@@@@@@@@@@@                OOOOOO     ......#####@@@@@@@@@@@@@@@@@@@@@@@@@@@@@@@@@@@@@@@@@@@@@@@@@@@@@@@@@@@@@",
"@@@@@@@@@@@@@@@@@@@@@@@@@@@@@@@@@@@@@@@@@@@@@@@@@@@@@@@@@@@@@@@@@@@@@@@@@@@@@@@@@@@@@@@@@@@@@@@@@@@@@@@@@@@@@@@@@@@@@@@@@@      XXXXX           +++++++++++++++++                +++++++++++oooooooooooOOOOOOOOOOOOOOOOO.....$$$$$$@@@@@@@@@@@                OOOOOO     ......#####@@@@@@@@@@@@@@@@@@@@@@@@@@@@@@@@@@@@@@@@@@@@@@@@@@@@@@@@@@@@@",
"@@@@@@@@@@@@@@@@@@@@@@@@@@@@@@@@@@@@@@@@@@@@@@@@@@@@@@@@@@@@@@@@@@@@@@@@@@@@@@@@@@@@@@@@@@@@@@@@@@@@@@@@@@@@@@@@@@@@@@@@@@      XXXXX           +++++++++++++++++                +++++++++++oooooooooooOOOOOOOOOOOOOOOOO.....$$$$$$@@@@@@@@@@@                OOOOOO     ......#####@@@@@@@@@@@@@@@@@@@@@@@@@@@@@@@@@@@@@@@@@@@@@@@@@@@@@@@@@@@@@",
"@@@@@@@@@@@@@@@@@@@@@@@@@@@@@@@@@@@@@@@@@@@@@@@@@@@@@@@@@@@@@@@@@@@@@@@@@@@@@@@@@@@@@@@@@@@@@@@@@@@@@@@@@@@@@@@@@@@@@@@@@@      XXXXX           +++++++++++++++++                +++++++++++oooooooooooOOOOOOOOOOOOOOOOO.....$$$$$$@@@@@@@@@@@                OOOOOO     ......#####@@@@@@@@@@@@@@@@@@@@@@@@@@@@@@@@@@@@@@@@@@@@@@@@@@@@@@@@@@@@@",
"@@@@@@@@@@@@@@@@@@@@@@@@@@@@@@@@@@@@@@@@@@@@@@@@@@@@@@@@@@@@@@@@@@@@@@@@@@@@@@@@@@@@@@@@@@@@@@@@@@@@@@@@@@@@@@@@@@@@@@@@@@      XXXXX           +++++++++++++++++                +++++++++++oooooooooooOOOOOOOOOOOOOOOOO.....$$$$$$@@@@@@@@@@@                OOOOOO     ......#####@@@@@@@@@@@@@@@@@@@@@@@@@@@@@@@@@@@@@@@@@@@@@@@@@@@@@@@@@@@@@",
"Xoooooo     oooooo                           oooooo                      @@@@@ooooooooooooooooo           +++++++++++@@@@@      ooooo++++++     +++++++++++                      +++++++++++ooooooooooo      OOOOOOOOOOO$$$$$$$$$$$@@@@@@@@@@@OOOOO      OOOOO      OOOOO++++++#####@@@@@@@@@@@                      @@@@@@XXXXXXXXXXXXXXXXXXXXXX",
"Xoooooo     oooooo                           oooooo                      @@@@@ooooooooooooooooo           +++++++++++@@@@@      ooooo++++++     +++++++++++                      +++++++++++ooooooooooo      OOOOOOOOOOO$$$$$$$$$$$@@@@@@@@@@@OOOOO      OOOOO      OOOOO++++++#####@@@@@@@@@@@                      @@@@@@XXXXXXXXXXXXXXXXXXXXXX",
"Xoooooo     oooooo                           oooooo                      @@@@@ooooooooooooooooo           +++++++++++@@@@@      ooooo++++++     +++++++++++                      +++++++++++ooooooooooo      OOOOOOOOOOO$$$$$$$$$$$@@@@@@@@@@@OOOOO      OOOOO      OOOOO++++++#####@@@@@@@@@@@                      @@@@@@XXXXXXXXXXXXXXXXXXXXXX",
"Xoooooo     oooooo                           oooooo                      @@@@@ooooooooooooooooo           +++++++++++@@@@@      ooooo++++++     +++++++++++                      +++++++++++ooooooooooo      OOOOOOOOOOO$$$$$$$$$$$@@@@@@@@@@@OOOOO      OOOOO      OOOOO++++++#####@@@@@@@@@@@                      @@@@@@XXXXXXXXXXXXXXXXXXXXXX",
"Xoooooo     oooooo                           oooooo                      @@@@@ooooooooooooooooo           +++++++++++@@@@@      ooooo++++++     +++++++++++                      +++++++++++ooooooooooo      OOOOOOOOOOO$$$$$$$$$$$@@@@@@@@@@@OOOOO      OOOOO      OOOOO++++++#####@@@@@@@@@@@                      @@@@@@XXXXXXXXXXXXXXXXXXXXXX",
"Xoooooo     oooooo                           oooooo                      @@@@@ooooooooooooooooo           +++++++++++@@@@@      ooooo++++++     +++++++++++                      +++++++++++ooooooooooo      OOOOOOOOOOO$$$$$$$$$$$@@@@@@@@@@@OOOOO      OOOOO      OOOOO++++++#####@@@@@@@@@@@                      @@@@@@XXXXXXXXXXXXXXXXXXXXXX",
"o      +++++      XXXXXoooooo     ++++++           +++++      +++++++++++@@@@@ooooooooooo++++++XXXXXXXXXXX+++++XXXXXX@@@@@                      XXXXXX     ++++++                +++++++++++++++++           +++++######$$$$$$$$$$$@@@@@@@@@@@OOOOOOOOOOO++++++++++++++++++++++.....@@@@@@@@@@@      ooooo+++++++++++@@@@@@XXXXXXXXXXX     oooooo",
"o      +++++      XXXXXoooooo     ++++++           +++++      +++++++++++@@@@@ooooooooooo++++++XXXXXXXXXXX+++++XXXXXX@@@@@                      XXXXXX     ++++++                +++++++++++++++++           +++++######$$$$$$$$$$$@@@@@@@@@@@OOOOOOOOOOO++++++++++++++++++++++.....@@@@@@@@@@@      ooooo+++++++++++@@@@@@XXXXXXXXXXX     oooooo",
"o      +++++      XXXXXoooooo     ++++++           +++++      +++++++++++@@@@@ooooooooooo++++++XXXXXXXXXXX+++++XXXXXX@@@@@                      XXXXXX     ++++++                +++++++++++++++++           +++++######$$$$$$$$$$$@@@@@@@@@@@OOOOOOOOOOO++++++++++++++++++++++.....@@@@@@@@@@@      ooooo+++++++++++@@@@@@XXXXXXXXXXX     oooooo",
"o      +++++      XXXXXoooooo     ++++++           +++++      +++++++++++@@@@@ooooooooooo++++++XXXXXXXXXXX+++++XXXXXX@@@@@                      XXXXXX     ++++++                +++++++++++++++++           +++++######$$$$$$$$$$$@@@@@@@@@@@OOOOOOOOOOO++++++++++++++++++++++.....@@@@@@@@@@@      ooooo+++++++++++@@@@@@XXXXXXXXXXX     oooooo",
"o      +++++      XXXXXoooooo     ++++++           +++++      +++++++++++@@@@@ooooooooooo++++++XXXXXXXXXXX+++++XXXXXX@@@@@                      XXXXXX     ++++++                +++++++++++++++++           +++++######$$$$$$$$$$$@@@@@@@@@@@OOOOOOOOOOO++++++++++++++++++++++.....@@@@@@@@@@@      ooooo+++++++++++@@@@@@XXXXXXXXXXX     oooooo",
"o+++++++++++++++++           +++++###########++++++++++++++++++++++++++++@@@@@ooooooXXXXXXXXXXXoooooOOOOOO+++++++++++@@@@@      ooooo++++++     XXXXXX     ++++++++++++++++++++++###########++++++++++++++++++++++######$$$$$$$$$$$@@@@@@@@@@@OOOOO++++++................++++++#####@@@@@@@@@@@      ooooooooooo+++++@@@@@@XXXXX      ooooooooooo",
"o+++++++++++++++++           +++++###########++++++++++++++++++++++++++++@@@@@ooooooXXXXXXXXXXXoooooOOOOOO+++++++++++@@@@@      ooooo++++++     XXXXXX     ++++++++++++++++++++++###########++++++++++++++++++++++######$$$$$$$$$$$@@@@@@@@@@@OOOOO++++++................++++++#####@@@@@@@@@@@      ooooooooooo+++++@@@@@@XXXXX      ooooooooooo",
"o+++++++++++++++++           +++++###########++++++++++++++++++++++++++++@@@@@ooooooXXXXXXXXXXXoooooOOOOOO+++++++++++@@@@@      ooooo++++++     XXXXXX     ++++++++++++++++++++++###########++++++++++++++++++++++######$$$$$$$$$$$@@@@@@@@@@@OOOOO++++++................++++++#####@@@@@@@@@@@      ooooooooooo+++++@@@@@@XXXXX      ooooooooooo",
"o+++++++++++++++++           +++++###########++++++++++++++++++++++++++++@@@@@ooooooXXXXXXXXXXXoooooOOOOOO+++++++++++@@@@@      ooooo++++++     XXXXXX     ++++++++++++++++++++++###########++++++++++++++++++++++######$$$$$$$$$$$@@@@@@@@@@@OOOOO++++++................++++++#####@@@@@@@@@@@      ooooooooooo+++++@@@@@@XXXXX      ooooooooooo",
"o+++++++++++++++++           +++++###########++++++++++++++++++++++++++++@@@@@ooooooXXXXXXXXXXXoooooOOOOOO+++++++++++@@@@@      ooooo++++++     XXXXXX     ++++++++++++++++++++++###########++++++++++++++++++++++######$$$$$$$$$$$@@@@@@@@@@@OOOOO++++++................++++++#####@@@@@@@@@@@      ooooooooooo+++++@@@@@@XXXXX      ooooooooooo",
"o+++++++++++++++++           +++++###########++++++++++++++++++++++++++++@@@@@ooooooXXXXXXXXXXXoooooOOOOOO+++++++++++@@@@@      ooooo++++++     XXXXXX     ++++++++++++++++++++++###########++++++++++++++++++++++######$$$$$$$$$$$@@@@@@@@@@@OOOOO++++++................++++++#####@@@@@@@@@@@      ooooooooooo+++++@@@@@@XXXXX      ooooooooooo",
" ++++++ooooooooooo++++++++++++++++#################+++++++++++###########@@@@@ooooooXXXXXooooooooooo      +++++++++++@@@@@      ooooo                 +++++      ++++++++++++++++###########.................###########.....$$$$$$@@@@@@@@@@@+++++++++++.....++++++...........#####@@@@@@@@@@@      +++++++++++.....@@@@@@XXXXXXXXXXXXXXXXoooooo",
" ++++++ooooooooooo++++++++++++++++#################+++++++++++###########@@@@@ooooooXXXXXooooooooooo      +++++++++++@@@@@      ooooo                 +++++      ++++++++++++++++###########.................###########.....$$$$$$@@@@@@@@@@@+++++++++++.....++++++...........#####@@@@@@@@@@@      +++++++++++.....@@@@@@XXXXXXXXXXXXXXXXoooooo",
" ++++++ooooooooooo++++++++++++++++#################+++++++++++###########@@@@@ooooooXXXXXooooooooooo      +++++++++++@@@@@      ooooo                 +++++      ++++++++++++++++###########.................###########.....$$$$$$@@@@@@@@@@@+++++++++++.....++++++...........#####@@@@@@@@@@@      +++++++++++.....@@@@@@XXXXXXXXXXXXXXXXoooooo",
" ++++++ooooooooooo++++++++++++++++#################+++++++++++###########@@@@@ooooooXXXXXooooooooooo      +++++++++++@@@@@      ooooo                 +++++      ++++++++++++++++###########.................###########.....$$$$$$@@@@@@@@@@@+++++++++++.....++++++...........#####@@@@@@@@@@@      +++++++++++.....@@@@@@XXXXXXXXXXXXXXXXoooooo",
" ++++++ooooooooooo++++++++++++++++#################+++++++++++###########@@@@@ooooooXXXXXooooooooooo      +++++++++++@@@@@      ooooo                 +++++      ++++++++++++++++###########.................###########.....$$$$$$@@@@@@@@@@@+++++++++++.....++++++...........#####@@@@@@@@@@@      +++++++++++.....@@@@@@XXXXXXXXXXXXXXXXoooooo",
"+++++++oooooXXXXXXoooooOOOOOO+++++++++++###########+++++......###########@@@@@ooooooXXXXXOOOOOO                ++++++@@@@@                 +++++++++++++++++++++++++++++++++.....++++++#####......###########................$$$$$$@@@@@@@@@@@+++++++++++#####...........###########@@@@@@@@@@@      .....++++++.....@@@@@@XXXXXXXXXXXooooooooooo",
"+++++++oooooXXXXXXoooooOOOOOO+++++++++++###########+++++......###########@@@@@ooooooXXXXXOOOOOO                ++++++@@@@@                 +++++++++++++++++++++++++++++++++.....++++++#####......###########................$$$$$$@@@@@@@@@@@+++++++++++#####...........###########@@@@@@@@@@@      .....++++++.....@@@@@@XXXXXXXXXXXooooooooooo",
"+++++++oooooXXXXXXoooooOOOOOO+++++++++++###########+++++......###########@@@@@ooooooXXXXXOOOOOO                ++++++@@@@@                 +++++++++++++++++++++++++++++++++.....++++++#####......###########................$$$$$$@@@@@@@@@@@+++++++++++#####...........###########@@@@@@@@@@@      .....++++++.....@@@@@@XXXXXXXXXXXooooooooooo",
"+++++++oooooXXXXXXoooooOOOOOO+++++++++++###########+++++......###########@@@@@ooooooXXXXXOOOOOO                ++++++@@@@@                 +++++++++++++++++++++++++++++++++.....++++++#####......###########................$$$$$$@@@@@@@@@@@+++++++++++#####...........###########@@@@@@@@@@@      .....++++++.....@@@@@@XXXXXXXXXXXooooooooooo",
"+++++++oooooXXXXXXoooooOOOOOO+++++++++++###########+++++......###########@@@@@ooooooXXXXXOOOOOO                ++++++@@@@@                 +++++++++++++++++++++++++++++++++.....++++++#####......###########................$$$$$$@@@@@@@@@@@+++++++++++#####...........###########@@@@@@@@@@@      .....++++++.....@@@@@@XXXXXXXXXXXooooooooooo",
"+++++++oooooXXXXXXoooooOOOOOO+++++++++++###########+++++......###########@@@@@ooooooXXXXXOOOOOO                ++++++@@@@@                 +++++++++++++++++++++++++++++++++.....++++++#####......###########................$$$$$$@@@@@@@@@@@+++++++++++#####...........###########@@@@@@@@@@@      .....++++++.....@@@@@@XXXXXXXXXXXooooooooooo",
" ++++++OOOOOoooooooooooOOOOOOOOOOO+++++++++++OOOOOOOOOOO+++++++++++######@@@@@ooooooOOOOOXXXXXXOOOOO           ++++++@@@@@@@@@@@@@@@@@@@@@@@@@@@@@@@@@@@@@@@@@@@@@@@@@@@@@@@@@@@@@@@@@@@@@@@@@@@@@@@@@@@@@@@@@@@@@@@@@@@@@@@@@@@@@@@@@@@@@@@@@@@@@@@@@@@@@@@@@@@@@@@@@@@@@@@@@@@@@@@@@@@@@@@@@@@@@@@@@@@@@@@@@@@@@@@@@@@@@@XXXXXXXXXXX           ",
" ++++++OOOOOoooooooooooOOOOOOOOOOO+++++++++++OOOOOOOOOOO+++++++++++######@@@@@ooooooOOOOOXXXXXXOOOOO           ++++++@@@@@@@@@@@@@@@@@@@@@@@@@@@@@@@@@@@@@@@@@@@@@@@@@@@@@@@@@@@@@@@@@@@@@@@@@@@@@@@@@@@@@@@@@@@@@@@@@@@@@@@@@@@@@@@@@@@@@@@@@@@@@@@@@@@@@@@@@@@@@@@@@@@@@@@@@@@@@@@@@@@@@@@@@@@@@@@@@@@@@@@@@@@@@@@@@@@@@@XXXXXXXXXXX           ",
" ++++++OOOOOoooooooooooOOOOOOOOOOO+++++++++++OOOOOOOOOOO+++++++++++######@@@@@ooooooOOOOOXXXXXXOOOOO           ++++++@@@@@@@@@@@@@@@@@@@@@@@@@@@@@@@@@@@@@@@@@@@@@@@@@@@@@@@@@@@@@@@@@@@@@@@@@@@@@@@@@@@@@@@@@@@@@@@@@@@@@@@@@@@@@@@@@@@@@@@@@@@@@@@@@@@@@@@@@@@@@@@@@@@@@@@@@@@@@@@@@@@@@@@@@@@@@@@@@@@@@@@@@@@@@@@@@@@@@@XXXXXXXXXXX           ",
" ++++++OOOOOoooooooooooOOOOOOOOOOO+++++++++++OOOOOOOOOOO+++++++++++######@@@@@ooooooOOOOOXXXXXXOOOOO           ++++++@@@@@@@@@@@@@@@@@@@@@@@@@@@@@@@@@@@@@@@@@@@@@@@@@@@@@@@@@@@@@@@@@@@@@@@@@@@@@@@@@@@@@@@@@@@@@@@@@@@@@@@@@@@@@@@@@@@@@@@@@@@@@@@@@@@@@@@@@@@@@@@@@@@@@@@@@@@@@@@@@@@@@@@@@@@@@@@@@@@@@@@@@@@@@@@@@@@@@@XXXXXXXXXXX           ",
" ++++++OOOOOoooooooooooOOOOOOOOOOO+++++++++++OOOOOOOOOOO+++++++++++######@@@@@ooooooOOOOOXXXXXXOOOOO           ++++++@@@@@@@@@@@@@@@@@@@@@@@@@@@@@@@@@@@@@@@@@@@@@@@@@@@@@@@@@@@@@@@@@@@@@@@@@@@@@@@@@@@@@@@@@@@@@@@@@@@@@@@@@@@@@@@@@@@@@@@@@@@@@@@@@@@@@@@@@@@@@@@@@@@@@@@@@@@@@@@@@@@@@@@@@@@@@@@@@@@@@@@@@@@@@@@@@@@@@@XXXXXXXXXXX           ",
"++++++++++++OOOOOO     OOOOOOOOOOOOOOOOOOOOOOOOOOOOOOOOO++++++.....$$$$$$@@@@@ooooooOOOOOOOOOOO++++++++++++++++......@@@@@@@@@@@@@@@@@@@@@@@@@@@@@@@@@@@@@@@@@@@@@@@@@@@@@@@@@@@@@@@@@@@@@@@@@@@@@@@@@@@@@@@@@@@@@@@@@@@@@@@@@@@@@@@@@@@@@@@@@@@@@@@@@@@@@@@@@@@@@@@oooooooooooooooooooooooooooooooooooooooooooo@@@@@@@@@@@XXXXX           OOOOOO",
"++++++++++++OOOOOO     OOOOOOOOOOOOOOOOOOOOOOOOOOOOOOOOO++++++.....$$$$$$@@@@@ooooooOOOOOOOOOOO++++++++++++++++......@@@@@@@@@@@@@@@@@@@@@@@@@@@@@@@@@@@@@@@@@@@@@@@@@@@@@@@@@@@@@@@@@@@@@@@@@@@@@@@@@@@@@@@@@@@@@@@@@@@@@@@@@@@@@@@@@@@@@@@@@@@@@@@@@@@@@@@@@@@@@@@oooooooooooooooooooooooooooooooooooooooooooo@@@@@@@@@@@XXXXX           OOOOOO",
"++++++++++++OOOOOO     OOOOOOOOOOOOOOOOOOOOOOOOOOOOOOOOO++++++.....$$$$$$@@@@@ooooooOOOOOOOOOOO++++++++++++++++......@@@@@@@@@@@@@@@@@@@@@@@@@@@@@@@@@@@@@@@@@@@@@@@@@@@@@@@@@@@@@@@@@@@@@@@@@@@@@@@@@@@@@@@@@@@@@@@@@@@@@@@@@@@@@@@@@@@@@@@@@@@@@@@@@@@@@@@@@@@@@@@oooooooooooooooooooooooooooooooooooooooooooo@@@@@@@@@@@XXXXX           OOOOOO",
"++++++++++++OOOOOO     OOOOOOOOOOOOOOOOOOOOOOOOOOOOOOOOO++++++.....$$$$$$@@@@@ooooooOOOOOOOOOOO++++++++++++++++......@@@@@@@@@@@@@@@@@@@@@@@@@@@@@@@@@@@@@@@@@@@@@@@@@@@@@@@@@@@@@@@@@@@@@@@@@@@@@@@@@@@@@@@@@@@@@@@@@@@@@@@@@@@@@@@@@@@@@@@@@@@@@@@@@@@@@@@@@@@@@@@oooooooooooooooooooooooooooooooooooooooooooo@@@@@@@@@@@XXXXX           OOOOOO",
"++++++++++++OOOOOO     OOOOOOOOOOOOOOOOOOOOOOOOOOOOOOOOO++++++.....$$$$$$@@@@@ooooooOOOOOOOOOOO++++++++++++++++......@@@@@@@@@@@@@@@@@@@@@@@@@@@@@@@@@@@@@@@@@@@@@@@@@@@@@@@@@@@@@@@@@@@@@@@@@@@@@@@@@@@@@@@@@@@@@@@@@@@@@@@@@@@@@@@@@@@@@@@@@@@@@@@@@@@@@@@@@@@@@@@oooooooooooooooooooooooooooooooooooooooooooo@@@@@@@@@@@XXXXX           OOOOOO",
"++++++++++++OOOOOO     OOOOOOOOOOOOOOOOOOOOOOOOOOOOOOOOO++++++.....$$$$$$@@@@@ooooooOOOOOOOOOOO++++++++++++++++......@@@@@@@@@@@@@@@@@@@@@@@@@@@@@@@@@@@@@@@@@@@@@@@@@@@@@@@@@@@@@@@@@@@@@@@@@@@@@@@@@@@@@@@@@@@@@@@@@@@@@@@@@@@@@@@@@@@@@@@@@@@@@@@@@@@@@@@@@@@@@@@oooooooooooooooooooooooooooooooooooooooooooo@@@@@@@@@@@XXXXX           OOOOOO",
" ++++++++++++++++++++++OOOOOO+++++OOOOOOOOOOOOOOOOOOOOOO++++++#####$$$$$$@@@@@ooooooXXXXX+++++++++++++++++.....++++++@@@@@@@@@@@oooooooooooooooooooooooooooooooooooooooooooooooooooooooooooooooooooooooooooooooooooooooooooooooooooooooooooooo+++++      @@@@@@@@@@@ooooo%%%%%%ooooo%%%%%%                OOOOOO@@@@@@@@@@@XXXXXoooooo     OOOOOO",
" ++++++++++++++++++++++OOOOOO+++++OOOOOOOOOOOOOOOOOOOOOO++++++#####$$$$$$@@@@@ooooooXXXXX+++++++++++++++++.....++++++@@@@@@@@@@@oooooooooooooooooooooooooooooooooooooooooooooooooooooooooooooooooooooooooooooooooooooooooooooooooooooooooooooo+++++      @@@@@@@@@@@ooooo%%%%%%ooooo%%%%%%                OOOOOO@@@@@@@@@@@XXXXXoooooo     OOOOOO",
" ++++++++++++++++++++++OOOOOO+++++OOOOOOOOOOOOOOOOOOOOOO++++++#####$$$$$$@@@@@ooooooXXXXX+++++++++++++++++.....++++++@@@@@@@@@@@oooooooooooooooooooooooooooooooooooooooooooooooooooooooooooooooooooooooooooooooooooooooooooooooooooooooooooooo+++++      @@@@@@@@@@@ooooo%%%%%%ooooo%%%%%%                OOOOOO@@@@@@@@@@@XXXXXoooooo     OOOOOO",
" ++++++++++++++++++++++OOOOOO+++++OOOOOOOOOOOOOOOOOOOOOO++++++#####$$$$$$@@@@@ooooooXXXXX+++++++++++++++++.....++++++@@@@@@@@@@@oooooooooooooooooooooooooooooooooooooooooooooooooooooooooooooooooooooooooooooooooooooooooooooooooooooooooooooo+++++      @@@@@@@@@@@ooooo%%%%%%ooooo%%%%%%                OOOOOO@@@@@@@@@@@XXXXXoooooo     OOOOOO",
" ++++++++++++++++++++++OOOOOO+++++OOOOOOOOOOOOOOOOOOOOOO++++++#####$$$$$$@@@@@ooooooXXXXX+++++++++++++++++.....++++++@@@@@@@@@@@oooooooooooooooooooooooooooooooooooooooooooooooooooooooooooooooooooooooooooooooooooooooooooooooooooooooooooooo+++++      @@@@@@@@@@@ooooo%%%%%%ooooo%%%%%%                OOOOOO@@@@@@@@@@@XXXXXoooooo     OOOOOO",
"o+++++++++++oooooo++++++++++++++++OOOOOOOOOOOOOOOOO+++++...........$$$$$$@@@@@      XXXXX++++++++++++++++++++++......@@@@@@@@@@@oooooXXXXXXooooo      XXXXXXXXXXXXXXXXooooooXXXXX      ooooo      XXXXXoooooo+++++      XXXXXXXXXXXXXXXX++++++     ......@@@@@@@@@@@ooooo%%%%%%ooooo%%%%%%%%%%%      OOOOO++++++@@@@@@@@@@@XXXXXXXXXXXoooooOOOOOO",
"o+++++++++++oooooo++++++++++++++++OOOOOOOOOOOOOOOOO+++++...........$$$$$$@@@@@      XXXXX++++++++++++++++++++++......@@@@@@@@@@@oooooXXXXXXooooo      XXXXXXXXXXXXXXXXooooooXXXXX      ooooo      XXXXXoooooo+++++      XXXXXXXXXXXXXXXX++++++     ......@@@@@@@@@@@ooooo%%%%%%ooooo%%%%%%%%%%%      OOOOO++++++@@@@@@@@@@@XXXXXXXXXXXoooooOOOOOO",
"o+++++++++++oooooo++++++++++++++++OOOOOOOOOOOOOOOOO+++++...........$$$$$$@@@@@      XXXXX++++++++++++++++++++++......@@@@@@@@@@@oooooXXXXXXooooo      XXXXXXXXXXXXXXXXooooooXXXXX      ooooo      XXXXXoooooo+++++      XXXXXXXXXXXXXXXX++++++     ......@@@@@@@@@@@ooooo%%%%%%ooooo%%%%%%%%%%%      OOOOO++++++@@@@@@@@@@@XXXXXXXXXXXoooooOOOOOO",
"o+++++++++++oooooo++++++++++++++++OOOOOOOOOOOOOOOOO+++++...........$$$$$$@@@@@      XXXXX++++++++++++++++++++++......@@@@@@@@@@@oooooXXXXXXooooo      XXXXXXXXXXXXXXXXooooooXXXXX      ooooo      XXXXXoooooo+++++      XXXXXXXXXXXXXXXX++++++     ......@@@@@@@@@@@ooooo%%%%%%ooooo%%%%%%%%%%%      OOOOO++++++@@@@@@@@@@@XXXXXXXXXXXoooooOOOOOO",
"o+++++++++++oooooo++++++++++++++++OOOOOOOOOOOOOOOOO+++++...........$$$$$$@@@@@      XXXXX++++++++++++++++++++++......@@@@@@@@@@@oooooXXXXXXooooo      XXXXXXXXXXXXXXXXooooooXXXXX      ooooo      XXXXXoooooo+++++      XXXXXXXXXXXXXXXX++++++     ......@@@@@@@@@@@ooooo%%%%%%ooooo%%%%%%%%%%%      OOOOO++++++@@@@@@@@@@@XXXXXXXXXXXoooooOOOOOO",
"o+++++++++++oooooo++++++++++++++++OOOOOOOOOOOOOOOOO+++++...........$$$$$$@@@@@      XXXXX++++++++++++++++++++++......@@@@@@@@@@@oooooXXXXXXooooo      XXXXXXXXXXXXXXXXooooooXXXXX      ooooo      XXXXXoooooo+++++      XXXXXXXXXXXXXXXX++++++     ......@@@@@@@@@@@ooooo%%%%%%ooooo%%%%%%%%%%%      OOOOO++++++@@@@@@@@@@@XXXXXXXXXXXoooooOOOOOO",
" +++++++++++++++++ooooooooooo+++++++++++OOOOOOOOOOOOOOOO++++++.....######@@@@@      ++++++++++++++++++++++.....++++++@@@@@@@@@@@oooooXXXXXX     oooooo%%%%%%%%%%%XXXXXXXXXXXoooooXXXXXX     XXXXXX           XXXXXXXXXXX                      +++++$$$$$$@@@@@@@@@@@ooooo%%%%%%%%%%%%%%%%%%%%%%      OOOOO++++++@@@@@@@@@@@XXXXXooooooXXXXX      ",
" +++++++++++++++++ooooooooooo+++++++++++OOOOOOOOOOOOOOOO++++++.....######@@@@@      ++++++++++++++++++++++.....++++++@@@@@@@@@@@oooooXXXXXX     oooooo%%%%%%%%%%%XXXXXXXXXXXoooooXXXXXX     XXXXXX           XXXXXXXXXXX                      +++++$$$$$$@@@@@@@@@@@ooooo%%%%%%%%%%%%%%%%%%%%%%      OOOOO++++++@@@@@@@@@@@XXXXXooooooXXXXX      ",
" +++++++++++++++++ooooooooooo+++++++++++OOOOOOOOOOOOOOOO++++++.....######@@@@@      ++++++++++++++++++++++.....++++++@@@@@@@@@@@oooooXXXXXX     oooooo%%%%%%%%%%%XXXXXXXXXXXoooooXXXXXX     XXXXXX           XXXXXXXXXXX                      +++++$$$$$$@@@@@@@@@@@ooooo%%%%%%%%%%%%%%%%%%%%%%      OOOOO++++++@@@@@@@@@@@XXXXXooooooXXXXX      ",
" +++++++++++++++++ooooooooooo+++++++++++OOOOOOOOOOOOOOOO++++++.....######@@@@@      ++++++++++++++++++++++.....++++++@@@@@@@@@@@oooooXXXXXX     oooooo%%%%%%%%%%%XXXXXXXXXXXoooooXXXXXX     XXXXXX           XXXXXXXXXXX                      +++++$$$$$$@@@@@@@@@@@ooooo%%%%%%%%%%%%%%%%%%%%%%      OOOOO++++++@@@@@@@@@@@XXXXXooooooXXXXX      ",
" +++++++++++++++++ooooooooooo+++++++++++OOOOOOOOOOOOOOOO++++++.....######@@@@@      ++++++++++++++++++++++.....++++++@@@@@@@@@@@oooooXXXXXX     oooooo%%%%%%%%%%%XXXXXXXXXXXoooooXXXXXX     XXXXXX           XXXXXXXXXXX                      +++++$$$$$$@@@@@@@@@@@ooooo%%%%%%%%%%%%%%%%%%%%%%      OOOOO++++++@@@@@@@@@@@XXXXXooooooXXXXX      ",
"++++++++++++      ooooooooooo     ++++++OOOOOOOOOOOOOOOO++++++.....######@@@@@+++++++++++$$$$$$$$$$$$$$$$$$$$$$++++++@@@@@@@@@@@ooooooooooo     XXXXXX%%%%%%%%%%%%%%%%XXXXXXXXXXXooooooXXXXXoooooo+++++      +++++++++++     +++++++++++      .....$$$$$$@@@@@@@@@@@ooooooooooo     %%%%%%     ++++++     ++++++@@@@@@@@@@@XXXXXXXXXXXXXXXX      ",
"++++++++++++      ooooooooooo     ++++++OOOOOOOOOOOOOOOO++++++.....######@@@@@+++++++++++$$$$$$$$$$$$$$$$$$$$$$++++++@@@@@@@@@@@ooooooooooo     XXXXXX%%%%%%%%%%%%%%%%XXXXXXXXXXXooooooXXXXXoooooo+++++      +++++++++++     +++++++++++      .....$$$$$$@@@@@@@@@@@ooooooooooo     %%%%%%     ++++++     ++++++@@@@@@@@@@@XXXXXXXXXXXXXXXX      ",
"++++++++++++      ooooooooooo     ++++++OOOOOOOOOOOOOOOO++++++.....######@@@@@+++++++++++$$$$$$$$$$$$$$$$$$$$$$++++++@@@@@@@@@@@ooooooooooo     XXXXXX%%%%%%%%%%%%%%%%XXXXXXXXXXXooooooXXXXXoooooo+++++      +++++++++++     +++++++++++      .....$$$$$$@@@@@@@@@@@ooooooooooo     %%%%%%     ++++++     ++++++@@@@@@@@@@@XXXXXXXXXXXXXXXX      ",
"++++++++++++      ooooooooooo     ++++++OOOOOOOOOOOOOOOO++++++.....######@@@@@+++++++++++$$$$$$$$$$$$$$$$$$$$$$++++++@@@@@@@@@@@ooooooooooo     XXXXXX%%%%%%%%%%%%%%%%XXXXXXXXXXXooooooXXXXXoooooo+++++      +++++++++++     +++++++++++      .....$$$$$$@@@@@@@@@@@ooooooooooo     %%%%%%     ++++++     ++++++@@@@@@@@@@@XXXXXXXXXXXXXXXX      ",
"++++++++++++      ooooooooooo     ++++++OOOOOOOOOOOOOOOO++++++.....######@@@@@+++++++++++$$$$$$$$$$$$$$$$$$$$$$++++++@@@@@@@@@@@ooooooooooo     XXXXXX%%%%%%%%%%%%%%%%XXXXXXXXXXXooooooXXXXXoooooo+++++      +++++++++++     +++++++++++      .....$$$$$$@@@@@@@@@@@ooooooooooo     %%%%%%     ++++++     ++++++@@@@@@@@@@@XXXXXXXXXXXXXXXX      ",
"++++++++++++      ooooooooooo     ++++++OOOOOOOOOOOOOOOO++++++.....######@@@@@+++++++++++$$$$$$$$$$$$$$$$$$$$$$++++++@@@@@@@@@@@ooooooooooo     XXXXXX%%%%%%%%%%%%%%%%XXXXXXXXXXXooooooXXXXXoooooo+++++      +++++++++++     +++++++++++      .....$$$$$$@@@@@@@@@@@ooooooooooo     %%%%%%     ++++++     ++++++@@@@@@@@@@@XXXXXXXXXXXXXXXX      ",
"+oooooo+++++++++++     oooooo     ++++++++++++++++++++++++++++.....$$$$$$@@@@@@@@@@@@@@@@@@@@@@@@@@@@@@@@@@@@@@@@@@@@@@@@@@@@@@@oooooXXXXXXXXXXXooooooooooo%%%%%%%%%%%           XXXXXX+++++           ++++++++++++++++++++++      +++++++++++.....$$$$$$@@@@@@@@@@@ooooo%%%%%%                      OOOOO++++++@@@@@@@@@@@XXXXXXXXXXXXXXXXoooooo",
"+oooooo+++++++++++     oooooo     ++++++++++++++++++++++++++++.....$$$$$$@@@@@@@@@@@@@@@@@@@@@@@@@@@@@@@@@@@@@@@@@@@@@@@@@@@@@@@oooooXXXXXXXXXXXooooooooooo%%%%%%%%%%%           XXXXXX+++++           ++++++++++++++++++++++      +++++++++++.....$$$$$$@@@@@@@@@@@ooooo%%%%%%                      OOOOO++++++@@@@@@@@@@@XXXXXXXXXXXXXXXXoooooo",
"+oooooo+++++++++++     oooooo     ++++++++++++++++++++++++++++.....$$$$$$@@@@@@@@@@@@@@@@@@@@@@@@@@@@@@@@@@@@@@@@@@@@@@@@@@@@@@@oooooXXXXXXXXXXXooooooooooo%%%%%%%%%%%           XXXXXX+++++           ++++++++++++++++++++++      +++++++++++.....$$$$$$@@@@@@@@@@@ooooo%%%%%%                      OOOOO++++++@@@@@@@@@@@XXXXXXXXXXXXXXXXoooooo",
"+oooooo+++++++++++     oooooo     ++++++++++++++++++++++++++++.....$$$$$$@@@@@@@@@@@@@@@@@@@@@@@@@@@@@@@@@@@@@@@@@@@@@@@@@@@@@@@oooooXXXXXXXXXXXooooooooooo%%%%%%%%%%%           XXXXXX+++++           ++++++++++++++++++++++      +++++++++++.....$$$$$$@@@@@@@@@@@ooooo%%%%%%                      OOOOO++++++@@@@@@@@@@@XXXXXXXXXXXXXXXXoooooo",
"+oooooo+++++++++++     oooooo     ++++++++++++++++++++++++++++.....$$$$$$@@@@@@@@@@@@@@@@@@@@@@@@@@@@@@@@@@@@@@@@@@@@@@@@@@@@@@@oooooXXXXXXXXXXXooooooooooo%%%%%%%%%%%           XXXXXX+++++           ++++++++++++++++++++++      +++++++++++.....$$$$$$@@@@@@@@@@@ooooo%%%%%%                      OOOOO++++++@@@@@@@@@@@XXXXXXXXXXXXXXXXoooooo",
"+++++++           +++++           ###########$$$$$$+++++...........$$$$$$@@@@@@@@@@@@@@@@@@@@@@@@@@@@@@@@@@@@@@@@@@@@@@@@@@@@@@@oooooooooooXXXXXooooooooooooooooo                XXXXXX                ++++++++++++++++++++++++++++................++++++@@@@@@@@@@@ooooo%%%%%%%%%%%           OOOOOOOOOOO++++++@@@@@@@@@@@XXXXX           XXXXXX",
"+++++++           +++++           ###########$$$$$$+++++...........$$$$$$@@@@@@@@@@@@@@@@@@@@@@@@@@@@@@@@@@@@@@@@@@@@@@@@@@@@@@@oooooooooooXXXXXooooooooooooooooo                XXXXXX                ++++++++++++++++++++++++++++................++++++@@@@@@@@@@@ooooo%%%%%%%%%%%           OOOOOOOOOOO++++++@@@@@@@@@@@XXXXX           XXXXXX",
"+++++++           +++++           ###########$$$$$$+++++...........$$$$$$@@@@@@@@@@@@@@@@@@@@@@@@@@@@@@@@@@@@@@@@@@@@@@@@@@@@@@@oooooooooooXXXXXooooooooooooooooo                XXXXXX                ++++++++++++++++++++++++++++................++++++@@@@@@@@@@@ooooo%%%%%%%%%%%           OOOOOOOOOOO++++++@@@@@@@@@@@XXXXX           XXXXXX",
"+++++++           +++++           ###########$$$$$$+++++...........$$$$$$@@@@@@@@@@@@@@@@@@@@@@@@@@@@@@@@@@@@@@@@@@@@@@@@@@@@@@@oooooooooooXXXXXooooooooooooooooo                XXXXXX                ++++++++++++++++++++++++++++................++++++@@@@@@@@@@@ooooo%%%%%%%%%%%           OOOOOOOOOOO++++++@@@@@@@@@@@XXXXX           XXXXXX",
"+++++++           +++++           ###########$$$$$$+++++...........$$$$$$@@@@@@@@@@@@@@@@@@@@@@@@@@@@@@@@@@@@@@@@@@@@@@@@@@@@@@@oooooooooooXXXXXooooooooooooooooo                XXXXXX                ++++++++++++++++++++++++++++................++++++@@@@@@@@@@@ooooo%%%%%%%%%%%           OOOOOOOOOOO++++++@@@@@@@@@@@XXXXX           XXXXXX",
"+++++++           +++++           ###########$$$$$$+++++...........$$$$$$@@@@@@@@@@@@@@@@@@@@@@@@@@@@@@@@@@@@@@@@@@@@@@@@@@@@@@@oooooooooooXXXXXooooooooooooooooo                XXXXXX                ++++++++++++++++++++++++++++................++++++@@@@@@@@@@@ooooo%%%%%%%%%%%           OOOOOOOOOOO++++++@@@@@@@@@@@XXXXX           XXXXXX",
"+++++++                +++++++++++######$$$$$$$$$$$$$$$$++++++.....$$$$$$@@@@@@@@@@@oooooooooooooooooooooo           @@@@@@@@@@@ooooo           XXXXXXooooo+++++++++++      XXXXXoooooo+++++           +++++++++++++++++++++++++++++++++++++++...........@@@@@@@@@@@ooooo%%%%%%%%%%%OOOOOO+++++           ......@@@@@@@@@@@XXXXX           oooooo",
"+++++++                +++++++++++######$$$$$$$$$$$$$$$$++++++.....$$$$$$@@@@@@@@@@@oooooooooooooooooooooo           @@@@@@@@@@@ooooo           XXXXXXooooo+++++++++++      XXXXXoooooo+++++           +++++++++++++++++++++++++++++++++++++++...........@@@@@@@@@@@ooooo%%%%%%%%%%%OOOOOO+++++           ......@@@@@@@@@@@XXXXX           oooooo",
"+++++++                +++++++++++######$$$$$$$$$$$$$$$$++++++.....$$$$$$@@@@@@@@@@@oooooooooooooooooooooo           @@@@@@@@@@@ooooo           XXXXXXooooo+++++++++++      XXXXXoooooo+++++           +++++++++++++++++++++++++++++++++++++++...........@@@@@@@@@@@ooooo%%%%%%%%%%%OOOOOO+++++           ......@@@@@@@@@@@XXXXX           oooooo",
"+++++++                +++++++++++######$$$$$$$$$$$$$$$$++++++.....$$$$$$@@@@@@@@@@@oooooooooooooooooooooo           @@@@@@@@@@@ooooo           XXXXXXooooo+++++++++++      XXXXXoooooo+++++           +++++++++++++++++++++++++++++++++++++++...........@@@@@@@@@@@ooooo%%%%%%%%%%%OOOOOO+++++           ......@@@@@@@@@@@XXXXX           oooooo",
"+++++++                +++++++++++######$$$$$$$$$$$$$$$$++++++.....$$$$$$@@@@@@@@@@@oooooooooooooooooooooo           @@@@@@@@@@@ooooo           XXXXXXooooo+++++++++++      XXXXXoooooo+++++           +++++++++++++++++++++++++++++++++++++++...........@@@@@@@@@@@ooooo%%%%%%%%%%%OOOOOO+++++           ......@@@@@@@@@@@XXXXX           oooooo",
"++++++++++++           +++++++++++######$$$$$$$$$$$$$$$$......$$$$$$$$$$$@@@@@@@@@@@ooooooooooo+++++      +++++++++++@@@@@@@@@@@oooooXXXXXXoooooXXXXXXooooo+++++++++++                 +++++                 ++++++++++++++++......+++++++++++#####$$$$$$@@@@@@@@@@@ooooooooooo%%%%%OOOOOO+++++OOOOOO     ......@@@@@@@@@@@XXXXXXXXXXX     OOOOOO",
"++++++++++++           +++++++++++######$$$$$$$$$$$$$$$$......$$$$$$$$$$$@@@@@@@@@@@ooooooooooo+++++      +++++++++++@@@@@@@@@@@oooooXXXXXXoooooXXXXXXooooo+++++++++++                 +++++                 ++++++++++++++++......+++++++++++#####$$$$$$@@@@@@@@@@@ooooooooooo%%%%%OOOOOO+++++OOOOOO     ......@@@@@@@@@@@XXXXXXXXXXX     OOOOOO",
"++++++++++++           +++++++++++######$$$$$$$$$$$$$$$$......$$$$$$$$$$$@@@@@@@@@@@ooooooooooo+++++      +++++++++++@@@@@@@@@@@oooooXXXXXXoooooXXXXXXooooo+++++++++++                 +++++                 ++++++++++++++++......+++++++++++#####$$$$$$@@@@@@@@@@@ooooooooooo%%%%%OOOOOO+++++OOOOOO     ......@@@@@@@@@@@XXXXXXXXXXX     OOOOOO",
"++++++++++++           +++++++++++######$$$$$$$$$$$$$$$$......$$$$$$$$$$$@@@@@@@@@@@ooooooooooo+++++      +++++++++++@@@@@@@@@@@oooooXXXXXXoooooXXXXXXooooo+++++++++++                 +++++                 ++++++++++++++++......+++++++++++#####$$$$$$@@@@@@@@@@@ooooooooooo%%%%%OOOOOO+++++OOOOOO     ......@@@@@@@@@@@XXXXXXXXXXX     OOOOOO",
"++++++++++++           +++++++++++######$$$$$$$$$$$$$$$$......$$$$$$$$$$$@@@@@@@@@@@ooooooooooo+++++      +++++++++++@@@@@@@@@@@oooooXXXXXXoooooXXXXXXooooo+++++++++++                 +++++                 ++++++++++++++++......+++++++++++#####$$$$$$@@@@@@@@@@@ooooooooooo%%%%%OOOOOO+++++OOOOOO     ......@@@@@@@@@@@XXXXXXXXXXX     OOOOOO",
"++++++++++++           +++++++++++######$$$$$$$$$$$$$$$$......$$$$$$$$$$$@@@@@@@@@@@ooooooooooo+++++      +++++++++++@@@@@@@@@@@oooooXXXXXXoooooXXXXXXooooo+++++++++++                 +++++                 ++++++++++++++++......+++++++++++#####$$$$$$@@@@@@@@@@@ooooooooooo%%%%%OOOOOO+++++OOOOOO     ......@@@@@@@@@@@XXXXXXXXXXX     OOOOOO",
"+OOOOOO+++++++++++++++++++++++++++++++++#####$$$$$$$$$$$$$$$$$$$$$$$$$$$$@@@@@@@@@@@ooooo           +++++++++++++++++@@@@@@@@@@@oooooXXXXXXXXXXX      oooooooooooooooo++++++     +++++++++++++++++           +++++......+++++......+++++++++++#####$$$$$$@@@@@@@@@@@ooooooooooo     OOOOOOooooo           ++++++@@@@@@@@@@@XXXXX      OOOOO++++++",
"+OOOOOO+++++++++++++++++++++++++++++++++#####$$$$$$$$$$$$$$$$$$$$$$$$$$$$@@@@@@@@@@@ooooo           +++++++++++++++++@@@@@@@@@@@oooooXXXXXXXXXXX      oooooooooooooooo++++++     +++++++++++++++++           +++++......+++++......+++++++++++#####$$$$$$@@@@@@@@@@@ooooooooooo     OOOOOOooooo           ++++++@@@@@@@@@@@XXXXX      OOOOO++++++",
"+OOOOOO+++++++++++++++++++++++++++++++++#####$$$$$$$$$$$$$$$$$$$$$$$$$$$$@@@@@@@@@@@ooooo           +++++++++++++++++@@@@@@@@@@@oooooXXXXXXXXXXX      oooooooooooooooo++++++     +++++++++++++++++           +++++......+++++......+++++++++++#####$$$$$$@@@@@@@@@@@ooooooooooo     OOOOOOooooo           ++++++@@@@@@@@@@@XXXXX      OOOOO++++++",
"+OOOOOO+++++++++++++++++++++++++++++++++#####$$$$$$$$$$$$$$$$$$$$$$$$$$$$@@@@@@@@@@@ooooo           +++++++++++++++++@@@@@@@@@@@oooooXXXXXXXXXXX      oooooooooooooooo++++++     +++++++++++++++++           +++++......+++++......+++++++++++#####$$$$$$@@@@@@@@@@@ooooooooooo     OOOOOOooooo           ++++++@@@@@@@@@@@XXXXX      OOOOO++++++",
"+OOOOOO+++++++++++++++++++++++++++++++++#####$$$$$$$$$$$$$$$$$$$$$$$$$$$$@@@@@@@@@@@ooooo           +++++++++++++++++@@@@@@@@@@@oooooXXXXXXXXXXX      oooooooooooooooo++++++     +++++++++++++++++           +++++......+++++......+++++++++++#####$$$$$$@@@@@@@@@@@ooooooooooo     OOOOOOooooo           ++++++@@@@@@@@@@@XXXXX      OOOOO++++++",
"O      +++++++++++OOOOOOOOOOO+++++######+++++######.....$$$$$$$$$$$@@@@@@@@@@@@@@@@@ooooo      ++++++++++++++++++++++@@@@@@@@@@@oooooXXXXXX     ++++++     ooooooooooo           +++++++++++++++++++++++++++++++++++++++.....+++++++++++...........$$$$$$@@@@@@@@@@@ooooooooooo%%%%%OOOOOOoooooooooooOOOOO++++++@@@@@@@@@@@XXXXXOOOOOO+++++++++++",
"O      +++++++++++OOOOOOOOOOO+++++######+++++######.....$$$$$$$$$$$@@@@@@@@@@@@@@@@@ooooo      ++++++++++++++++++++++@@@@@@@@@@@oooooXXXXXX     ++++++     ooooooooooo           +++++++++++++++++++++++++++++++++++++++.....+++++++++++...........$$$$$$@@@@@@@@@@@ooooooooooo%%%%%OOOOOOoooooooooooOOOOO++++++@@@@@@@@@@@XXXXXOOOOOO+++++++++++",
"O      +++++++++++OOOOOOOOOOO+++++######+++++######.....$$$$$$$$$$$@@@@@@@@@@@@@@@@@ooooo      ++++++++++++++++++++++@@@@@@@@@@@oooooXXXXXX     ++++++     ooooooooooo           +++++++++++++++++++++++++++++++++++++++.....+++++++++++...........$$$$$$@@@@@@@@@@@ooooooooooo%%%%%OOOOOOoooooooooooOOOOO++++++@@@@@@@@@@@XXXXXOOOOOO+++++++++++",
"O      +++++++++++OOOOOOOOOOO+++++######+++++######.....$$$$$$$$$$$@@@@@@@@@@@@@@@@@ooooo      ++++++++++++++++++++++@@@@@@@@@@@oooooXXXXXX     ++++++     ooooooooooo           +++++++++++++++++++++++++++++++++++++++.....+++++++++++...........$$$$$$@@@@@@@@@@@ooooooooooo%%%%%OOOOOOoooooooooooOOOOO++++++@@@@@@@@@@@XXXXXOOOOOO+++++++++++",
"O      +++++++++++OOOOOOOOOOO+++++######+++++######.....$$$$$$$$$$$@@@@@@@@@@@@@@@@@ooooo      ++++++++++++++++++++++@@@@@@@@@@@oooooXXXXXX     ++++++     ooooooooooo           +++++++++++++++++++++++++++++++++++++++.....+++++++++++...........$$$$$$@@@@@@@@@@@ooooooooooo%%%%%OOOOOOoooooooooooOOOOO++++++@@@@@@@@@@@XXXXXOOOOOO+++++++++++",
"O      +++++++++++OOOOOOOOOOO+++++######+++++######.....$$$$$$$$$$$@@@@@@@@@@@@@@@@@ooooo      ++++++++++++++++++++++@@@@@@@@@@@oooooXXXXXX     ++++++     ooooooooooo           +++++++++++++++++++++++++++++++++++++++.....+++++++++++...........$$$$$$@@@@@@@@@@@ooooooooooo%%%%%OOOOOOoooooooooooOOOOO++++++@@@@@@@@@@@XXXXXOOOOOO+++++++++++",
" OOOOOO+++++++++++OOOOOOOOOOO#####$$$$$$###########.....$$$$$$@@@@@$$$$$$@@@@@@@@@@@ooooooooooo     oooooo+++++......@@@@@@@@@@@ooooo           XXXXXX+++++           +++++++++++++++++#####+++++++++++###########+++++++++++++++++#####++++++#####$$$$$$@@@@@@@@@@@ooooo      %%%%%      OOOOO+++++++++++......@@@@@@@@@@@XXXXXXXXXXXOOOOO++++++",
" OOOOOO+++++++++++OOOOOOOOOOO#####$$$$$$###########.....$$$$$$@@@@@$$$$$$@@@@@@@@@@@ooooooooooo     oooooo+++++......@@@@@@@@@@@ooooo           XXXXXX+++++           +++++++++++++++++#####+++++++++++###########+++++++++++++++++#####++++++#####$$$$$$@@@@@@@@@@@ooooo      %%%%%      OOOOO+++++++++++......@@@@@@@@@@@XXXXXXXXXXXOOOOO++++++",
" OOOOOO+++++++++++OOOOOOOOOOO#####$$$$$$###########.....$$$$$$@@@@@$$$$$$@@@@@@@@@@@ooooooooooo     oooooo+++++......@@@@@@@@@@@ooooo           XXXXXX+++++           +++++++++++++++++#####+++++++++++###########+++++++++++++++++#####++++++#####$$$$$$@@@@@@@@@@@ooooo      %%%%%      OOOOO+++++++++++......@@@@@@@@@@@XXXXXXXXXXXOOOOO++++++",
" OOOOOO+++++++++++OOOOOOOOOOO#####$$$$$$###########.....$$$$$$@@@@@$$$$$$@@@@@@@@@@@ooooooooooo     oooooo+++++......@@@@@@@@@@@ooooo           XXXXXX+++++           +++++++++++++++++#####+++++++++++###########+++++++++++++++++#####++++++#####$$$$$$@@@@@@@@@@@ooooo      %%%%%      OOOOO+++++++++++......@@@@@@@@@@@XXXXXXXXXXXOOOOO++++++",
" OOOOOO+++++++++++OOOOOOOOOOO#####$$$$$$###########.....$$$$$$@@@@@$$$$$$@@@@@@@@@@@ooooooooooo     oooooo+++++......@@@@@@@@@@@ooooo           XXXXXX+++++           +++++++++++++++++#####+++++++++++###########+++++++++++++++++#####++++++#####$$$$$$@@@@@@@@@@@ooooo      %%%%%      OOOOO+++++++++++......@@@@@@@@@@@XXXXXXXXXXXOOOOO++++++",
"O++++++++++++++++++++++++++++#####$$$$$$$$$$$$$$$$$...........$$$$$@@@@@@@@@@@@@@@@@oooooooooooooooo+++++++++++++++++@@@@@@@@@@@ooooo++++++XXXXX++++++           +++++++++++++++++++++++++++###########++++++#####...........++++++################$$$$$$@@@@@@@@@@@ooooo%%%%%%           OOOOO......+++++++++++@@@@@@@@@@@XXXXXoooooo     ++++++",
"O++++++++++++++++++++++++++++#####$$$$$$$$$$$$$$$$$...........$$$$$@@@@@@@@@@@@@@@@@oooooooooooooooo+++++++++++++++++@@@@@@@@@@@ooooo++++++XXXXX++++++           +++++++++++++++++++++++++++###########++++++#####...........++++++################$$$$$$@@@@@@@@@@@ooooo%%%%%%           OOOOO......+++++++++++@@@@@@@@@@@XXXXXoooooo     ++++++",
"O++++++++++++++++++++++++++++#####$$$$$$$$$$$$$$$$$...........$$$$$@@@@@@@@@@@@@@@@@oooooooooooooooo+++++++++++++++++@@@@@@@@@@@ooooo++++++XXXXX++++++           +++++++++++++++++++++++++++###########++++++#####...........++++++################$$$$$$@@@@@@@@@@@ooooo%%%%%%           OOOOO......+++++++++++@@@@@@@@@@@XXXXXoooooo     ++++++",
"O++++++++++++++++++++++++++++#####$$$$$$$$$$$$$$$$$...........$$$$$@@@@@@@@@@@@@@@@@oooooooooooooooo+++++++++++++++++@@@@@@@@@@@ooooo++++++XXXXX++++++           +++++++++++++++++++++++++++###########++++++#####...........++++++################$$$$$$@@@@@@@@@@@ooooo%%%%%%           OOOOO......+++++++++++@@@@@@@@@@@XXXXXoooooo     ++++++",
"O++++++++++++++++++++++++++++#####$$$$$$$$$$$$$$$$$...........$$$$$@@@@@@@@@@@@@@@@@oooooooooooooooo+++++++++++++++++@@@@@@@@@@@ooooo++++++XXXXX++++++           +++++++++++++++++++++++++++###########++++++#####...........++++++################$$$$$$@@@@@@@@@@@ooooo%%%%%%           OOOOO......+++++++++++@@@@@@@@@@@XXXXXoooooo     ++++++",
"O++++++++++++++++++++++++++++#####$$$$$$$$$$$$$$$$$...........$$$$$@@@@@@@@@@@@@@@@@oooooooooooooooo+++++++++++++++++@@@@@@@@@@@ooooo++++++XXXXX++++++           +++++++++++++++++++++++++++###########++++++#####...........++++++################$$$$$$@@@@@@@@@@@ooooo%%%%%%           OOOOO......+++++++++++@@@@@@@@@@@XXXXXoooooo     ++++++",
"O++++++OOOOOOOOOOO+++++++++++#####$$$$$$$$$$$$$$$$$...........$$$$$@@@@@@@@@@@@@@@@@oooooooooooooooo      ...........@@@@@@@@@@@ooooo      XXXXX++++++           ++++++++++++++++......######################......................+++++###########$$$$$$@@@@@@@@@@@ooooo%%%%%%     OOOOOO+++++###########......@@@@@@@@@@@XXXXX           OOOOOO",
"O++++++OOOOOOOOOOO+++++++++++#####$$$$$$$$$$$$$$$$$...........$$$$$@@@@@@@@@@@@@@@@@oooooooooooooooo      ...........@@@@@@@@@@@ooooo      XXXXX++++++           ++++++++++++++++......######################......................+++++###########$$$$$$@@@@@@@@@@@ooooo%%%%%%     OOOOOO+++++###########......@@@@@@@@@@@XXXXX           OOOOOO",
"O++++++OOOOOOOOOOO+++++++++++#####$$$$$$$$$$$$$$$$$...........$$$$$@@@@@@@@@@@@@@@@@oooooooooooooooo      ...........@@@@@@@@@@@ooooo      XXXXX++++++           ++++++++++++++++......######################......................+++++###########$$$$$$@@@@@@@@@@@ooooo%%%%%%     OOOOOO+++++###########......@@@@@@@@@@@XXXXX           OOOOOO",
"O++++++OOOOOOOOOOO+++++++++++#####$$$$$$$$$$$$$$$$$...........$$$$$@@@@@@@@@@@@@@@@@oooooooooooooooo      ...........@@@@@@@@@@@ooooo      XXXXX++++++           ++++++++++++++++......######################......................+++++###########$$$$$$@@@@@@@@@@@ooooo%%%%%%     OOOOOO+++++###########......@@@@@@@@@@@XXXXX           OOOOOO",
"O++++++OOOOOOOOOOO+++++++++++#####$$$$$$$$$$$$$$$$$...........$$$$$@@@@@@@@@@@@@@@@@oooooooooooooooo      ...........@@@@@@@@@@@ooooo      XXXXX++++++           ++++++++++++++++......######################......................+++++###########$$$$$$@@@@@@@@@@@ooooo%%%%%%     OOOOOO+++++###########......@@@@@@@@@@@XXXXX           OOOOOO",
"+++++++OOOOOOOOOOO+++++++++++#####$$$$$$#####$$$$$$...........+++++$$$$$$@@@@@@@@@@@ooooo      OOOOO......+++++++++++@@@@@@@@@@@ooooo      +++++           ++++++......................+++++#################...........$$$$$$$$$$$$$$$$$$$$$$$$$$$$$$$$$@@@@@@@@@@@ooooo%%%%%%     +++++++++++#################@@@@@@@@@@@XXXXXoooooo           ",
"+++++++OOOOOOOOOOO+++++++++++#####$$$$$$#####$$$$$$...........+++++$$$$$$@@@@@@@@@@@ooooo      OOOOO......+++++++++++@@@@@@@@@@@ooooo      +++++           ++++++......................+++++#################...........$$$$$$$$$$$$$$$$$$$$$$$$$$$$$$$$$@@@@@@@@@@@ooooo%%%%%%     +++++++++++#################@@@@@@@@@@@XXXXXoooooo           ",
"+++++++OOOOOOOOOOO+++++++++++#####$$$$$$#####$$$$$$...........+++++$$$$$$@@@@@@@@@@@ooooo      OOOOO......+++++++++++@@@@@@@@@@@ooooo      +++++           ++++++......................+++++#################...........$$$$$$$$$$$$$$$$$$$$$$$$$$$$$$$$$@@@@@@@@@@@ooooo%%%%%%     +++++++++++#################@@@@@@@@@@@XXXXXoooooo           ",
"+++++++OOOOOOOOOOO+++++++++++#####$$$$$$#####$$$$$$...........+++++$$$$$$@@@@@@@@@@@ooooo      OOOOO......+++++++++++@@@@@@@@@@@ooooo      +++++           ++++++......................+++++#################...........$$$$$$$$$$$$$$$$$$$$$$$$$$$$$$$$$@@@@@@@@@@@ooooo%%%%%%     +++++++++++#################@@@@@@@@@@@XXXXXoooooo           ",
"+++++++OOOOOOOOOOO+++++++++++#####$$$$$$#####$$$$$$...........+++++$$$$$$@@@@@@@@@@@ooooo      OOOOO......+++++++++++@@@@@@@@@@@ooooo      +++++           ++++++......................+++++#################...........$$$$$$$$$$$$$$$$$$$$$$$$$$$$$$$$$@@@@@@@@@@@ooooo%%%%%%     +++++++++++#################@@@@@@@@@@@XXXXXoooooo           ",
"+++++++OOOOOOOOOOO+++++++++++#####$$$$$$#####$$$$$$...........+++++$$$$$$@@@@@@@@@@@ooooo      OOOOO......+++++++++++@@@@@@@@@@@ooooo      +++++           ++++++......................+++++#################...........$$$$$$$$$$$$$$$$$$$$$$$$$$$$$$$$$@@@@@@@@@@@ooooo%%%%%%     +++++++++++#################@@@@@@@@@@@XXXXXoooooo           ",
"++++++++++++++++++###########$$$$$######$$$$$$$$$$$.....$$$$$$$$$$$$$$$$$@@@@@@@@@@@oooooOOOOOO+++++oooooo.....++++++@@@@@@@@@@@@@@@@@@@@@@@@@@@@@@@@@@@@@@@@@@@@@@@@@@@@@@@@@@@@@@@@@@@@@@@@@@@@@@@@@@@@@@@@@@@@@@@@@@@@@@@@@@@@@@@@@@@@@@@@@@@@@@@@@@@@@@@@@@@@@@@     oooooo     OOOOOO+++++++++++###########@@@@@@@@@@@XXXXXoooooooooooOOOOOO",
"++++++++++++++++++###########$$$$$######$$$$$$$$$$$.....$$$$$$$$$$$$$$$$$@@@@@@@@@@@oooooOOOOOO+++++oooooo.....++++++@@@@@@@@@@@@@@@@@@@@@@@@@@@@@@@@@@@@@@@@@@@@@@@@@@@@@@@@@@@@@@@@@@@@@@@@@@@@@@@@@@@@@@@@@@@@@@@@@@@@@@@@@@@@@@@@@@@@@@@@@@@@@@@@@@@@@@@@@@@@@@@     oooooo     OOOOOO+++++++++++###########@@@@@@@@@@@XXXXXoooooooooooOOOOOO",
"++++++++++++++++++###########$$$$$######$$$$$$$$$$$.....$$$$$$$$$$$$$$$$$@@@@@@@@@@@oooooOOOOOO+++++oooooo.....++++++@@@@@@@@@@@@@@@@@@@@@@@@@@@@@@@@@@@@@@@@@@@@@@@@@@@@@@@@@@@@@@@@@@@@@@@@@@@@@@@@@@@@@@@@@@@@@@@@@@@@@@@@@@@@@@@@@@@@@@@@@@@@@@@@@@@@@@@@@@@@@@@     oooooo     OOOOOO+++++++++++###########@@@@@@@@@@@XXXXXoooooooooooOOOOOO",
"++++++++++++++++++###########$$$$$######$$$$$$$$$$$.....$$$$$$$$$$$$$$$$$@@@@@@@@@@@oooooOOOOOO+++++oooooo.....++++++@@@@@@@@@@@@@@@@@@@@@@@@@@@@@@@@@@@@@@@@@@@@@@@@@@@@@@@@@@@@@@@@@@@@@@@@@@@@@@@@@@@@@@@@@@@@@@@@@@@@@@@@@@@@@@@@@@@@@@@@@@@@@@@@@@@@@@@@@@@@@@@     oooooo     OOOOOO+++++++++++###########@@@@@@@@@@@XXXXXoooooooooooOOOOOO",
"++++++++++++++++++###########$$$$$######$$$$$$$$$$$.....$$$$$$$$$$$$$$$$$@@@@@@@@@@@oooooOOOOOO+++++oooooo.....++++++@@@@@@@@@@@@@@@@@@@@@@@@@@@@@@@@@@@@@@@@@@@@@@@@@@@@@@@@@@@@@@@@@@@@@@@@@@@@@@@@@@@@@@@@@@@@@@@@@@@@@@@@@@@@@@@@@@@@@@@@@@@@@@@@@@@@@@@@@@@@@@@     oooooo     OOOOOO+++++++++++###########@@@@@@@@@@@XXXXXoooooooooooOOOOOO",
"++++++++++++++++++###########$$$$$$$$$$$$$$$$+++++++++++$$$$$$$$$$$$$$$$$@@@@@@@@@@@oooooooooooOOOOOoooooo+++++......@@@@@@@@@@@@@@@@@@@@@@@@@@@@@@@@@@@@@@@@@@@@@@@@@@@@@@@@@@@@@@@@@@@@@@@@@@@@@@@@@@@@@@@@@@@@@@@@@@@@@@@@@@@@@@@@@@@@@@@@@@@@@@@@@@@@@@@@@@@@@@@     ooooooooooo      OOOOO......+++++++++++@@@@@@@@@@@XXXXXXXXXXXOOOOO++++++",
"++++++++++++++++++###########$$$$$$$$$$$$$$$$+++++++++++$$$$$$$$$$$$$$$$$@@@@@@@@@@@oooooooooooOOOOOoooooo+++++......@@@@@@@@@@@@@@@@@@@@@@@@@@@@@@@@@@@@@@@@@@@@@@@@@@@@@@@@@@@@@@@@@@@@@@@@@@@@@@@@@@@@@@@@@@@@@@@@@@@@@@@@@@@@@@@@@@@@@@@@@@@@@@@@@@@@@@@@@@@@@@@     ooooooooooo      OOOOO......+++++++++++@@@@@@@@@@@XXXXXXXXXXXOOOOO++++++",
"++++++++++++++++++###########$$$$$$$$$$$$$$$$+++++++++++$$$$$$$$$$$$$$$$$@@@@@@@@@@@oooooooooooOOOOOoooooo+++++......@@@@@@@@@@@@@@@@@@@@@@@@@@@@@@@@@@@@@@@@@@@@@@@@@@@@@@@@@@@@@@@@@@@@@@@@@@@@@@@@@@@@@@@@@@@@@@@@@@@@@@@@@@@@@@@@@@@@@@@@@@@@@@@@@@@@@@@@@@@@@@@     ooooooooooo      OOOOO......+++++++++++@@@@@@@@@@@XXXXXXXXXXXOOOOO++++++",
"++++++++++++++++++###########$$$$$$$$$$$$$$$$+++++++++++$$$$$$$$$$$$$$$$$@@@@@@@@@@@oooooooooooOOOOOoooooo+++++......@@@@@@@@@@@@@@@@@@@@@@@@@@@@@@@@@@@@@@@@@@@@@@@@@@@@@@@@@@@@@@@@@@@@@@@@@@@@@@@@@@@@@@@@@@@@@@@@@@@@@@@@@@@@@@@@@@@@@@@@@@@@@@@@@@@@@@@@@@@@@@@     ooooooooooo      OOOOO......+++++++++++@@@@@@@@@@@XXXXXXXXXXXOOOOO++++++",
"++++++++++++++++++###########$$$$$$$$$$$$$$$$+++++++++++$$$$$$$$$$$$$$$$$@@@@@@@@@@@oooooooooooOOOOOoooooo+++++......@@@@@@@@@@@@@@@@@@@@@@@@@@@@@@@@@@@@@@@@@@@@@@@@@@@@@@@@@@@@@@@@@@@@@@@@@@@@@@@@@@@@@@@@@@@@@@@@@@@@@@@@@@@@@@@@@@@@@@@@@@@@@@@@@@@@@@@@@@@@@@@     ooooooooooo      OOOOO......+++++++++++@@@@@@@@@@@XXXXXXXXXXXOOOOO++++++",
"++++++++++++++++++###########$$$$$$$$$$$$$$$$+++++++++++$$$$$$$$$$$$$$$$$@@@@@@@@@@@oooooooooooOOOOOoooooo+++++......@@@@@@@@@@@@@@@@@@@@@@@@@@@@@@@@@@@@@@@@@@@@@@@@@@@@@@@@@@@@@@@@@@@@@@@@@@@@@@@@@@@@@@@@@@@@@@@@@@@@@@@@@@@@@@@@@@@@@@@@@@@@@@@@@@@@@@@@@@@@@@@     ooooooooooo      OOOOO......+++++++++++@@@@@@@@@@@XXXXXXXXXXXOOOOO++++++",
"+++++++++++++++++++++++###########$$$$$$$$$$$++++++$$$$$$$$$$$+++++++++++@@@@@@@@@@@oooooooooooOOOOO++++++.....++++++@@@@@@@@@@@                                                                                                                         @@@@@@@@@@@     oooooo     XXXXXX     +++++++++++++++++@@@@@@@@@@@XXXXXoooooo+++++++++++",
"+++++++++++++++++++++++###########$$$$$$$$$$$++++++$$$$$$$$$$$+++++++++++@@@@@@@@@@@oooooooooooOOOOO++++++.....++++++@@@@@@@@@@@                                                                                                                         @@@@@@@@@@@     oooooo     XXXXXX     +++++++++++++++++@@@@@@@@@@@XXXXXoooooo+++++++++++",
"+++++++++++++++++++++++###########$$$$$$$$$$$++++++$$$$$$$$$$$+++++++++++@@@@@@@@@@@oooooooooooOOOOO++++++.....++++++@@@@@@@@@@@                                                                                                                         @@@@@@@@@@@     oooooo     XXXXXX     +++++++++++++++++@@@@@@@@@@@XXXXXoooooo+++++++++++",
"+++++++++++++++++++++++###########$$$$$$$$$$$++++++$$$$$$$$$$$+++++++++++@@@@@@@@@@@oooooooooooOOOOO++++++.....++++++@@@@@@@@@@@                                                                                                                         @@@@@@@@@@@     oooooo     XXXXXX     +++++++++++++++++@@@@@@@@@@@XXXXXoooooo+++++++++++",
"+++++++++++++++++++++++###########$$$$$$$$$$$++++++$$$$$$$$$$$+++++++++++@@@@@@@@@@@oooooooooooOOOOO++++++.....++++++@@@@@@@@@@@                                                                                                                         @@@@@@@@@@@     oooooo     XXXXXX     +++++++++++++++++@@@@@@@@@@@XXXXXoooooo+++++++++++",
"@@@@@@@@@@@@@@@@@@@@@@@@@@@@@@@@@@@@@@@@@@@@@@@@@@@@@@@@@@@@@@@@@@@@@@@@@@@@@@@@@@@@oooooooooooOOOOO++++++...........@@@@@@@@@@@     XXXXXXXXXXXXXXXXXXXXXXXXXXXXXXXXXoooooo                                      +++++++++++++++++XXXXX++++++     ++++++@@@@@@@@@@@     %%%%%%           XXXXX++++++...........@@@@@@@@@@@@@@@@@@@@@@@@@@@@@@@@@",
"@@@@@@@@@@@@@@@@@@@@@@@@@@@@@@@@@@@@@@@@@@@@@@@@@@@@@@@@@@@@@@@@@@@@@@@@@@@@@@@@@@@@oooooooooooOOOOO++++++...........@@@@@@@@@@@     XXXXXXXXXXXXXXXXXXXXXXXXXXXXXXXXXoooooo                                      +++++++++++++++++XXXXX++++++     ++++++@@@@@@@@@@@     %%%%%%           XXXXX++++++...........@@@@@@@@@@@@@@@@@@@@@@@@@@@@@@@@@",
"@@@@@@@@@@@@@@@@@@@@@@@@@@@@@@@@@@@@@@@@@@@@@@@@@@@@@@@@@@@@@@@@@@@@@@@@@@@@@@@@@@@@oooooooooooOOOOO++++++...........@@@@@@@@@@@     XXXXXXXXXXXXXXXXXXXXXXXXXXXXXXXXXoooooo                                      +++++++++++++++++XXXXX++++++     ++++++@@@@@@@@@@@     %%%%%%           XXXXX++++++...........@@@@@@@@@@@@@@@@@@@@@@@@@@@@@@@@@",
"@@@@@@@@@@@@@@@@@@@@@@@@@@@@@@@@@@@@@@@@@@@@@@@@@@@@@@@@@@@@@@@@@@@@@@@@@@@@@@@@@@@@oooooooooooOOOOO++++++...........@@@@@@@@@@@     XXXXXXXXXXXXXXXXXXXXXXXXXXXXXXXXXoooooo                                      +++++++++++++++++XXXXX++++++     ++++++@@@@@@@@@@@     %%%%%%           XXXXX++++++...........@@@@@@@@@@@@@@@@@@@@@@@@@@@@@@@@@",
"@@@@@@@@@@@@@@@@@@@@@@@@@@@@@@@@@@@@@@@@@@@@@@@@@@@@@@@@@@@@@@@@@@@@@@@@@@@@@@@@@@@@oooooooooooOOOOO++++++...........@@@@@@@@@@@     XXXXXXXXXXXXXXXXXXXXXXXXXXXXXXXXXoooooo                                      +++++++++++++++++XXXXX++++++     ++++++@@@@@@@@@@@     %%%%%%           XXXXX++++++...........@@@@@@@@@@@@@@@@@@@@@@@@@@@@@@@@@",
"@@@@@@@@@@@@@@@@@@@@@@@@@@@@@@@@@@@@@@@@@@@@@@@@@@@@@@@@@@@@@@@@@@@@@@@@@@@@@@@@@@@@oooooooooooOOOOO++++++...........@@@@@@@@@@@     XXXXXXXXXXXXXXXXXXXXXXXXXXXXXXXXXoooooo                                      +++++++++++++++++XXXXX++++++     ++++++@@@@@@@@@@@     %%%%%%           XXXXX++++++...........@@@@@@@@@@@@@@@@@@@@@@@@@@@@@@@@@",
"@@@@@@@@@@@@@@@@@@$$$$$$$$$$$++++++++++++++++++++++++++++++++++++++++++++@@@@@@@@@@@     oooooo++++++++++++++++......@@@@@@@@@@@oooooXXXXXX%%%%%%%%%%%XXXXX           oooooooooooooooooOOOOOOOOOOOOOOOO           OOOOOOOOOOOOOOOOO++++++++++++++++++++++@@@@@@@@@@@                      +++++++++++.....######@@@@@@@@@@@++++++++++++++++++++++",
"@@@@@@@@@@@@@@@@@@$$$$$$$$$$$++++++++++++++++++++++++++++++++++++++++++++@@@@@@@@@@@     oooooo++++++++++++++++......@@@@@@@@@@@oooooXXXXXX%%%%%%%%%%%XXXXX           oooooooooooooooooOOOOOOOOOOOOOOOO           OOOOOOOOOOOOOOOOO++++++++++++++++++++++@@@@@@@@@@@                      +++++++++++.....######@@@@@@@@@@@++++++++++++++++++++++",
"@@@@@@@@@@@@@@@@@@$$$$$$$$$$$++++++++++++++++++++++++++++++++++++++++++++@@@@@@@@@@@     oooooo++++++++++++++++......@@@@@@@@@@@oooooXXXXXX%%%%%%%%%%%XXXXX           oooooooooooooooooOOOOOOOOOOOOOOOO           OOOOOOOOOOOOOOOOO++++++++++++++++++++++@@@@@@@@@@@                      +++++++++++.....######@@@@@@@@@@@++++++++++++++++++++++",
"@@@@@@@@@@@@@@@@@@$$$$$$$$$$$++++++++++++++++++++++++++++++++++++++++++++@@@@@@@@@@@     oooooo++++++++++++++++......@@@@@@@@@@@oooooXXXXXX%%%%%%%%%%%XXXXX           oooooooooooooooooOOOOOOOOOOOOOOOO           OOOOOOOOOOOOOOOOO++++++++++++++++++++++@@@@@@@@@@@                      +++++++++++.....######@@@@@@@@@@@++++++++++++++++++++++",
"@@@@@@@@@@@@@@@@@@$$$$$$$$$$$++++++++++++++++++++++++++++++++++++++++++++@@@@@@@@@@@     oooooo++++++++++++++++......@@@@@@@@@@@oooooXXXXXX%%%%%%%%%%%XXXXX           oooooooooooooooooOOOOOOOOOOOOOOOO           OOOOOOOOOOOOOOOOO++++++++++++++++++++++@@@@@@@@@@@                      +++++++++++.....######@@@@@@@@@@@++++++++++++++++++++++",
"+      oooooXXXXXXXXXXXXXXXXXXXXXXXXXXXXXXXXXXXXXXXXXXXXXXXXXXXXXXXXXXXXX@@@@@@@@@@@           ++++++++++++++++++++++@@@@@@@@@@@oooooXXXXXX%%%%%%%%%%%%%%%%ooooooooooooooooooooooooooooOOOOOOOOOOO+++++++++++OOOOOOOOOOOOOOOOOOOOOO++++++++++++++++++++++@@@@@@@@@@@     %%%%%%     +++++++++++...........######@@@@@@@@@@@+++++OOOOOOOOOOO++++++",
"+      oooooXXXXXXXXXXXXXXXXXXXXXXXXXXXXXXXXXXXXXXXXXXXXXXXXXXXXXXXXXXXXX@@@@@@@@@@@           ++++++++++++++++++++++@@@@@@@@@@@oooooXXXXXX%%%%%%%%%%%%%%%%ooooooooooooooooooooooooooooOOOOOOOOOOO+++++++++++OOOOOOOOOOOOOOOOOOOOOO++++++++++++++++++++++@@@@@@@@@@@     %%%%%%     +++++++++++...........######@@@@@@@@@@@+++++OOOOOOOOOOO++++++",
"+      oooooXXXXXXXXXXXXXXXXXXXXXXXXXXXXXXXXXXXXXXXXXXXXXXXXXXXXXXXXXXXXX@@@@@@@@@@@           ++++++++++++++++++++++@@@@@@@@@@@oooooXXXXXX%%%%%%%%%%%%%%%%ooooooooooooooooooooooooooooOOOOOOOOOOO+++++++++++OOOOOOOOOOOOOOOOOOOOOO++++++++++++++++++++++@@@@@@@@@@@     %%%%%%     +++++++++++...........######@@@@@@@@@@@+++++OOOOOOOOOOO++++++",
"+      oooooXXXXXXXXXXXXXXXXXXXXXXXXXXXXXXXXXXXXXXXXXXXXXXXXXXXXXXXXXXXXX@@@@@@@@@@@           ++++++++++++++++++++++@@@@@@@@@@@oooooXXXXXX%%%%%%%%%%%%%%%%ooooooooooooooooooooooooooooOOOOOOOOOOO+++++++++++OOOOOOOOOOOOOOOOOOOOOO++++++++++++++++++++++@@@@@@@@@@@     %%%%%%     +++++++++++...........######@@@@@@@@@@@+++++OOOOOOOOOOO++++++",
"+      oooooXXXXXXXXXXXXXXXXXXXXXXXXXXXXXXXXXXXXXXXXXXXXXXXXXXXXXXXXXXXXX@@@@@@@@@@@           ++++++++++++++++++++++@@@@@@@@@@@oooooXXXXXX%%%%%%%%%%%%%%%%ooooooooooooooooooooooooooooOOOOOOOOOOO+++++++++++OOOOOOOOOOOOOOOOOOOOOO++++++++++++++++++++++@@@@@@@@@@@     %%%%%%     +++++++++++...........######@@@@@@@@@@@+++++OOOOOOOOOOO++++++",
"+      oooooXXXXXXXXXXXXXXXXXXXXXXXXXXXXXXXXXXXXXXXXXXXXXXXXXXXXXXXXXXXXX@@@@@@@@@@@           ++++++++++++++++++++++@@@@@@@@@@@oooooXXXXXX%%%%%%%%%%%%%%%%ooooooooooooooooooooooooooooOOOOOOOOOOO+++++++++++OOOOOOOOOOOOOOOOOOOOOO++++++++++++++++++++++@@@@@@@@@@@     %%%%%%     +++++++++++...........######@@@@@@@@@@@+++++OOOOOOOOOOO++++++",
" XXXXXXXXXXXXXXXXXXXXXXXXXXXXooooo      oooooXXXXXX                XXXXXX@@@@@@@@@@@           +++++......+++++++++++@@@@@@@@@@@oooooXXXXXXXXXXXXXXXXXXXXXXooooooooooooooooooooooooooooOOOOO+++++++++++oooooooooooooooooOOOOOOOOOOO++++++++++++++++++++++@@@@@@@@@@@     oooooo+++++###########......###########@@@@@@@@@@@+++++OOOOOOOOOOO++++++",
" XXXXXXXXXXXXXXXXXXXXXXXXXXXXooooo      oooooXXXXXX                XXXXXX@@@@@@@@@@@           +++++......+++++++++++@@@@@@@@@@@oooooXXXXXXXXXXXXXXXXXXXXXXooooooooooooooooooooooooooooOOOOO+++++++++++oooooooooooooooooOOOOOOOOOOO++++++++++++++++++++++@@@@@@@@@@@     oooooo+++++###########......###########@@@@@@@@@@@+++++OOOOOOOOOOO++++++",
" XXXXXXXXXXXXXXXXXXXXXXXXXXXXooooo      oooooXXXXXX                XXXXXX@@@@@@@@@@@           +++++......+++++++++++@@@@@@@@@@@oooooXXXXXXXXXXXXXXXXXXXXXXooooooooooooooooooooooooooooOOOOO+++++++++++oooooooooooooooooOOOOOOOOOOO++++++++++++++++++++++@@@@@@@@@@@     oooooo+++++###########......###########@@@@@@@@@@@+++++OOOOOOOOOOO++++++",
" XXXXXXXXXXXXXXXXXXXXXXXXXXXXooooo      oooooXXXXXX                XXXXXX@@@@@@@@@@@           +++++......+++++++++++@@@@@@@@@@@oooooXXXXXXXXXXXXXXXXXXXXXXooooooooooooooooooooooooooooOOOOO+++++++++++oooooooooooooooooOOOOOOOOOOO++++++++++++++++++++++@@@@@@@@@@@     oooooo+++++###########......###########@@@@@@@@@@@+++++OOOOOOOOOOO++++++",
" XXXXXXXXXXXXXXXXXXXXXXXXXXXXooooo      oooooXXXXXX                XXXXXX@@@@@@@@@@@           +++++......+++++++++++@@@@@@@@@@@oooooXXXXXXXXXXXXXXXXXXXXXXooooooooooooooooooooooooooooOOOOO+++++++++++oooooooooooooooooOOOOOOOOOOO++++++++++++++++++++++@@@@@@@@@@@     oooooo+++++###########......###########@@@@@@@@@@@+++++OOOOOOOOOOO++++++",
" XXXXXXooooooooooo     oooooooooooXXXXXXXXXXXXXXXXX+++++      XXXXXXXXXXX@@@@@@@@@@@     OOOOOO+++++$$$$$$$$$$$$$$$$$@@@@@@@@@@@oooooXXXXXXXXXXXooooooXXXXXooooooooooooooooo+++++      OOOOOOOOOOO+++++oooooooooooooooooooooo++++++++++++++++++++++++++++@@@@@@@@@@@           +++++###########.................@@@@@@@@@@@++++++++++++++++......",
" XXXXXXooooooooooo     oooooooooooXXXXXXXXXXXXXXXXX+++++      XXXXXXXXXXX@@@@@@@@@@@     OOOOOO+++++$$$$$$$$$$$$$$$$$@@@@@@@@@@@oooooXXXXXXXXXXXooooooXXXXXooooooooooooooooo+++++      OOOOOOOOOOO+++++oooooooooooooooooooooo++++++++++++++++++++++++++++@@@@@@@@@@@           +++++###########.................@@@@@@@@@@@++++++++++++++++......",
" XXXXXXooooooooooo     oooooooooooXXXXXXXXXXXXXXXXX+++++      XXXXXXXXXXX@@@@@@@@@@@     OOOOOO+++++$$$$$$$$$$$$$$$$$@@@@@@@@@@@oooooXXXXXXXXXXXooooooXXXXXooooooooooooooooo+++++      OOOOOOOOOOO+++++oooooooooooooooooooooo++++++++++++++++++++++++++++@@@@@@@@@@@           +++++###########.................@@@@@@@@@@@++++++++++++++++......",
" XXXXXXooooooooooo     oooooooooooXXXXXXXXXXXXXXXXX+++++      XXXXXXXXXXX@@@@@@@@@@@     OOOOOO+++++$$$$$$$$$$$$$$$$$@@@@@@@@@@@oooooXXXXXXXXXXXooooooXXXXXooooooooooooooooo+++++      OOOOOOOOOOO+++++oooooooooooooooooooooo++++++++++++++++++++++++++++@@@@@@@@@@@           +++++###########.................@@@@@@@@@@@++++++++++++++++......",
" XXXXXXooooooooooo     oooooooooooXXXXXXXXXXXXXXXXX+++++      XXXXXXXXXXX@@@@@@@@@@@     OOOOOO+++++$$$$$$$$$$$$$$$$$@@@@@@@@@@@oooooXXXXXXXXXXXooooooXXXXXooooooooooooooooo+++++      OOOOOOOOOOO+++++oooooooooooooooooooooo++++++++++++++++++++++++++++@@@@@@@@@@@           +++++###########.................@@@@@@@@@@@++++++++++++++++......",
" XXXXXXooooooooooo     oooooooooooXXXXXXXXXXXXXXXXX+++++      XXXXXXXXXXX@@@@@@@@@@@     OOOOOO+++++$$$$$$$$$$$$$$$$$@@@@@@@@@@@oooooXXXXXXXXXXXooooooXXXXXooooooooooooooooo+++++      OOOOOOOOOOO+++++oooooooooooooooooooooo++++++++++++++++++++++++++++@@@@@@@@@@@           +++++###########.................@@@@@@@@@@@++++++++++++++++......",
"XXXXXXXXXXXXoooooooooooXXXXXXXXXXXOOOOOOOOOOO      XXXXXXXXXXX+++++oooooo@@@@@@@@@@@@@@@@@@@@@@@@@@@@@@@@@@@@@@@@@@@@@@@@@@@@@@@     ooooooXXXXXooooooXXXXXXXXXXX           XXXXX           OOOOOOOOOOO+++++++++++ooooooooooo......+++++++++++.....++++++@@@@@@@@@@@++++++++++++++++.................+++++++++++@@@@@@@@@@@++++++++++++++++......",
"XXXXXXXXXXXXoooooooooooXXXXXXXXXXXOOOOOOOOOOO      XXXXXXXXXXX+++++oooooo@@@@@@@@@@@@@@@@@@@@@@@@@@@@@@@@@@@@@@@@@@@@@@@@@@@@@@@     ooooooXXXXXooooooXXXXXXXXXXX           XXXXX           OOOOOOOOOOO+++++++++++ooooooooooo......+++++++++++.....++++++@@@@@@@@@@@++++++++++++++++.................+++++++++++@@@@@@@@@@@++++++++++++++++......",
"XXXXXXXXXXXXoooooooooooXXXXXXXXXXXOOOOOOOOOOO      XXXXXXXXXXX+++++oooooo@@@@@@@@@@@@@@@@@@@@@@@@@@@@@@@@@@@@@@@@@@@@@@@@@@@@@@@     ooooooXXXXXooooooXXXXXXXXXXX           XXXXX           OOOOOOOOOOO+++++++++++ooooooooooo......+++++++++++.....++++++@@@@@@@@@@@++++++++++++++++.................+++++++++++@@@@@@@@@@@++++++++++++++++......",
"XXXXXXXXXXXXoooooooooooXXXXXXXXXXXOOOOOOOOOOO      XXXXXXXXXXX+++++oooooo@@@@@@@@@@@@@@@@@@@@@@@@@@@@@@@@@@@@@@@@@@@@@@@@@@@@@@@     ooooooXXXXXooooooXXXXXXXXXXX           XXXXX           OOOOOOOOOOO+++++++++++ooooooooooo......+++++++++++.....++++++@@@@@@@@@@@++++++++++++++++.................+++++++++++@@@@@@@@@@@++++++++++++++++......",
"XXXXXXXXXXXXoooooooooooXXXXXXXXXXXOOOOOOOOOOO      XXXXXXXXXXX+++++oooooo@@@@@@@@@@@@@@@@@@@@@@@@@@@@@@@@@@@@@@@@@@@@@@@@@@@@@@@     ooooooXXXXXooooooXXXXXXXXXXX           XXXXX           OOOOOOOOOOO+++++++++++ooooooooooo......+++++++++++.....++++++@@@@@@@@@@@++++++++++++++++.................+++++++++++@@@@@@@@@@@++++++++++++++++......",
"X      ooooo      ooooooooooooooooOOOOOO+++++++++++XXXXX      +++++++++++@@@@@@@@@@@@@@@@@@@@@@@@@@@@@@@@@@@@@@@@@@@@@@@@@@@@@@@           oooooXXXXXX           XXXXX      XXXXX                      ......+++++++++++++++++++++++++++......+++++......@@@@@@@@@@@@@@@@@@@@@@@@@@@@@@@@@@@@@@@@@@@@@@@@@@@@@@@@@@@@@@@@@@+++++++++++.....++++++",
"X      ooooo      ooooooooooooooooOOOOOO+++++++++++XXXXX      +++++++++++@@@@@@@@@@@@@@@@@@@@@@@@@@@@@@@@@@@@@@@@@@@@@@@@@@@@@@@           oooooXXXXXX           XXXXX      XXXXX                      ......+++++++++++++++++++++++++++......+++++......@@@@@@@@@@@@@@@@@@@@@@@@@@@@@@@@@@@@@@@@@@@@@@@@@@@@@@@@@@@@@@@@@@+++++++++++.....++++++",
"X      ooooo      ooooooooooooooooOOOOOO+++++++++++XXXXX      +++++++++++@@@@@@@@@@@@@@@@@@@@@@@@@@@@@@@@@@@@@@@@@@@@@@@@@@@@@@@           oooooXXXXXX           XXXXX      XXXXX                      ......+++++++++++++++++++++++++++......+++++......@@@@@@@@@@@@@@@@@@@@@@@@@@@@@@@@@@@@@@@@@@@@@@@@@@@@@@@@@@@@@@@@@@+++++++++++.....++++++",
"X      ooooo      ooooooooooooooooOOOOOO+++++++++++XXXXX      +++++++++++@@@@@@@@@@@@@@@@@@@@@@@@@@@@@@@@@@@@@@@@@@@@@@@@@@@@@@@           oooooXXXXXX           XXXXX      XXXXX                      ......+++++++++++++++++++++++++++......+++++......@@@@@@@@@@@@@@@@@@@@@@@@@@@@@@@@@@@@@@@@@@@@@@@@@@@@@@@@@@@@@@@@@@+++++++++++.....++++++",
"X      ooooo      ooooooooooooooooOOOOOO+++++++++++XXXXX      +++++++++++@@@@@@@@@@@@@@@@@@@@@@@@@@@@@@@@@@@@@@@@@@@@@@@@@@@@@@@           oooooXXXXXX           XXXXX      XXXXX                      ......+++++++++++++++++++++++++++......+++++......@@@@@@@@@@@@@@@@@@@@@@@@@@@@@@@@@@@@@@@@@@@@@@@@@@@@@@@@@@@@@@@@@@+++++++++++.....++++++",
"X      ooooo      ooooooooooooooooOOOOOO+++++++++++XXXXX      +++++++++++@@@@@@@@@@@@@@@@@@@@@@@@@@@@@@@@@@@@@@@@@@@@@@@@@@@@@@@           oooooXXXXXX           XXXXX      XXXXX                      ......+++++++++++++++++++++++++++......+++++......@@@@@@@@@@@@@@@@@@@@@@@@@@@@@@@@@@@@@@@@@@@@@@@@@@@@@@@@@@@@@@@@@@+++++++++++.....++++++",
"XXXXXXXoooooOOOOOOOOOOOooooooooooo      +++++++++++     XXXXXXXXXXX      @@@@@@@@@@@XXXXXXXXXXXooooo           ++++++@@@@@@@@@@@           oooooXXXXXX     OOOOOOOOOOOoooooo                +++++++++++++++++.....+++++++++++......................++++++@@@@@@@@@@@@@@@@@@@@@@@@@@@@@@@@@@@@@@@@@@@@@@@@@@@@@@@@@@@@@@@@@@@@@@@@@@@@@@@@@@@@@@@@",
"XXXXXXXoooooOOOOOOOOOOOooooooooooo      +++++++++++     XXXXXXXXXXX      @@@@@@@@@@@XXXXXXXXXXXooooo           ++++++@@@@@@@@@@@           oooooXXXXXX     OOOOOOOOOOOoooooo                +++++++++++++++++.....+++++++++++......................++++++@@@@@@@@@@@@@@@@@@@@@@@@@@@@@@@@@@@@@@@@@@@@@@@@@@@@@@@@@@@@@@@@@@@@@@@@@@@@@@@@@@@@@@@@",
"XXXXXXXoooooOOOOOOOOOOOooooooooooo      +++++++++++     XXXXXXXXXXX      @@@@@@@@@@@XXXXXXXXXXXooooo           ++++++@@@@@@@@@@@           oooooXXXXXX     OOOOOOOOOOOoooooo                +++++++++++++++++.....+++++++++++......................++++++@@@@@@@@@@@@@@@@@@@@@@@@@@@@@@@@@@@@@@@@@@@@@@@@@@@@@@@@@@@@@@@@@@@@@@@@@@@@@@@@@@@@@@@@",
"XXXXXXXoooooOOOOOOOOOOOooooooooooo      +++++++++++     XXXXXXXXXXX      @@@@@@@@@@@XXXXXXXXXXXooooo           ++++++@@@@@@@@@@@           oooooXXXXXX     OOOOOOOOOOOoooooo                +++++++++++++++++.....+++++++++++......................++++++@@@@@@@@@@@@@@@@@@@@@@@@@@@@@@@@@@@@@@@@@@@@@@@@@@@@@@@@@@@@@@@@@@@@@@@@@@@@@@@@@@@@@@@@",
"XXXXXXXoooooOOOOOOOOOOOooooooooooo      +++++++++++     XXXXXXXXXXX      @@@@@@@@@@@XXXXXXXXXXXooooo           ++++++@@@@@@@@@@@           oooooXXXXXX     OOOOOOOOOOOoooooo                +++++++++++++++++.....+++++++++++......................++++++@@@@@@@@@@@@@@@@@@@@@@@@@@@@@@@@@@@@@@@@@@@@@@@@@@@@@@@@@@@@@@@@@@@@@@@@@@@@@@@@@@@@@@@@",
"XXXXXXXOOOOO      XXXXXooooooOOOOO      oooooooooooooooo++++++           @@@@@@@@@@@XXXXXOOOOOOXXXXXOOOOOOOOOOO++++++@@@@@@@@@@@     XXXXXXXXXXXXXXXXXoooooOOOOOO+++++XXXXXXXXXXXXXXXXX     OOOOOO+++++......+++++...........++++++................++++++@@@@@@@@@@@ooooooooooooooooooooooXXXXXXXXXXXXXXXXXXXXXXXXXXXXXXXXXXXXXXXXXXXXXXXXXXXXXXX",
"XXXXXXXOOOOO      XXXXXooooooOOOOO      oooooooooooooooo++++++           @@@@@@@@@@@XXXXXOOOOOOXXXXXOOOOOOOOOOO++++++@@@@@@@@@@@     XXXXXXXXXXXXXXXXXoooooOOOOOO+++++XXXXXXXXXXXXXXXXX     OOOOOO+++++......+++++...........++++++................++++++@@@@@@@@@@@ooooooooooooooooooooooXXXXXXXXXXXXXXXXXXXXXXXXXXXXXXXXXXXXXXXXXXXXXXXXXXXXXXX",
"XXXXXXXOOOOO      XXXXXooooooOOOOO      oooooooooooooooo++++++           @@@@@@@@@@@XXXXXOOOOOOXXXXXOOOOOOOOOOO++++++@@@@@@@@@@@     XXXXXXXXXXXXXXXXXoooooOOOOOO+++++XXXXXXXXXXXXXXXXX     OOOOOO+++++......+++++...........++++++................++++++@@@@@@@@@@@ooooooooooooooooooooooXXXXXXXXXXXXXXXXXXXXXXXXXXXXXXXXXXXXXXXXXXXXXXXXXXXXXXX",
"XXXXXXXOOOOO      XXXXXooooooOOOOO      oooooooooooooooo++++++           @@@@@@@@@@@XXXXXOOOOOOXXXXXOOOOOOOOOOO++++++@@@@@@@@@@@     XXXXXXXXXXXXXXXXXoooooOOOOOO+++++XXXXXXXXXXXXXXXXX     OOOOOO+++++......+++++...........++++++................++++++@@@@@@@@@@@ooooooooooooooooooooooXXXXXXXXXXXXXXXXXXXXXXXXXXXXXXXXXXXXXXXXXXXXXXXXXXXXXXX",
"XXXXXXXOOOOO      XXXXXooooooOOOOO      oooooooooooooooo++++++           @@@@@@@@@@@XXXXXOOOOOOXXXXXOOOOOOOOOOO++++++@@@@@@@@@@@     XXXXXXXXXXXXXXXXXoooooOOOOOO+++++XXXXXXXXXXXXXXXXX     OOOOOO+++++......+++++...........++++++................++++++@@@@@@@@@@@ooooooooooooooooooooooXXXXXXXXXXXXXXXXXXXXXXXXXXXXXXXXXXXXXXXXXXXXXXXXXXXXXXX",
"XXXXXXXOOOOO      XXXXXooooooOOOOO      oooooooooooooooo++++++           @@@@@@@@@@@XXXXXOOOOOOXXXXXOOOOOOOOOOO++++++@@@@@@@@@@@     XXXXXXXXXXXXXXXXXoooooOOOOOO+++++XXXXXXXXXXXXXXXXX     OOOOOO+++++......+++++...........++++++................++++++@@@@@@@@@@@ooooooooooooooooooooooXXXXXXXXXXXXXXXXXXXXXXXXXXXXXXXXXXXXXXXXXXXXXXXXXXXXXXX",
"XXXXXXXXXXXXXXXXXX     OOOOOOXXXXX++++++oooooOOOOOOOOOOO      +++++      @@@@@@@@@@@XXXXX      ooooooooooo+++++++++++@@@@@@@@@@@     oooooo           ooooooooooooooooXXXXXXXXXXXXXXXXXXXXXX      OOOOO+++++++++++......+++++......................######@@@@@@@@@@@ooooooooooo           oooooooooooooooooooooo     ++++++XXXXX           ++++++",
"XXXXXXXXXXXXXXXXXX     OOOOOOXXXXX++++++oooooOOOOOOOOOOO      +++++      @@@@@@@@@@@XXXXX      ooooooooooo+++++++++++@@@@@@@@@@@     oooooo           ooooooooooooooooXXXXXXXXXXXXXXXXXXXXXX      OOOOO+++++++++++......+++++......................######@@@@@@@@@@@ooooooooooo           oooooooooooooooooooooo     ++++++XXXXX           ++++++",
"XXXXXXXXXXXXXXXXXX     OOOOOOXXXXX++++++oooooOOOOOOOOOOO      +++++      @@@@@@@@@@@XXXXX      ooooooooooo+++++++++++@@@@@@@@@@@     oooooo           ooooooooooooooooXXXXXXXXXXXXXXXXXXXXXX      OOOOO+++++++++++......+++++......................######@@@@@@@@@@@ooooooooooo           oooooooooooooooooooooo     ++++++XXXXX           ++++++",
"XXXXXXXXXXXXXXXXXX     OOOOOOXXXXX++++++oooooOOOOOOOOOOO      +++++      @@@@@@@@@@@XXXXX      ooooooooooo+++++++++++@@@@@@@@@@@     oooooo           ooooooooooooooooXXXXXXXXXXXXXXXXXXXXXX      OOOOO+++++++++++......+++++......................######@@@@@@@@@@@ooooooooooo           oooooooooooooooooooooo     ++++++XXXXX           ++++++",
"XXXXXXXXXXXXXXXXXX     OOOOOOXXXXX++++++oooooOOOOOOOOOOO      +++++      @@@@@@@@@@@XXXXX      ooooooooooo+++++++++++@@@@@@@@@@@     oooooo           ooooooooooooooooXXXXXXXXXXXXXXXXXXXXXX      OOOOO+++++++++++......+++++......................######@@@@@@@@@@@ooooooooooo           oooooooooooooooooooooo     ++++++XXXXX           ++++++",
"X      XXXXXOOOOOO           XXXXXooooooOOOOO+++++++++++OOOOOO           @@@@@@@@@@@XXXXXXXXXXXOOOOO      OOOOO++++++@@@@@@@@@@@     XXXXXX                ++++++     XXXXXXXXXXXXXXXXXXXXXX           OOOOOO...........................$$$$$$+++++######@@@@@@@@@@@ooooo      oooooXXXXXX     ooooooooooooooooo+++++                 +++++++++++",
"X      XXXXXOOOOOO           XXXXXooooooOOOOO+++++++++++OOOOOO           @@@@@@@@@@@XXXXXXXXXXXOOOOO      OOOOO++++++@@@@@@@@@@@     XXXXXX                ++++++     XXXXXXXXXXXXXXXXXXXXXX           OOOOOO...........................$$$$$$+++++######@@@@@@@@@@@ooooo      oooooXXXXXX     ooooooooooooooooo+++++                 +++++++++++",
"X      XXXXXOOOOOO           XXXXXooooooOOOOO+++++++++++OOOOOO           @@@@@@@@@@@XXXXXXXXXXXOOOOO      OOOOO++++++@@@@@@@@@@@     XXXXXX                ++++++     XXXXXXXXXXXXXXXXXXXXXX           OOOOOO...........................$$$$$$+++++######@@@@@@@@@@@ooooo      oooooXXXXXX     ooooooooooooooooo+++++                 +++++++++++",
"X      XXXXXOOOOOO           XXXXXooooooOOOOO+++++++++++OOOOOO           @@@@@@@@@@@XXXXXXXXXXXOOOOO      OOOOO++++++@@@@@@@@@@@     XXXXXX                ++++++     XXXXXXXXXXXXXXXXXXXXXX           OOOOOO...........................$$$$$$+++++######@@@@@@@@@@@ooooo      oooooXXXXXX     ooooooooooooooooo+++++                 +++++++++++",
"X      XXXXXOOOOOO           XXXXXooooooOOOOO+++++++++++OOOOOO           @@@@@@@@@@@XXXXXXXXXXXOOOOO      OOOOO++++++@@@@@@@@@@@     XXXXXX                ++++++     XXXXXXXXXXXXXXXXXXXXXX           OOOOOO...........................$$$$$$+++++######@@@@@@@@@@@ooooo      oooooXXXXXX     ooooooooooooooooo+++++                 +++++++++++",
"X      XXXXXOOOOOO           XXXXXooooooOOOOO+++++++++++OOOOOO           @@@@@@@@@@@XXXXXXXXXXXOOOOO      OOOOO++++++@@@@@@@@@@@     XXXXXX                ++++++     XXXXXXXXXXXXXXXXXXXXXX           OOOOOO...........................$$$$$$+++++######@@@@@@@@@@@ooooo      oooooXXXXXX     ooooooooooooooooo+++++                 +++++++++++",
"XooooooOOOOOOOOOOOXXXXX%%%%%%XXXXX      +++++      +++++OOOOOO           @@@@@@@@@@@XXXXXoooooo           OOOOO      @@@@@@@@@@@     XXXXXXXXXXX           XXXXXXOOOOOOOOOOOXXXXXXXXXXXXXXXX           OOOOOO+++++...........++++++$$$$$@@@@@@$$$$$$$$$$$@@@@@@@@@@@oooooXXXXXXXXXXXXXXXXXooooooooooooooooooooooOOOOO++++++     +++++++++++######",
"XooooooOOOOOOOOOOOXXXXX%%%%%%XXXXX      +++++      +++++OOOOOO           @@@@@@@@@@@XXXXXoooooo           OOOOO      @@@@@@@@@@@     XXXXXXXXXXX           XXXXXXOOOOOOOOOOOXXXXXXXXXXXXXXXX           OOOOOO+++++...........++++++$$$$$@@@@@@$$$$$$$$$$$@@@@@@@@@@@oooooXXXXXXXXXXXXXXXXXooooooooooooooooooooooOOOOO++++++     +++++++++++######",
"XooooooOOOOOOOOOOOXXXXX%%%%%%XXXXX      +++++      +++++OOOOOO           @@@@@@@@@@@XXXXXoooooo           OOOOO      @@@@@@@@@@@     XXXXXXXXXXX           XXXXXXOOOOOOOOOOOXXXXXXXXXXXXXXXX           OOOOOO+++++...........++++++$$$$$@@@@@@$$$$$$$$$$$@@@@@@@@@@@oooooXXXXXXXXXXXXXXXXXooooooooooooooooooooooOOOOO++++++     +++++++++++######",
"XooooooOOOOOOOOOOOXXXXX%%%%%%XXXXX      +++++      +++++OOOOOO           @@@@@@@@@@@XXXXXoooooo           OOOOO      @@@@@@@@@@@     XXXXXXXXXXX           XXXXXXOOOOOOOOOOOXXXXXXXXXXXXXXXX           OOOOOO+++++...........++++++$$$$$@@@@@@$$$$$$$$$$$@@@@@@@@@@@oooooXXXXXXXXXXXXXXXXXooooooooooooooooooooooOOOOO++++++     +++++++++++######",
"XooooooOOOOOOOOOOOXXXXX%%%%%%XXXXX      +++++      +++++OOOOOO           @@@@@@@@@@@XXXXXoooooo           OOOOO      @@@@@@@@@@@     XXXXXXXXXXX           XXXXXXOOOOOOOOOOOXXXXXXXXXXXXXXXX           OOOOOO+++++...........++++++$$$$$@@@@@@$$$$$$$$$$$@@@@@@@@@@@oooooXXXXXXXXXXXXXXXXXooooooooooooooooooooooOOOOO++++++     +++++++++++######",
"X      XXXXX      %%%%%&&&&&&%%%%%OOOOOOOOOOO      OOOOO+++++++++++OOOOOO@@@@@@@@@@@XXXXXoooooo     ++++++     ++++++@@@@@@@@@@@           XXXXXOOOOOOOOOOOOOOOOO+++++++++++OOOOO                 OOOOO++++++++++++++++++++++...........$$$$$$@@@@@$$$$$$@@@@@@@@@@@oooooOOOOOOXXXXXOOOOOOOOOOOooooooooooooooooo           OOOOO++++++#####......",
"X      XXXXX      %%%%%&&&&&&%%%%%OOOOOOOOOOO      OOOOO+++++++++++OOOOOO@@@@@@@@@@@XXXXXoooooo     ++++++     ++++++@@@@@@@@@@@           XXXXXOOOOOOOOOOOOOOOOO+++++++++++OOOOO                 OOOOO++++++++++++++++++++++...........$$$$$$@@@@@$$$$$$@@@@@@@@@@@oooooOOOOOOXXXXXOOOOOOOOOOOooooooooooooooooo           OOOOO++++++#####......",
"X      XXXXX      %%%%%&&&&&&%%%%%OOOOOOOOOOO      OOOOO+++++++++++OOOOOO@@@@@@@@@@@XXXXXoooooo     ++++++     ++++++@@@@@@@@@@@           XXXXXOOOOOOOOOOOOOOOOO+++++++++++OOOOO                 OOOOO++++++++++++++++++++++...........$$$$$$@@@@@$$$$$$@@@@@@@@@@@oooooOOOOOOXXXXXOOOOOOOOOOOooooooooooooooooo           OOOOO++++++#####......",
"X      XXXXX      %%%%%&&&&&&%%%%%OOOOOOOOOOO      OOOOO+++++++++++OOOOOO@@@@@@@@@@@XXXXXoooooo     ++++++     ++++++@@@@@@@@@@@           XXXXXOOOOOOOOOOOOOOOOO+++++++++++OOOOO                 OOOOO++++++++++++++++++++++...........$$$$$$@@@@@$$$$$$@@@@@@@@@@@oooooOOOOOOXXXXXOOOOOOOOOOOooooooooooooooooo           OOOOO++++++#####......",
"X      XXXXX      %%%%%&&&&&&%%%%%OOOOOOOOOOO      OOOOO+++++++++++OOOOOO@@@@@@@@@@@XXXXXoooooo     ++++++     ++++++@@@@@@@@@@@           XXXXXOOOOOOOOOOOOOOOOO+++++++++++OOOOO                 OOOOO++++++++++++++++++++++...........$$$$$$@@@@@$$$$$$@@@@@@@@@@@oooooOOOOOOXXXXXOOOOOOOOOOOooooooooooooooooo           OOOOO++++++#####......",
"X      XXXXX      %%%%%&&&&&&%%%%%OOOOOOOOOOO      OOOOO+++++++++++OOOOOO@@@@@@@@@@@XXXXXoooooo     ++++++     ++++++@@@@@@@@@@@           XXXXXOOOOOOOOOOOOOOOOO+++++++++++OOOOO                 OOOOO++++++++++++++++++++++...........$$$$$$@@@@@$$$$$$@@@@@@@@@@@oooooOOOOOOXXXXXOOOOOOOOOOOooooooooooooooooo           OOOOO++++++#####......",
"XooooooXXXXXooooooXXXXX%%%%%%XXXXX      +++++OOOOOO     +++++++++++OOOOOO@@@@@@@@@@@XXXXX      ooooooooooo+++++++++++@@@@@@@@@@@           XXXXX      OOOOOOOOOOO++++++++++++++++OOOOOOOOOOOOOOOOO...........+++++......+++++++++++$$$$$$$$$$$$$$$$@@@@@@@@@@@@@@@@@oooooXXXXXXooooo+++++++++++OOOOOO                OOOOOOOOOOO++++++.....######",
"XooooooXXXXXooooooXXXXX%%%%%%XXXXX      +++++OOOOOO     +++++++++++OOOOOO@@@@@@@@@@@XXXXX      ooooooooooo+++++++++++@@@@@@@@@@@           XXXXX      OOOOOOOOOOO++++++++++++++++OOOOOOOOOOOOOOOOO...........+++++......+++++++++++$$$$$$$$$$$$$$$$@@@@@@@@@@@@@@@@@oooooXXXXXXooooo+++++++++++OOOOOO                OOOOOOOOOOO++++++.....######",
"XooooooXXXXXooooooXXXXX%%%%%%XXXXX      +++++OOOOOO     +++++++++++OOOOOO@@@@@@@@@@@XXXXX      ooooooooooo+++++++++++@@@@@@@@@@@           XXXXX      OOOOOOOOOOO++++++++++++++++OOOOOOOOOOOOOOOOO...........+++++......+++++++++++$$$$$$$$$$$$$$$$@@@@@@@@@@@@@@@@@oooooXXXXXXooooo+++++++++++OOOOOO                OOOOOOOOOOO++++++.....######",
"XooooooXXXXXooooooXXXXX%%%%%%XXXXX      +++++OOOOOO     +++++++++++OOOOOO@@@@@@@@@@@XXXXX      ooooooooooo+++++++++++@@@@@@@@@@@           XXXXX      OOOOOOOOOOO++++++++++++++++OOOOOOOOOOOOOOOOO...........+++++......+++++++++++$$$$$$$$$$$$$$$$@@@@@@@@@@@@@@@@@oooooXXXXXXooooo+++++++++++OOOOOO                OOOOOOOOOOO++++++.....######",
"XooooooXXXXXooooooXXXXX%%%%%%XXXXX      +++++OOOOOO     +++++++++++OOOOOO@@@@@@@@@@@XXXXX      ooooooooooo+++++++++++@@@@@@@@@@@           XXXXX      OOOOOOOOOOO++++++++++++++++OOOOOOOOOOOOOOOOO...........+++++......+++++++++++$$$$$$$$$$$$$$$$@@@@@@@@@@@@@@@@@oooooXXXXXXooooo+++++++++++OOOOOO                OOOOOOOOOOO++++++.....######",
"X      XXXXXoooooooooooooooooOOOOO++++++++++++++++++++++OOOOOO+++++######@@@@@@@@@@@XXXXXXXXXXXoooooOOOOOOOOOOO++++++@@@@@@@@@@@     ++++++XXXXXXXXXXXOOOOOOOOOOO++++++++++++++++++++++++++++++++++++++...........++++++...........$$$$$@@@@@@$$$$$@@@@@@@@@@@@@@@@@ooooooooooo     OOOOOO+++++++++++     OOOOOO++++++++++++++++...........######",
"X      XXXXXoooooooooooooooooOOOOO++++++++++++++++++++++OOOOOO+++++######@@@@@@@@@@@XXXXXXXXXXXoooooOOOOOOOOOOO++++++@@@@@@@@@@@     ++++++XXXXXXXXXXXOOOOOOOOOOO++++++++++++++++++++++++++++++++++++++...........++++++...........$$$$$@@@@@@$$$$$@@@@@@@@@@@@@@@@@ooooooooooo     OOOOOO+++++++++++     OOOOOO++++++++++++++++...........######",
"X      XXXXXoooooooooooooooooOOOOO++++++++++++++++++++++OOOOOO+++++######@@@@@@@@@@@XXXXXXXXXXXoooooOOOOOOOOOOO++++++@@@@@@@@@@@     ++++++XXXXXXXXXXXOOOOOOOOOOO++++++++++++++++++++++++++++++++++++++...........++++++...........$$$$$@@@@@@$$$$$@@@@@@@@@@@@@@@@@ooooooooooo     OOOOOO+++++++++++     OOOOOO++++++++++++++++...........######",
"X      XXXXXoooooooooooooooooOOOOO++++++++++++++++++++++OOOOOO+++++######@@@@@@@@@@@XXXXXXXXXXXoooooOOOOOOOOOOO++++++@@@@@@@@@@@     ++++++XXXXXXXXXXXOOOOOOOOOOO++++++++++++++++++++++++++++++++++++++...........++++++...........$$$$$@@@@@@$$$$$@@@@@@@@@@@@@@@@@ooooooooooo     OOOOOO+++++++++++     OOOOOO++++++++++++++++...........######",
"X      XXXXXoooooooooooooooooOOOOO++++++++++++++++++++++OOOOOO+++++######@@@@@@@@@@@XXXXXXXXXXXoooooOOOOOOOOOOO++++++@@@@@@@@@@@     ++++++XXXXXXXXXXXOOOOOOOOOOO++++++++++++++++++++++++++++++++++++++...........++++++...........$$$$$@@@@@@$$$$$@@@@@@@@@@@@@@@@@ooooooooooo     OOOOOO+++++++++++     OOOOOO++++++++++++++++...........######",
"X      XXXXXoooooooooooooooooOOOOO++++++++++++++++++++++OOOOOO+++++######@@@@@@@@@@@XXXXXXXXXXXoooooOOOOOOOOOOO++++++@@@@@@@@@@@     ++++++XXXXXXXXXXXOOOOOOOOOOO++++++++++++++++++++++++++++++++++++++...........++++++...........$$$$$@@@@@@$$$$$@@@@@@@@@@@@@@@@@ooooooooooo     OOOOOO+++++++++++     OOOOOO++++++++++++++++...........######",
" XXXXXXooooooooooo     OOOOOO+++++++++++     OOOOOO++++++++++++++++######@@@@@@@@@@@XXXXXoooooo     OOOOOOOOOOOOOOOOO@@@@@@@@@@@     XXXXXX+++++      XXXXX      +++++++++++++++++++++++++++++++++...........+++++......+++++......$$$$$$$$$$$@@@@@@@@@@@@@@@@@@@@@@oooooooooooOOOOO      +++++++++++     +++++++++++++++++OOOOOOOOOOO...........",
" XXXXXXooooooooooo     OOOOOO+++++++++++     OOOOOO++++++++++++++++######@@@@@@@@@@@XXXXXoooooo     OOOOOOOOOOOOOOOOO@@@@@@@@@@@     XXXXXX+++++      XXXXX      +++++++++++++++++++++++++++++++++...........+++++......+++++......$$$$$$$$$$$@@@@@@@@@@@@@@@@@@@@@@oooooooooooOOOOO      +++++++++++     +++++++++++++++++OOOOOOOOOOO...........",
" XXXXXXooooooooooo     OOOOOO+++++++++++     OOOOOO++++++++++++++++######@@@@@@@@@@@XXXXXoooooo     OOOOOOOOOOOOOOOOO@@@@@@@@@@@     XXXXXX+++++      XXXXX      +++++++++++++++++++++++++++++++++...........+++++......+++++......$$$$$$$$$$$@@@@@@@@@@@@@@@@@@@@@@oooooooooooOOOOO      +++++++++++     +++++++++++++++++OOOOOOOOOOO...........",
" XXXXXXooooooooooo     OOOOOO+++++++++++     OOOOOO++++++++++++++++######@@@@@@@@@@@XXXXXoooooo     OOOOOOOOOOOOOOOOO@@@@@@@@@@@     XXXXXX+++++      XXXXX      +++++++++++++++++++++++++++++++++...........+++++......+++++......$$$$$$$$$$$@@@@@@@@@@@@@@@@@@@@@@oooooooooooOOOOO      +++++++++++     +++++++++++++++++OOOOOOOOOOO...........",
" XXXXXXooooooooooo     OOOOOO+++++++++++     OOOOOO++++++++++++++++######@@@@@@@@@@@XXXXXoooooo     OOOOOOOOOOOOOOOOO@@@@@@@@@@@     XXXXXX+++++      XXXXX      +++++++++++++++++++++++++++++++++...........+++++......+++++......$$$$$$$$$$$@@@@@@@@@@@@@@@@@@@@@@oooooooooooOOOOO      +++++++++++     +++++++++++++++++OOOOOOOOOOO...........",
"X      XXXXXooooooOOOOO++++++ooooo++++++           OOOOO###########......@@@@@@@@@@@XXXXX      XXXXX++++++OOOOOOOOOOO@@@@@@@@@@@     XXXXXX                +++++++++++           +++++++++++......+++++.................................$$$$$$$$$$$@@@@@@@@@@@@@@@@@oooooooooooXXXXXoooooo+++++oooooooooooOOOOOO+++++++++++OOOOOOOOOOOOOOOO......",
"X      XXXXXooooooOOOOO++++++ooooo++++++           OOOOO###########......@@@@@@@@@@@XXXXX      XXXXX++++++OOOOOOOOOOO@@@@@@@@@@@     XXXXXX                +++++++++++           +++++++++++......+++++.................................$$$$$$$$$$$@@@@@@@@@@@@@@@@@oooooooooooXXXXXoooooo+++++oooooooooooOOOOOO+++++++++++OOOOOOOOOOOOOOOO......",
"X      XXXXXooooooOOOOO++++++ooooo++++++           OOOOO###########......@@@@@@@@@@@XXXXX      XXXXX++++++OOOOOOOOOOO@@@@@@@@@@@     XXXXXX                +++++++++++           +++++++++++......+++++.................................$$$$$$$$$$$@@@@@@@@@@@@@@@@@oooooooooooXXXXXoooooo+++++oooooooooooOOOOOO+++++++++++OOOOOOOOOOOOOOOO......",
"X      XXXXXooooooOOOOO++++++ooooo++++++           OOOOO###########......@@@@@@@@@@@XXXXX      XXXXX++++++OOOOOOOOOOO@@@@@@@@@@@     XXXXXX                +++++++++++           +++++++++++......+++++.................................$$$$$$$$$$$@@@@@@@@@@@@@@@@@oooooooooooXXXXXoooooo+++++oooooooooooOOOOOO+++++++++++OOOOOOOOOOOOOOOO......",
"X      XXXXXooooooOOOOO++++++ooooo++++++           OOOOO###########......@@@@@@@@@@@XXXXX      XXXXX++++++OOOOOOOOOOO@@@@@@@@@@@     XXXXXX                +++++++++++           +++++++++++......+++++.................................$$$$$$$$$$$@@@@@@@@@@@@@@@@@oooooooooooXXXXXoooooo+++++oooooooooooOOOOOO+++++++++++OOOOOOOOOOOOOOOO......",
"X      XXXXXooooooOOOOO++++++ooooo++++++           OOOOO###########......@@@@@@@@@@@XXXXX      XXXXX++++++OOOOOOOOOOO@@@@@@@@@@@     XXXXXX                +++++++++++           +++++++++++......+++++.................................$$$$$$$$$$$@@@@@@@@@@@@@@@@@oooooooooooXXXXXoooooo+++++oooooooooooOOOOOO+++++++++++OOOOOOOOOOOOOOOO......",
"X      XXXXX      OOOOO+++++++++++++++++OOOOO      OOOOO#################@@@@@@@@@@@XXXXXXXXXXX     +++++++++++++++++@@@@@@@@@@@                ++++++++++++++++++++++                 ++++++++++++++++++++++................$$$$$$$$$$$$$$$$$@@@@@$$$$$$@@@@@@@@@@@XXXXXXXXXXXooooo++++++     oooooooooooooooooOOOOO######+++++OOOOOOOOOOO++++++",
"X      XXXXX      OOOOO+++++++++++++++++OOOOO      OOOOO#################@@@@@@@@@@@XXXXXXXXXXX     +++++++++++++++++@@@@@@@@@@@                ++++++++++++++++++++++                 ++++++++++++++++++++++................$$$$$$$$$$$$$$$$$@@@@@$$$$$$@@@@@@@@@@@XXXXXXXXXXXooooo++++++     oooooooooooooooooOOOOO######+++++OOOOOOOOOOO++++++",
"X      XXXXX      OOOOO+++++++++++++++++OOOOO      OOOOO#################@@@@@@@@@@@XXXXXXXXXXX     +++++++++++++++++@@@@@@@@@@@                ++++++++++++++++++++++                 ++++++++++++++++++++++................$$$$$$$$$$$$$$$$$@@@@@$$$$$$@@@@@@@@@@@XXXXXXXXXXXooooo++++++     oooooooooooooooooOOOOO######+++++OOOOOOOOOOO++++++",
"X      XXXXX      OOOOO+++++++++++++++++OOOOO      OOOOO#################@@@@@@@@@@@XXXXXXXXXXX     +++++++++++++++++@@@@@@@@@@@                ++++++++++++++++++++++                 ++++++++++++++++++++++................$$$$$$$$$$$$$$$$$@@@@@$$$$$$@@@@@@@@@@@XXXXXXXXXXXooooo++++++     oooooooooooooooooOOOOO######+++++OOOOOOOOOOO++++++",
"X      XXXXX      OOOOO+++++++++++++++++OOOOO      OOOOO#################@@@@@@@@@@@XXXXXXXXXXX     +++++++++++++++++@@@@@@@@@@@                ++++++++++++++++++++++                 ++++++++++++++++++++++................$$$$$$$$$$$$$$$$$@@@@@$$$$$$@@@@@@@@@@@XXXXXXXXXXXooooo++++++     oooooooooooooooooOOOOO######+++++OOOOOOOOOOO++++++",
"o      OOOOOOOOOOOOOOOO      ++++++++++++++++OOOOOOOOOOO++++++###########@@@@@@@@@@@XXXXXoooooo     +++++++++++......@@@@@@@@@@@     oooooo     +++++++++++XXXXXX     ++++++           ...........++++++++++++++++...........$$$$$$@@@@@$$$$$$$$$$$@@@@@@@@@@@@@@@@@XXXXXoooooo     ++++++           oooooooooooOOOOO#################+++++++++++",
"o      OOOOOOOOOOOOOOOO      ++++++++++++++++OOOOOOOOOOO++++++###########@@@@@@@@@@@XXXXXoooooo     +++++++++++......@@@@@@@@@@@     oooooo     +++++++++++XXXXXX     ++++++           ...........++++++++++++++++...........$$$$$$@@@@@$$$$$$$$$$$@@@@@@@@@@@@@@@@@XXXXXoooooo     ++++++           oooooooooooOOOOO#################+++++++++++",
"o      OOOOOOOOOOOOOOOO      ++++++++++++++++OOOOOOOOOOO++++++###########@@@@@@@@@@@XXXXXoooooo     +++++++++++......@@@@@@@@@@@     oooooo     +++++++++++XXXXXX     ++++++           ...........++++++++++++++++...........$$$$$$@@@@@$$$$$$$$$$$@@@@@@@@@@@@@@@@@XXXXXoooooo     ++++++           oooooooooooOOOOO#################+++++++++++",
"o      OOOOOOOOOOOOOOOO      ++++++++++++++++OOOOOOOOOOO++++++###########@@@@@@@@@@@XXXXXoooooo     +++++++++++......@@@@@@@@@@@     oooooo     +++++++++++XXXXXX     ++++++           ...........++++++++++++++++...........$$$$$$@@@@@$$$$$$$$$$$@@@@@@@@@@@@@@@@@XXXXXoooooo     ++++++           oooooooooooOOOOO#################+++++++++++",
"o      OOOOOOOOOOOOOOOO      ++++++++++++++++OOOOOOOOOOO++++++###########@@@@@@@@@@@XXXXXoooooo     +++++++++++......@@@@@@@@@@@     oooooo     +++++++++++XXXXXX     ++++++           ...........++++++++++++++++...........$$$$$$@@@@@$$$$$$$$$$$@@@@@@@@@@@@@@@@@XXXXXoooooo     ++++++           oooooooooooOOOOO#################+++++++++++",
"o      OOOOOOOOOOOOOOOO      ++++++++++++++++OOOOOOOOOOO++++++###########@@@@@@@@@@@XXXXXoooooo     +++++++++++......@@@@@@@@@@@     oooooo     +++++++++++XXXXXX     ++++++           ...........++++++++++++++++...........$$$$$$@@@@@$$$$$$$$$$$@@@@@@@@@@@@@@@@@XXXXXoooooo     ++++++           oooooooooooOOOOO#################+++++++++++",
"o      OOOOOOOOOOO+++++++++++     +++++++++++++++++.....++++++...........@@@@@@@@@@@ooooo      OOOOO+++++++++++......@@@@@@@@@@@     ooooooXXXXX++++++XXXXXXXXXXX     ......++++++++++++++++...........+++++++++++.................$$$$$@@@@@@$$$$$$$$$$$@@@@@@@@@@@XXXXXoooooo     XXXXXX           OOOOOOOOOOOOOOOO++++++###########...........",
"o      OOOOOOOOOOO+++++++++++     +++++++++++++++++.....++++++...........@@@@@@@@@@@ooooo      OOOOO+++++++++++......@@@@@@@@@@@     ooooooXXXXX++++++XXXXXXXXXXX     ......++++++++++++++++...........+++++++++++.................$$$$$@@@@@@$$$$$$$$$$$@@@@@@@@@@@XXXXXoooooo     XXXXXX           OOOOOOOOOOOOOOOO++++++###########...........",
"o      OOOOOOOOOOO+++++++++++     +++++++++++++++++.....++++++...........@@@@@@@@@@@ooooo      OOOOO+++++++++++......@@@@@@@@@@@     ooooooXXXXX++++++XXXXXXXXXXX     ......++++++++++++++++...........+++++++++++.................$$$$$@@@@@@$$$$$$$$$$$@@@@@@@@@@@XXXXXoooooo     XXXXXX           OOOOOOOOOOOOOOOO++++++###########...........",
"o      OOOOOOOOOOO+++++++++++     +++++++++++++++++.....++++++...........@@@@@@@@@@@ooooo      OOOOO+++++++++++......@@@@@@@@@@@     ooooooXXXXX++++++XXXXXXXXXXX     ......++++++++++++++++...........+++++++++++.................$$$$$@@@@@@$$$$$$$$$$$@@@@@@@@@@@XXXXXoooooo     XXXXXX           OOOOOOOOOOOOOOOO++++++###########...........",
"o      OOOOOOOOOOO+++++++++++     +++++++++++++++++.....++++++...........@@@@@@@@@@@ooooo      OOOOO+++++++++++......@@@@@@@@@@@     ooooooXXXXX++++++XXXXXXXXXXX     ......++++++++++++++++...........+++++++++++.................$$$$$@@@@@@$$$$$$$$$$$@@@@@@@@@@@XXXXXoooooo     XXXXXX           OOOOOOOOOOOOOOOO++++++###########...........",
"       OOOOO++++++#####++++++.....++++++.....+++++++++++#################@@@@@@@@@@@ooooo      ++++++++++++++++++++++@@@@@@@@@@@           oooooXXXXXX     +++++++++++......+++++......+++++......................$$$$$$$$$$$$$$$$$.....$$$$$$@@@@@$$$$$$@@@@@@@@@@@XXXXXXXXXXXXXXXXOOOOOO     ++++++++++++++++++++++++++++#####++++++###########",
"       OOOOO++++++#####++++++.....++++++.....+++++++++++#################@@@@@@@@@@@ooooo      ++++++++++++++++++++++@@@@@@@@@@@           oooooXXXXXX     +++++++++++......+++++......+++++......................$$$$$$$$$$$$$$$$$.....$$$$$$@@@@@$$$$$$@@@@@@@@@@@XXXXXXXXXXXXXXXXOOOOOO     ++++++++++++++++++++++++++++#####++++++###########",
"       OOOOO++++++#####++++++.....++++++.....+++++++++++#################@@@@@@@@@@@ooooo      ++++++++++++++++++++++@@@@@@@@@@@           oooooXXXXXX     +++++++++++......+++++......+++++......................$$$$$$$$$$$$$$$$$.....$$$$$$@@@@@$$$$$$@@@@@@@@@@@XXXXXXXXXXXXXXXXOOOOOO     ++++++++++++++++++++++++++++#####++++++###########",
"       OOOOO++++++#####++++++.....++++++.....+++++++++++#################@@@@@@@@@@@ooooo      ++++++++++++++++++++++@@@@@@@@@@@           oooooXXXXXX     +++++++++++......+++++......+++++......................$$$$$$$$$$$$$$$$$.....$$$$$$@@@@@$$$$$$@@@@@@@@@@@XXXXXXXXXXXXXXXXOOOOOO     ++++++++++++++++++++++++++++#####++++++###########",
"       OOOOO++++++#####++++++.....++++++.....+++++++++++#################@@@@@@@@@@@ooooo      ++++++++++++++++++++++@@@@@@@@@@@           oooooXXXXXX     +++++++++++......+++++......+++++......................$$$$$$$$$$$$$$$$$.....$$$$$$@@@@@$$$$$$@@@@@@@@@@@XXXXXXXXXXXXXXXXOOOOOO     ++++++++++++++++++++++++++++#####++++++###########",
"       OOOOO++++++#####++++++.....++++++.....+++++++++++#################@@@@@@@@@@@ooooo      ++++++++++++++++++++++@@@@@@@@@@@           oooooXXXXXX     +++++++++++......+++++......+++++......................$$$$$$$$$$$$$$$$$.....$$$$$$@@@@@$$$$$$@@@@@@@@@@@XXXXXXXXXXXXXXXXOOOOOO     ++++++++++++++++++++++++++++#####++++++###########",
" OOOOOOOOOOO++++++###########...........+++++......###########......................     OOOOOO+++++++++++.....++++++...........           +++++      +++++......+++++......................++++++.....++++++$$$$$$$$$$$$$$$$@@@@@@$$$$$......$$$$$.................XXXXX           +++++++++++      ###########.....++++++#####...........######",
" OOOOOOOOOOO++++++###########...........+++++......###########......................     OOOOOO+++++++++++.....++++++...........           +++++      +++++......+++++......................++++++.....++++++$$$$$$$$$$$$$$$$@@@@@@$$$$$......$$$$$.................XXXXX           +++++++++++      ###########.....++++++#####...........######",
" OOOOOOOOOOO++++++###########...........+++++......###########......................     OOOOOO+++++++++++.....++++++...........           +++++      +++++......+++++......................++++++.....++++++$$$$$$$$$$$$$$$$@@@@@@$$$$$......$$$$$.................XXXXX           +++++++++++      ###########.....++++++#####...........######",
" OOOOOOOOOOO++++++###########...........+++++......###########......................     OOOOOO+++++++++++.....++++++...........           +++++      +++++......+++++......................++++++.....++++++$$$$$$$$$$$$$$$$@@@@@@$$$$$......$$$$$.................XXXXX           +++++++++++      ###########.....++++++#####...........######",
" OOOOOOOOOOO++++++###########...........+++++......###########......................     OOOOOO+++++++++++.....++++++...........           +++++      +++++......+++++......................++++++.....++++++$$$$$$$$$$$$$$$$@@@@@@$$$$$......$$$$$.................XXXXX           +++++++++++      ###########.....++++++#####...........######",
"O++++++++++++++++++++++######.....######...........###########.....######***********     +++++++++++...........++++++***********     ++++++++++++++++++++++++++++................++++++......................$$$$$......@@@@@$$$$$$@@@@@$$$$$$+++++++++++***********XXXXX      XXXXX      +++++++++++###########.....++++++################......",
"O++++++++++++++++++++++######.....######...........###########.....######***********     +++++++++++...........++++++***********     ++++++++++++++++++++++++++++................++++++......................$$$$$......@@@@@$$$$$$@@@@@$$$$$$+++++++++++***********XXXXX      XXXXX      +++++++++++###########.....++++++################......",
"O++++++++++++++++++++++######.....######...........###########.....######***********     +++++++++++...........++++++***********     ++++++++++++++++++++++++++++................++++++......................$$$$$......@@@@@$$$$$$@@@@@$$$$$$+++++++++++***********XXXXX      XXXXX      +++++++++++###########.....++++++################......"
};
