/* XPM */
static char *_043dabc545a4953ff45f6b22da6ab1bkpwfYOWTT7JShoHS[] = {
/* columns rows colors chars-per-pixel */
"344 338 19 1 ",
"  c gray22",
". c #060C6D",
"X c #070E79",
"o c #091185",
"O c #2C2C2C",
"+ c #202020",
"@ c #0D16A0",
"# c #111BB8",
"$ c #0F19AC",
"% c black",
"& c #0B1494",
"* c #040756",
"= c #050962",
"- c #131EC3",
"; c #02043E",
": c #1723DB",
"> c #1520CF",
", c #03054A",
"< c #464CF7",
/* pixels */
"  ......XXXXXXXXXXXXXXXXXXXXXXXXXXXXXXXXXXXXXXXXXXXXXXXXXXXXXXXXXXXXXXXXXXXXXXXXXXXXXXXXXXXXXXXXXXXXXXXXXXXXXXXX......           oooooooooooooooooooooooooooooooooooooooooooooooooooooooooooooooooooooooooooooooooooooooooooooooooooooooooooooooooooooooooooooooooooooooooooooooooooooooooo           .....XXXXXXXXXXXXXXXXXXXXXXXXXXXXXXXXXXXXXXX.....O",
"  ......XXXXXXXXXXXXXXXXXXXXXXXXXXXXXXXXXXXXXXXXXXXXXXXXXXXXXXXXXXXXXXXXXXXXXXXXXXXXXXXXXXXXXXXXXXXXXXXXXXXXXXXX......           oooooooooooooooooooooooooooooooooooooooooooooooooooooooooooooooooooooooooooooooooooooooooooooooooooooooooooooooooooooooooooooooooooooooooooooooooooooooooo           .....XXXXXXXXXXXXXXXXXXXXXXXXXXXXXXXXXXXXXXX.....O",
"++@@@@@@@@@@@@@@@@@@@@@@@@@@@@@@@@@@@@@@@@@@@@@@@@@@@@@@@@@@@@@@@@@@@@@@@@@@@@@@@@@@@@@@@@@@@@@@@@@@@@@@@@@@@@@@@@@@@@+++++++++++##########################################################################################################################################################+++++++++++$$$$$$$$$$$$$$$$$$$$$$$$$$$$$$$$$$$$$$$$$$$$$$$$$+",
"++@@@@@@@@@@@@@@@@@@@@@@@@@@@@@@@@@@@@@@@@@@@@@@@@@@@@@@@@@@@@@@@@@@@@@@@@@@@@@@@@@@@@@@@@@@@@@@@@@@@@@@@@@@@@@@@@@@@@+++++++++++##########################################################################################################################################################+++++++++++$$$$$$$$$$$$$$$$$$$$$$$$$$$$$$$$$$$$$$$$$$$$$$$$$+",
"++@@@@@@@@@@@@@@@@@@@@@@@@@@@@@@@@@@@@@@@@@@@@@@@@@@@@@@@@@@@@@@@@@@@@@@@@@@@@@@@@@@@@@@@@@@@@@@@@@@@@@@@@@@@@@@@@@@@@+++++++++++##########################################################################################################################################################+++++++++++$$$$$$$$$$$$$$$$$$$$$$$$$$$$$$$$$$$$$$$$$$$$$$$$$+",
"++@@@@@@@@@@@@@@@@@@@@@@@@@@@@@@@@@@@@@@@@@@@@@@@@@@@@@@@@@@@@@@@@@@@@@@@@@@@@@@@@@@@@@@@@@@@@@@@@@@@@@@@@@@@@@@@@@@@@+++++++++++##########################################################################################################################################################+++++++++++$$$$$$$$$$$$$$$$$$$$$$$$$$$$$$$$$$$$$$$$$$$$$$$$$+",
"++@@@@@@@@@@@@@@@@@@@@@@@@@@@@@@@@@@@@@@@@@@@@@@@@@@@@@@@@@@@@@@@@@@@@@@@@@@@@@@@@@@@@@@@@@@@@@@@@@@@@@@@@@@@@@@@@@@@@+++++++++++##########################################################################################################################################################+++++++++++$$$$$$$$$$$$$$$$$$$$$$$$$$$$$$$$$$$$$$$$$$$$$$$$$+",
"%%@@@@@@@@@@@@@@@@@ooooo@@@@@@XXXXX@@@@@@@@@@@&&&&&&XXXXX&&&&&&&&&&&XXXXXX&&&&&&&&&&&XXXXX@@@@@@XXXXX...........******%%%%%++++++#####@@@@@@#####$$$$$$XXXXX@@@@@@#####&&&&&&...........&&&&&oooooo@@@@@@@@@@@ooooo......ooooo@@@@@@#####@@@@@@ooooo&&&&&&@@@@@###########@@@@@@&&&&&......%%%%%++++++$$$$$######@@@@@&&&&&&@@@@@$$$$$$$$$$$&&&&&&XXXXX%",
"%%@@@@@@@@@@@@@@@@@ooooo@@@@@@XXXXX@@@@@@@@@@@&&&&&&XXXXX&&&&&&&&&&&XXXXXX&&&&&&&&&&&XXXXX@@@@@@XXXXX...........******%%%%%++++++#####@@@@@@#####$$$$$$XXXXX@@@@@@#####&&&&&&...........&&&&&oooooo@@@@@@@@@@@ooooo......ooooo@@@@@@#####@@@@@@ooooo&&&&&&@@@@@###########@@@@@@&&&&&......%%%%%++++++$$$$$######@@@@@&&&&&&@@@@@$$$$$$$$$$$&&&&&&XXXXX%",
"%%@@@@@@@@@@@@@@@@@ooooo@@@@@@XXXXX@@@@@@@@@@@&&&&&&XXXXX&&&&&&&&&&&XXXXXX&&&&&&&&&&&XXXXX@@@@@@XXXXX...........******%%%%%++++++#####@@@@@@#####$$$$$$XXXXX@@@@@@#####&&&&&&...........&&&&&oooooo@@@@@@@@@@@ooooo......ooooo@@@@@@#####@@@@@@ooooo&&&&&&@@@@@###########@@@@@@&&&&&......%%%%%++++++$$$$$######@@@@@&&&&&&@@@@@$$$$$$$$$$$&&&&&&XXXXX%",
"%%@@@@@@@@@@@@@@@@@ooooo@@@@@@XXXXX@@@@@@@@@@@&&&&&&XXXXX&&&&&&&&&&&XXXXXX&&&&&&&&&&&XXXXX@@@@@@XXXXX...........******%%%%%++++++#####@@@@@@#####$$$$$$XXXXX@@@@@@#####&&&&&&...........&&&&&oooooo@@@@@@@@@@@ooooo......ooooo@@@@@@#####@@@@@@ooooo&&&&&&@@@@@###########@@@@@@&&&&&......%%%%%++++++$$$$$######@@@@@&&&&&&@@@@@$$$$$$$$$$$&&&&&&XXXXX%",
"%%@@@@@@@@@@@@@@@@@ooooo@@@@@@XXXXX@@@@@@@@@@@&&&&&&XXXXX&&&&&&&&&&&XXXXXX&&&&&&&&&&&XXXXX@@@@@@XXXXX...........******%%%%%++++++#####@@@@@@#####$$$$$$XXXXX@@@@@@#####&&&&&&...........&&&&&oooooo@@@@@@@@@@@ooooo......ooooo@@@@@@#####@@@@@@ooooo&&&&&&@@@@@###########@@@@@@&&&&&......%%%%%++++++$$$$$######@@@@@&&&&&&@@@@@$$$$$$$$$$$&&&&&&XXXXX%",
"%%@@@@@@@@@@@@@@@@@ooooo@@@@@@XXXXX@@@@@@@@@@@&&&&&&XXXXX&&&&&&&&&&&XXXXXX&&&&&&&&&&&XXXXX@@@@@@XXXXX...........******%%%%%++++++#####@@@@@@#####$$$$$$XXXXX@@@@@@#####&&&&&&...........&&&&&oooooo@@@@@@@@@@@ooooo......ooooo@@@@@@#####@@@@@@ooooo&&&&&&@@@@@###########@@@@@@&&&&&......%%%%%++++++$$$$$######@@@@@&&&&&&@@@@@$$$$$$$$$$$&&&&&&XXXXX%",
"%%@@@@@@&&&&&XXXXXXooooo&&&&&&&&&&&&&&&&&XXXXXXXXXXX@@@@@&&&&&&@@@@@======&&&&&&&&&&&XXXXX......XXXXXXXXXXX.....======%%%%%++++++###########@@@@@&&&&&&&&&&&&&&&&&.....&&&&&&*****......***********XXXXX@@@@@@@@@@@======...........=====...........******.....ooooooooooo......=====......%%%%%++++++$$$$$$$$$$$@@@@@@@@@@@XXXXX&&&&&&@@@@@@@@@@@*****%",
"%%@@@@@@&&&&&XXXXXXooooo&&&&&&&&&&&&&&&&&XXXXXXXXXXX@@@@@&&&&&&@@@@@======&&&&&&&&&&&XXXXX......XXXXXXXXXXX.....======%%%%%++++++###########@@@@@&&&&&&&&&&&&&&&&&.....&&&&&&*****......***********XXXXX@@@@@@@@@@@======...........=====...........******.....ooooooooooo......=====......%%%%%++++++$$$$$$$$$$$@@@@@@@@@@@XXXXX&&&&&&@@@@@@@@@@@*****%",
"%%@@@@@@&&&&&XXXXXXooooo&&&&&&&&&&&&&&&&&XXXXXXXXXXX@@@@@&&&&&&@@@@@======&&&&&&&&&&&XXXXX......XXXXXXXXXXX.....======%%%%%++++++###########@@@@@&&&&&&&&&&&&&&&&&.....&&&&&&*****......***********XXXXX@@@@@@@@@@@======...........=====...........******.....ooooooooooo......=====......%%%%%++++++$$$$$$$$$$$@@@@@@@@@@@XXXXX&&&&&&@@@@@@@@@@@*****%",
"%%@@@@@@&&&&&XXXXXXooooo&&&&&&&&&&&&&&&&&XXXXXXXXXXX@@@@@&&&&&&@@@@@======&&&&&&&&&&&XXXXX......XXXXXXXXXXX.....======%%%%%++++++###########@@@@@&&&&&&&&&&&&&&&&&.....&&&&&&*****......***********XXXXX@@@@@@@@@@@======...........=====...........******.....ooooooooooo......=====......%%%%%++++++$$$$$$$$$$$@@@@@@@@@@@XXXXX&&&&&&@@@@@@@@@@@*****%",
"%%@@@@@@&&&&&XXXXXXooooo&&&&&&&&&&&&&&&&&XXXXXXXXXXX@@@@@&&&&&&@@@@@======&&&&&&&&&&&XXXXX......XXXXXXXXXXX.....======%%%%%++++++###########@@@@@&&&&&&&&&&&&&&&&&.....&&&&&&*****......***********XXXXX@@@@@@@@@@@======...........=====...........******.....ooooooooooo......=====......%%%%%++++++$$$$$$$$$$$@@@@@@@@@@@XXXXX&&&&&&@@@@@@@@@@@*****%",
"%%@@@@@@ooooo@@@@@@.....-----------&&&&&&XXXXXXXXXXXXXXXX&&&&&&oooooooooooXXXXX======*****XXXXXX.....***********======%%%%%++++++%%%%%%%%%%%%%%%%%%%%%%%%%%%%%%%%%%%%%%%%%%%%%%%%%%%%%%%%%%%%%%%%%%%%%%%%%%%%%%%%%%%%%%%%%%%%%%%%%%%%%%%%%%%%%%%%%%%%%%%%%%%%%%%%%%%%%%%%%%%%%%%%%%%%%%%%%%%%%%%++++++$$$$$@@@@@@$$$$$###########$$$$$$@@@@@XXXXXXXXXXX%",
"%%@@@@@@ooooo@@@@@@.....-----------&&&&&&XXXXXXXXXXXXXXXX&&&&&&oooooooooooXXXXX======*****XXXXXX.....***********======%%%%%++++++%%%%%%%%%%%%%%%%%%%%%%%%%%%%%%%%%%%%%%%%%%%%%%%%%%%%%%%%%%%%%%%%%%%%%%%%%%%%%%%%%%%%%%%%%%%%%%%%%%%%%%%%%%%%%%%%%%%%%%%%%%%%%%%%%%%%%%%%%%%%%%%%%%%%%%%%%%%%%%%++++++$$$$$@@@@@@$$$$$###########$$$$$$@@@@@XXXXXXXXXXX%",
"%%@@@@@@ooooo@@@@@@.....-----------&&&&&&XXXXXXXXXXXXXXXX&&&&&&oooooooooooXXXXX======*****XXXXXX.....***********======%%%%%++++++%%%%%%%%%%%%%%%%%%%%%%%%%%%%%%%%%%%%%%%%%%%%%%%%%%%%%%%%%%%%%%%%%%%%%%%%%%%%%%%%%%%%%%%%%%%%%%%%%%%%%%%%%%%%%%%%%%%%%%%%%%%%%%%%%%%%%%%%%%%%%%%%%%%%%%%%%%%%%%%++++++$$$$$@@@@@@$$$$$###########$$$$$$@@@@@XXXXXXXXXXX%",
"%%@@@@@@ooooo@@@@@@.....-----------&&&&&&XXXXXXXXXXXXXXXX&&&&&&oooooooooooXXXXX======*****XXXXXX.....***********======%%%%%++++++%%%%%%%%%%%%%%%%%%%%%%%%%%%%%%%%%%%%%%%%%%%%%%%%%%%%%%%%%%%%%%%%%%%%%%%%%%%%%%%%%%%%%%%%%%%%%%%%%%%%%%%%%%%%%%%%%%%%%%%%%%%%%%%%%%%%%%%%%%%%%%%%%%%%%%%%%%%%%%%++++++$$$$$@@@@@@$$$$$###########$$$$$$@@@@@XXXXXXXXXXX%",
"%%@@@@@@ooooo@@@@@@.....-----------&&&&&&XXXXXXXXXXXXXXXX&&&&&&oooooooooooXXXXX======*****XXXXXX.....***********======%%%%%++++++%%%%%%%%%%%%%%%%%%%%%%%%%%%%%%%%%%%%%%%%%%%%%%%%%%%%%%%%%%%%%%%%%%%%%%%%%%%%%%%%%%%%%%%%%%%%%%%%%%%%%%%%%%%%%%%%%%%%%%%%%%%%%%%%%%%%%%%%%%%%%%%%%%%%%%%%%%%%%%%++++++$$$$$@@@@@@$$$$$###########$$$$$$@@@@@XXXXXXXXXXX%",
"%%@@@@@@ooooo@@@@@@.....-----------&&&&&&XXXXXXXXXXXXXXXX&&&&&&oooooooooooXXXXX======*****XXXXXX.....***********======%%%%%++++++%%%%%%%%%%%%%%%%%%%%%%%%%%%%%%%%%%%%%%%%%%%%%%%%%%%%%%%%%%%%%%%%%%%%%%%%%%%%%%%%%%%%%%%%%%%%%%%%%%%%%%%%%%%%%%%%%%%%%%%%%%%%%%%%%%%%%%%%%%%%%%%%%%%%%%%%%%%%%%%++++++$$$$$@@@@@@$$$$$###########$$$$$$@@@@@XXXXXXXXXXX%",
"%%@@@@@@oooooXXXXXX@@@@@-----------======XXXXXXXXXXXXXXXX@@@@@@&&&&&&&&&&&&&&&&oooooo...........XXXXX***********;;;;;;%%%%%++++++@@@@@@@@@@@@@@@@@@@@@@@@@@@@@@@@@@@@@@@@@@@@@@@@@@@@@@@@@@@@@@@@@@@@@@@@@@@@@@@@@@@@@@@@@@@@@@@@@@@@@@@@+++++++++++++++++++++++++++++++++++++++++++++++++++++++++++++$$$$$######@@@@@$$$$$$@@@@@XXXXXXXXXXX======*****%",
"%%@@@@@@oooooXXXXXX@@@@@-----------======XXXXXXXXXXXXXXXX@@@@@@&&&&&&&&&&&&&&&&oooooo...........XXXXX***********;;;;;;%%%%%++++++@@@@@@@@@@@@@@@@@@@@@@@@@@@@@@@@@@@@@@@@@@@@@@@@@@@@@@@@@@@@@@@@@@@@@@@@@@@@@@@@@@@@@@@@@@@@@@@@@@@@@@@@+++++++++++++++++++++++++++++++++++++++++++++++++++++++++++++$$$$$######@@@@@$$$$$$@@@@@XXXXXXXXXXX======*****%",
"%%@@@@@@oooooXXXXXX@@@@@-----------======XXXXXXXXXXXXXXXX@@@@@@&&&&&&&&&&&&&&&&oooooo...........XXXXX***********;;;;;;%%%%%++++++@@@@@@@@@@@@@@@@@@@@@@@@@@@@@@@@@@@@@@@@@@@@@@@@@@@@@@@@@@@@@@@@@@@@@@@@@@@@@@@@@@@@@@@@@@@@@@@@@@@@@@@@+++++++++++++++++++++++++++++++++++++++++++++++++++++++++++++$$$$$######@@@@@$$$$$$@@@@@XXXXXXXXXXX======*****%",
"%%@@@@@@oooooXXXXXX@@@@@-----------======XXXXXXXXXXXXXXXX@@@@@@&&&&&&&&&&&&&&&&oooooo...........XXXXX***********;;;;;;%%%%%++++++@@@@@@@@@@@@@@@@@@@@@@@@@@@@@@@@@@@@@@@@@@@@@@@@@@@@@@@@@@@@@@@@@@@@@@@@@@@@@@@@@@@@@@@@@@@@@@@@@@@@@@@@+++++++++++++++++++++++++++++++++++++++++++++++++++++++++++++$$$$$######@@@@@$$$$$$@@@@@XXXXXXXXXXX======*****%",
"%%@@@@@@oooooXXXXXX@@@@@-----------======XXXXXXXXXXXXXXXX@@@@@@&&&&&&&&&&&&&&&&oooooo...........XXXXX***********;;;;;;%%%%%++++++@@@@@@@@@@@@@@@@@@@@@@@@@@@@@@@@@@@@@@@@@@@@@@@@@@@@@@@@@@@@@@@@@@@@@@@@@@@@@@@@@@@@@@@@@@@@@@@@@@@@@@@@+++++++++++++++++++++++++++++++++++++++++++++++++++++++++++++$$$$$######@@@@@$$$$$$@@@@@XXXXXXXXXXX======*****%",
"%%@@@@@@&&&&&&&&&&&$$$$$$$$$$$@@@@@@@@@@@@@@@@&&&&&&@@@@@@@@@@@@@@@@&&&&&&&&&&&...........======*****======.....======%%%%%++++++@@@@@#################$$$$$@@@@@@&&&&&&&&&&&#####&&&&&&&&&&&$$$$$$&&&&&&&&&&&$$$$$###########@@@@@@@@@@@%%%%%%+++++@@@@@@@@@@@@@@@@@@@@@@&&&&&&&&&&&======+++++++++++$$$$$&&&&&&&&&&&@@@@@@XXXXXooooooooooo===========%",
"%%@@@@@@&&&&&&&&&&&$$$$$$$$$$$@@@@@@@@@@@@@@@@&&&&&&@@@@@@@@@@@@@@@@&&&&&&&&&&&...........======*****======.....======%%%%%++++++@@@@@#################$$$$$@@@@@@&&&&&&&&&&&#####&&&&&&&&&&&$$$$$$&&&&&&&&&&&$$$$$###########@@@@@@@@@@@%%%%%%+++++@@@@@@@@@@@@@@@@@@@@@@&&&&&&&&&&&======+++++++++++$$$$$&&&&&&&&&&&@@@@@@XXXXXooooooooooo===========%",
"%%@@@@@@&&&&&&&&&&&$$$$$$$$$$$@@@@@@@@@@@@@@@@&&&&&&@@@@@@@@@@@@@@@@&&&&&&&&&&&...........======*****======.....======%%%%%++++++@@@@@#################$$$$$@@@@@@&&&&&&&&&&&#####&&&&&&&&&&&$$$$$$&&&&&&&&&&&$$$$$###########@@@@@@@@@@@%%%%%%+++++@@@@@@@@@@@@@@@@@@@@@@&&&&&&&&&&&======+++++++++++$$$$$&&&&&&&&&&&@@@@@@XXXXXooooooooooo===========%",
"%%@@@@@@&&&&&&&&&&&$$$$$$$$$$$@@@@@@@@@@@@@@@@&&&&&&@@@@@@@@@@@@@@@@&&&&&&&&&&&...........======*****======.....======%%%%%++++++@@@@@#################$$$$$@@@@@@&&&&&&&&&&&#####&&&&&&&&&&&$$$$$$&&&&&&&&&&&$$$$$###########@@@@@@@@@@@%%%%%%+++++@@@@@@@@@@@@@@@@@@@@@@&&&&&&&&&&&======+++++++++++$$$$$&&&&&&&&&&&@@@@@@XXXXXooooooooooo===========%",
"%%@@@@@@&&&&&&&&&&&$$$$$$$$$$$@@@@@@@@@@@@@@@@&&&&&&@@@@@@@@@@@@@@@@&&&&&&&&&&&...........======*****======.....======%%%%%++++++@@@@@#################$$$$$@@@@@@&&&&&&&&&&&#####&&&&&&&&&&&$$$$$$&&&&&&&&&&&$$$$$###########@@@@@@@@@@@%%%%%%+++++@@@@@@@@@@@@@@@@@@@@@@&&&&&&&&&&&======+++++++++++$$$$$&&&&&&&&&&&@@@@@@XXXXXooooooooooo===========%",
"%%@@@@@@&&&&&&&&&&&$$$$$$$$$$$@@@@@@@@@@@@@@@@&&&&&&@@@@@@@@@@@@@@@@&&&&&&&&&&&...........======*****======.....======%%%%%++++++@@@@@#################$$$$$@@@@@@&&&&&&&&&&&#####&&&&&&&&&&&$$$$$$&&&&&&&&&&&$$$$$###########@@@@@@@@@@@%%%%%%+++++@@@@@@@@@@@@@@@@@@@@@@&&&&&&&&&&&======+++++++++++$$$$$&&&&&&&&&&&@@@@@@XXXXXooooooooooo===========%",
"%%@@@@@@@@@@@&&&&&&@@@@@$$$$$$$$$$$@@@@@@&&&&&XXXXXX=====@@@@@@@@@@@&&&&&&oooooooooooXXXXX===========******;;;;;;;;;;;%%%%%++++++@@@@@$$$$$$#####::::::-----$$$$$$@@@@@######@@@@@&&&&&&&&&&&&&&&&&$$$$$$$$$$$@@@@@@@@@@@@@@@@&&&&&&@@@@@%%%%%%+++++@@@@@@&&&&&&&&&&&ooooo&&&&&&XXXXX======%%%%%++++++$$$$$&&&&&&&&&&&@@@@@@.....ooooooooooooooooo=====%",
"%%@@@@@@@@@@@&&&&&&@@@@@$$$$$$$$$$$@@@@@@&&&&&XXXXXX=====@@@@@@@@@@@&&&&&&oooooooooooXXXXX===========******;;;;;;;;;;;%%%%%++++++@@@@@$$$$$$#####::::::-----$$$$$$@@@@@######@@@@@&&&&&&&&&&&&&&&&&$$$$$$$$$$$@@@@@@@@@@@@@@@@&&&&&&@@@@@%%%%%%+++++@@@@@@&&&&&&&&&&&ooooo&&&&&&XXXXX======%%%%%++++++$$$$$&&&&&&&&&&&@@@@@@.....ooooooooooooooooo=====%",
"%%@@@@@@@@@@@&&&&&&@@@@@$$$$$$$$$$$@@@@@@&&&&&XXXXXX=====@@@@@@@@@@@&&&&&&oooooooooooXXXXX===========******;;;;;;;;;;;%%%%%++++++@@@@@$$$$$$#####::::::-----$$$$$$@@@@@######@@@@@&&&&&&&&&&&&&&&&&$$$$$$$$$$$@@@@@@@@@@@@@@@@&&&&&&@@@@@%%%%%%+++++@@@@@@&&&&&&&&&&&ooooo&&&&&&XXXXX======%%%%%++++++$$$$$&&&&&&&&&&&@@@@@@.....ooooooooooooooooo=====%",
"%%@@@@@@@@@@@&&&&&&@@@@@$$$$$$$$$$$@@@@@@&&&&&XXXXXX=====@@@@@@@@@@@&&&&&&oooooooooooXXXXX===========******;;;;;;;;;;;%%%%%++++++@@@@@$$$$$$#####::::::-----$$$$$$@@@@@######@@@@@&&&&&&&&&&&&&&&&&$$$$$$$$$$$@@@@@@@@@@@@@@@@&&&&&&@@@@@%%%%%%+++++@@@@@@&&&&&&&&&&&ooooo&&&&&&XXXXX======%%%%%++++++$$$$$&&&&&&&&&&&@@@@@@.....ooooooooooooooooo=====%",
"%%@@@@@@@@@@@&&&&&&@@@@@$$$$$$$$$$$@@@@@@&&&&&XXXXXX=====@@@@@@@@@@@&&&&&&oooooooooooXXXXX===========******;;;;;;;;;;;%%%%%++++++@@@@@$$$$$$#####::::::-----$$$$$$@@@@@######@@@@@&&&&&&&&&&&&&&&&&$$$$$$$$$$$@@@@@@@@@@@@@@@@&&&&&&@@@@@%%%%%%+++++@@@@@@&&&&&&&&&&&ooooo&&&&&&XXXXX======%%%%%++++++$$$$$&&&&&&&&&&&@@@@@@.....ooooooooooooooooo=====%",
"%%@@@@@@&&&&&XXXXXX&&&&&@@@@@@@@@@@oooooo&&&&&XXXXXX&&&&&...........ooooooooooooooooo.....XXXXXXXXXXX======*****;;;;;;%%%%%++++++@@@@@$$$$$$-----######-----&&&&&&$$$$$@@@@@@@@@@@######&&&&&&&&&&&@@@@@XXXXXX@@@@@XXXXXX&&&&&@@@@@@XXXXX%%%%%%+++++@@@@@@&&&&&&&&&&&&&&&&XXXXXXXXXXX======%%%%%++++++$$$$$######@@@@@&&&&&&@@@@@@@@@@@ooooooooooo;;;;;%",
"%%@@@@@@&&&&&XXXXXX&&&&&@@@@@@@@@@@oooooo&&&&&XXXXXX&&&&&...........ooooooooooooooooo.....XXXXXXXXXXX======*****;;;;;;%%%%%++++++@@@@@$$$$$$-----######-----&&&&&&$$$$$@@@@@@@@@@@######&&&&&&&&&&&@@@@@XXXXXX@@@@@XXXXXX&&&&&@@@@@@XXXXX%%%%%%+++++@@@@@@&&&&&&&&&&&&&&&&XXXXXXXXXXX======%%%%%++++++$$$$$######@@@@@&&&&&&@@@@@@@@@@@ooooooooooo;;;;;%",
"%%@@@@@@&&&&&XXXXXX&&&&&@@@@@@@@@@@oooooo&&&&&XXXXXX&&&&&...........ooooooooooooooooo.....XXXXXXXXXXX======*****;;;;;;%%%%%++++++@@@@@$$$$$$-----######-----&&&&&&$$$$$@@@@@@@@@@@######&&&&&&&&&&&@@@@@XXXXXX@@@@@XXXXXX&&&&&@@@@@@XXXXX%%%%%%+++++@@@@@@&&&&&&&&&&&&&&&&XXXXXXXXXXX======%%%%%++++++$$$$$######@@@@@&&&&&&@@@@@@@@@@@ooooooooooo;;;;;%",
"%%@@@@@@&&&&&XXXXXX&&&&&@@@@@@@@@@@oooooo&&&&&XXXXXX&&&&&...........ooooooooooooooooo.....XXXXXXXXXXX======*****;;;;;;%%%%%++++++@@@@@$$$$$$-----######-----&&&&&&$$$$$@@@@@@@@@@@######&&&&&&&&&&&@@@@@XXXXXX@@@@@XXXXXX&&&&&@@@@@@XXXXX%%%%%%+++++@@@@@@&&&&&&&&&&&&&&&&XXXXXXXXXXX======%%%%%++++++$$$$$######@@@@@&&&&&&@@@@@@@@@@@ooooooooooo;;;;;%",
"%%@@@@@@&&&&&XXXXXX&&&&&@@@@@@@@@@@oooooo&&&&&XXXXXX&&&&&...........ooooooooooooooooo.....XXXXXXXXXXX======*****;;;;;;%%%%%++++++@@@@@$$$$$$-----######-----&&&&&&$$$$$@@@@@@@@@@@######&&&&&&&&&&&@@@@@XXXXXX@@@@@XXXXXX&&&&&@@@@@@XXXXX%%%%%%+++++@@@@@@&&&&&&&&&&&&&&&&XXXXXXXXXXX======%%%%%++++++$$$$$######@@@@@&&&&&&@@@@@@@@@@@ooooooooooo;;;;;%",
"%%@@@@@@&&&&&XXXXXX&&&&&@@@@@@@@@@@oooooo&&&&&XXXXXX&&&&&...........ooooooooooooooooo.....XXXXXXXXXXX======*****;;;;;;%%%%%++++++@@@@@$$$$$$-----######-----&&&&&&$$$$$@@@@@@@@@@@######&&&&&&&&&&&@@@@@XXXXXX@@@@@XXXXXX&&&&&@@@@@@XXXXX%%%%%%+++++@@@@@@&&&&&&&&&&&&&&&&XXXXXXXXXXX======%%%%%++++++$$$$$######@@@@@&&&&&&@@@@@@@@@@@ooooooooooo;;;;;%",
"%%@@@@@@oooooooooooooooo@@@@@@XXXXXXXXXXXXXXXX@@@@@@@@@@@......*****===========......=====XXXXXXXXXXXXXXXXX*****;;;;;;%%%%%++++++@@@@@$$$$$$$$$$$$$$$$$&&&&&&&&&&&&&&&&$$$$$$@@@@@@@@@@@@@@@@@@@@@@&&&&&oooooo=====XXXXXXXXXXXXXXXXX=====%%%%%%+++++@@@@@@@@@@@&&&&&&XXXXXXXXXXX***********%%%%%++++++#####XXXXXXXXXXX&&&&&&@@@@@@@@@@@&&&&&******;;;;;%",
"%%@@@@@@oooooooooooooooo@@@@@@XXXXXXXXXXXXXXXX@@@@@@@@@@@......*****===========......=====XXXXXXXXXXXXXXXXX*****;;;;;;%%%%%++++++@@@@@$$$$$$$$$$$$$$$$$&&&&&&&&&&&&&&&&$$$$$$@@@@@@@@@@@@@@@@@@@@@@&&&&&oooooo=====XXXXXXXXXXXXXXXXX=====%%%%%%+++++@@@@@@@@@@@&&&&&&XXXXXXXXXXX***********%%%%%++++++#####XXXXXXXXXXX&&&&&&@@@@@@@@@@@&&&&&******;;;;;%",
"%%@@@@@@oooooooooooooooo@@@@@@XXXXXXXXXXXXXXXX@@@@@@@@@@@......*****===========......=====XXXXXXXXXXXXXXXXX*****;;;;;;%%%%%++++++@@@@@$$$$$$$$$$$$$$$$$&&&&&&&&&&&&&&&&$$$$$$@@@@@@@@@@@@@@@@@@@@@@&&&&&oooooo=====XXXXXXXXXXXXXXXXX=====%%%%%%+++++@@@@@@@@@@@&&&&&&XXXXXXXXXXX***********%%%%%++++++#####XXXXXXXXXXX&&&&&&@@@@@@@@@@@&&&&&******;;;;;%",
"%%@@@@@@oooooooooooooooo@@@@@@XXXXXXXXXXXXXXXX@@@@@@@@@@@......*****===========......=====XXXXXXXXXXXXXXXXX*****;;;;;;%%%%%++++++@@@@@$$$$$$$$$$$$$$$$$&&&&&&&&&&&&&&&&$$$$$$@@@@@@@@@@@@@@@@@@@@@@&&&&&oooooo=====XXXXXXXXXXXXXXXXX=====%%%%%%+++++@@@@@@@@@@@&&&&&&XXXXXXXXXXX***********%%%%%++++++#####XXXXXXXXXXX&&&&&&@@@@@@@@@@@&&&&&******;;;;;%",
"%%@@@@@@oooooooooooooooo@@@@@@XXXXXXXXXXXXXXXX@@@@@@@@@@@......*****===========......=====XXXXXXXXXXXXXXXXX*****;;;;;;%%%%%++++++@@@@@$$$$$$$$$$$$$$$$$&&&&&&&&&&&&&&&&$$$$$$@@@@@@@@@@@@@@@@@@@@@@&&&&&oooooo=====XXXXXXXXXXXXXXXXX=====%%%%%%+++++@@@@@@@@@@@&&&&&&XXXXXXXXXXX***********%%%%%++++++#####XXXXXXXXXXX&&&&&&@@@@@@@@@@@&&&&&******;;;;;%",
"%%&&&&&&XXXXXoooooo@@@@@ooooooooooo......&&&&&@@@@@@@@@@@...........======*****=================XXXXXXXXXXX*****;;;;;;%%%%%++++++@@@@@######$$$$$$$$$$$$$$$$&&&&&&&&&&&$$$$$$###########@@@@@@@@@@@===========oooooXXXXXXXXXXX======*****%%%%%%+++++@@@@@@@@@@@&&&&&&XXXXX@@@@@@XXXXX******%%%%%++++++#####XXXXXX#####@@@@@@XXXXX&&&&&&&&&&&******;;;;;%",
"%%&&&&&&XXXXXoooooo@@@@@ooooooooooo......&&&&&@@@@@@@@@@@...........======*****=================XXXXXXXXXXX*****;;;;;;%%%%%++++++@@@@@######$$$$$$$$$$$$$$$$&&&&&&&&&&&$$$$$$###########@@@@@@@@@@@===========oooooXXXXXXXXXXX======*****%%%%%%+++++@@@@@@@@@@@&&&&&&XXXXX@@@@@@XXXXX******%%%%%++++++#####XXXXXX#####@@@@@@XXXXX&&&&&&&&&&&******;;;;;%",
"%%&&&&&&XXXXXoooooo@@@@@ooooooooooo......&&&&&@@@@@@@@@@@...........======*****=================XXXXXXXXXXX*****;;;;;;%%%%%++++++@@@@@######$$$$$$$$$$$$$$$$&&&&&&&&&&&$$$$$$###########@@@@@@@@@@@===========oooooXXXXXXXXXXX======*****%%%%%%+++++@@@@@@@@@@@&&&&&&XXXXX@@@@@@XXXXX******%%%%%++++++#####XXXXXX#####@@@@@@XXXXX&&&&&&&&&&&******;;;;;%",
"%%&&&&&&XXXXXoooooo@@@@@ooooooooooo......&&&&&@@@@@@@@@@@...........======*****=================XXXXXXXXXXX*****;;;;;;%%%%%++++++@@@@@######$$$$$$$$$$$$$$$$&&&&&&&&&&&$$$$$$###########@@@@@@@@@@@===========oooooXXXXXXXXXXX======*****%%%%%%+++++@@@@@@@@@@@&&&&&&XXXXX@@@@@@XXXXX******%%%%%++++++#####XXXXXX#####@@@@@@XXXXX&&&&&&&&&&&******;;;;;%",
"%%&&&&&&XXXXXoooooo@@@@@ooooooooooo......&&&&&@@@@@@@@@@@...........======*****=================XXXXXXXXXXX*****;;;;;;%%%%%++++++@@@@@######$$$$$$$$$$$$$$$$&&&&&&&&&&&$$$$$$###########@@@@@@@@@@@===========oooooXXXXXXXXXXX======*****%%%%%%+++++@@@@@@@@@@@&&&&&&XXXXX@@@@@@XXXXX******%%%%%++++++#####XXXXXX#####@@@@@@XXXXX&&&&&&&&&&&******;;;;;%",
"%%&&&&&&XXXXXoooooo@@@@@ooooooooooo......&&&&&@@@@@@@@@@@...........======*****=================XXXXXXXXXXX*****;;;;;;%%%%%++++++@@@@@######$$$$$$$$$$$$$$$$&&&&&&&&&&&$$$$$$###########@@@@@@@@@@@===========oooooXXXXXXXXXXX======*****%%%%%%+++++@@@@@@@@@@@&&&&&&XXXXX@@@@@@XXXXX******%%%%%++++++#####XXXXXX#####@@@@@@XXXXX&&&&&&&&&&&******;;;;;%",
"%%&&&&&&ooooo&&&&&&XXXXXXXXXXX@@@@@oooooo=====XXXXXX*****XXXXXX=====******=====XXXXXX;;;;;******;;;;;;;;;;;=====;;;;;;%%%%%++++++@@@@@######@@@@@@@@@@@$$$$$$$$$$$$$$$$$$$$$$#####$$$$$$$$$$$@@@@@@===========.....@@@@@@===========;;;;;%%%%%%+++++@@@@@@XXXXXoooooo&&&&&XXXXXX***********%%%%%++++++###########XXXXXXXXXXX===========XXXXXXXXXXX;;;;;%",
"%%&&&&&&ooooo&&&&&&XXXXXXXXXXX@@@@@oooooo=====XXXXXX*****XXXXXX=====******=====XXXXXX;;;;;******;;;;;;;;;;;=====;;;;;;%%%%%++++++@@@@@######@@@@@@@@@@@$$$$$$$$$$$$$$$$$$$$$$#####$$$$$$$$$$$@@@@@@===========.....@@@@@@===========;;;;;%%%%%%+++++@@@@@@XXXXXoooooo&&&&&XXXXXX***********%%%%%++++++###########XXXXXXXXXXX===========XXXXXXXXXXX;;;;;%",
"%%&&&&&&ooooo&&&&&&XXXXXXXXXXX@@@@@oooooo=====XXXXXX*****XXXXXX=====******=====XXXXXX;;;;;******;;;;;;;;;;;=====;;;;;;%%%%%++++++@@@@@######@@@@@@@@@@@$$$$$$$$$$$$$$$$$$$$$$#####$$$$$$$$$$$@@@@@@===========.....@@@@@@===========;;;;;%%%%%%+++++@@@@@@XXXXXoooooo&&&&&XXXXXX***********%%%%%++++++###########XXXXXXXXXXX===========XXXXXXXXXXX;;;;;%",
"%%&&&&&&ooooo&&&&&&XXXXXXXXXXX@@@@@oooooo=====XXXXXX*****XXXXXX=====******=====XXXXXX;;;;;******;;;;;;;;;;;=====;;;;;;%%%%%++++++@@@@@######@@@@@@@@@@@$$$$$$$$$$$$$$$$$$$$$$#####$$$$$$$$$$$@@@@@@===========.....@@@@@@===========;;;;;%%%%%%+++++@@@@@@XXXXXoooooo&&&&&XXXXXX***********%%%%%++++++###########XXXXXXXXXXX===========XXXXXXXXXXX;;;;;%",
"%%&&&&&&ooooo&&&&&&XXXXXXXXXXX@@@@@oooooo=====XXXXXX*****XXXXXX=====******=====XXXXXX;;;;;******;;;;;;;;;;;=====;;;;;;%%%%%++++++@@@@@######@@@@@@@@@@@$$$$$$$$$$$$$$$$$$$$$$#####$$$$$$$$$$$@@@@@@===========.....@@@@@@===========;;;;;%%%%%%+++++@@@@@@XXXXXoooooo&&&&&XXXXXX***********%%%%%++++++###########XXXXXXXXXXX===========XXXXXXXXXXX;;;;;%",
"%%&&&&&&XXXXX&&&&&&XXXXX======oooooooooooXXXXX======XXXXX======XXXXX======;;;;;...........;;;;;;;;;;;;;;;;;=====;;;;;;%%%%%++++++@@@@@$$$$$$@@@@@@@@@@@&&&&&######&&&&&&&&&&&@@@@@$$$$$$$$$$$@@@@@@&&&&&&&&&&&XXXXXXXXXXX***********=====%%%%%%+++++@@@@@@oooooooooooooooo...........======%%%%%++++++#####XXXXXX.....======XXXXX======XXXXXXXXXXX;;;;;%",
"%%&&&&&&XXXXX&&&&&&XXXXX======oooooooooooXXXXX======XXXXX======XXXXX======;;;;;...........;;;;;;;;;;;;;;;;;=====;;;;;;%%%%%++++++@@@@@$$$$$$@@@@@@@@@@@&&&&&######&&&&&&&&&&&@@@@@$$$$$$$$$$$@@@@@@&&&&&&&&&&&XXXXXXXXXXX***********=====%%%%%%+++++@@@@@@oooooooooooooooo...........======%%%%%++++++#####XXXXXX.....======XXXXX======XXXXXXXXXXX;;;;;%",
"%%&&&&&&XXXXX&&&&&&XXXXX======oooooooooooXXXXX======XXXXX======XXXXX======;;;;;...........;;;;;;;;;;;;;;;;;=====;;;;;;%%%%%++++++@@@@@$$$$$$@@@@@@@@@@@&&&&&######&&&&&&&&&&&@@@@@$$$$$$$$$$$@@@@@@&&&&&&&&&&&XXXXXXXXXXX***********=====%%%%%%+++++@@@@@@oooooooooooooooo...........======%%%%%++++++#####XXXXXX.....======XXXXX======XXXXXXXXXXX;;;;;%",
"%%&&&&&&XXXXX&&&&&&XXXXX======oooooooooooXXXXX======XXXXX======XXXXX======;;;;;...........;;;;;;;;;;;;;;;;;=====;;;;;;%%%%%++++++@@@@@$$$$$$@@@@@@@@@@@&&&&&######&&&&&&&&&&&@@@@@$$$$$$$$$$$@@@@@@&&&&&&&&&&&XXXXXXXXXXX***********=====%%%%%%+++++@@@@@@oooooooooooooooo...........======%%%%%++++++#####XXXXXX.....======XXXXX======XXXXXXXXXXX;;;;;%",
"%%&&&&&&XXXXX&&&&&&XXXXX======oooooooooooXXXXX======XXXXX======XXXXX======;;;;;...........;;;;;;;;;;;;;;;;;=====;;;;;;%%%%%++++++@@@@@$$$$$$@@@@@@@@@@@&&&&&######&&&&&&&&&&&@@@@@$$$$$$$$$$$@@@@@@&&&&&&&&&&&XXXXXXXXXXX***********=====%%%%%%+++++@@@@@@oooooooooooooooo...........======%%%%%++++++#####XXXXXX.....======XXXXX======XXXXXXXXXXX;;;;;%",
"%%&&&&&&XXXXX&&&&&&XXXXX======oooooooooooXXXXX======XXXXX======XXXXX======;;;;;...........;;;;;;;;;;;;;;;;;=====;;;;;;%%%%%++++++@@@@@$$$$$$@@@@@@@@@@@&&&&&######&&&&&&&&&&&@@@@@$$$$$$$$$$$@@@@@@&&&&&&&&&&&XXXXXXXXXXX***********=====%%%%%%+++++@@@@@@oooooooooooooooo...........======%%%%%++++++#####XXXXXX.....======XXXXX======XXXXXXXXXXX;;;;;%",
"%%&&&&&&&&&&&XXXXXXXXXXXXXXXXX.....======***********=====XXXXXX=====......=====;;;;;;;;;;;......;;;;;======*****;;;;;;%%%%%++++++@@@@@$$$$$$:::::------ooooooooooo&&&&&&&&&&&oooooXXXXXXXXXXXXXXXXXooooo&&&&&&oooooXXXXXX===========;;;;;%%%%%%+++++@@@@@@@@@@@ooooooooooo...........======%%%%%++++++#####XXXXXXXXXXX......**********************;;;;;%",
"%%&&&&&&&&&&&XXXXXXXXXXXXXXXXX.....======***********=====XXXXXX=====......=====;;;;;;;;;;;......;;;;;======*****;;;;;;%%%%%++++++@@@@@$$$$$$:::::------ooooooooooo&&&&&&&&&&&oooooXXXXXXXXXXXXXXXXXooooo&&&&&&oooooXXXXXX===========;;;;;%%%%%%+++++@@@@@@@@@@@ooooooooooo...........======%%%%%++++++#####XXXXXXXXXXX......**********************;;;;;%",
"%%&&&&&&&&&&&XXXXXXXXXXXXXXXXX.....======***********=====XXXXXX=====......=====;;;;;;;;;;;......;;;;;======*****;;;;;;%%%%%++++++@@@@@$$$$$$:::::------ooooooooooo&&&&&&&&&&&oooooXXXXXXXXXXXXXXXXXooooo&&&&&&oooooXXXXXX===========;;;;;%%%%%%+++++@@@@@@@@@@@ooooooooooo...........======%%%%%++++++#####XXXXXXXXXXX......**********************;;;;;%",
"%%&&&&&&&&&&&XXXXXXXXXXXXXXXXX.....======***********=====XXXXXX=====......=====;;;;;;;;;;;......;;;;;======*****;;;;;;%%%%%++++++@@@@@$$$$$$:::::------ooooooooooo&&&&&&&&&&&oooooXXXXXXXXXXXXXXXXXooooo&&&&&&oooooXXXXXX===========;;;;;%%%%%%+++++@@@@@@@@@@@ooooooooooo...........======%%%%%++++++#####XXXXXXXXXXX......**********************;;;;;%",
"%%&&&&&&&&&&&XXXXXXXXXXXXXXXXX.....======***********=====XXXXXX=====......=====;;;;;;;;;;;......;;;;;======*****;;;;;;%%%%%++++++@@@@@$$$$$$:::::------ooooooooooo&&&&&&&&&&&oooooXXXXXXXXXXXXXXXXXooooo&&&&&&oooooXXXXXX===========;;;;;%%%%%%+++++@@@@@@@@@@@ooooooooooo...........======%%%%%++++++#####XXXXXXXXXXX......**********************;;;;;%",
"%%&&&&&&XXXXX&&&&&&===========.....======XXXXX======;;;;;;;;;;;;;;;;;;;;;;;;;;;;;;;;;;;;;;;;;;;;;;;;;;;;;;;;;;;;;;;;;;%%%%%++++++@@@@@######-----------oooooooooooooooo@@@@@@@@@@@XXXXXXoooooooooooXXXXXoooooo.....XXXXXX=====******;;;;;%%%%%%+++++@@@@@@XXXXX&&&&&&@@@@@*****************%%%%%++++++%%%%%%%%%%%%%%%%%%%%%%%%%%%%%%%%%%%%%%%%%%%%%%%%%%",
"%%&&&&&&XXXXX&&&&&&===========.....======XXXXX======;;;;;;;;;;;;;;;;;;;;;;;;;;;;;;;;;;;;;;;;;;;;;;;;;;;;;;;;;;;;;;;;;;%%%%%++++++@@@@@######-----------oooooooooooooooo@@@@@@@@@@@XXXXXXoooooooooooXXXXXoooooo.....XXXXXX=====******;;;;;%%%%%%+++++@@@@@@XXXXX&&&&&&@@@@@*****************%%%%%++++++%%%%%%%%%%%%%%%%%%%%%%%%%%%%%%%%%%%%%%%%%%%%%%%%%%",
"%%&&&&&&XXXXX&&&&&&===========.....======XXXXX======;;;;;;;;;;;;;;;;;;;;;;;;;;;;;;;;;;;;;;;;;;;;;;;;;;;;;;;;;;;;;;;;;;%%%%%++++++@@@@@######-----------oooooooooooooooo@@@@@@@@@@@XXXXXXoooooooooooXXXXXoooooo.....XXXXXX=====******;;;;;%%%%%%+++++@@@@@@XXXXX&&&&&&@@@@@*****************%%%%%++++++%%%%%%%%%%%%%%%%%%%%%%%%%%%%%%%%%%%%%%%%%%%%%%%%%%",
"%%&&&&&&XXXXX&&&&&&===========.....======XXXXX======;;;;;;;;;;;;;;;;;;;;;;;;;;;;;;;;;;;;;;;;;;;;;;;;;;;;;;;;;;;;;;;;;;%%%%%++++++@@@@@######-----------oooooooooooooooo@@@@@@@@@@@XXXXXXoooooooooooXXXXXoooooo.....XXXXXX=====******;;;;;%%%%%%+++++@@@@@@XXXXX&&&&&&@@@@@*****************%%%%%++++++%%%%%%%%%%%%%%%%%%%%%%%%%%%%%%%%%%%%%%%%%%%%%%%%%%",
"%%&&&&&&XXXXX&&&&&&===========.....======XXXXX======;;;;;;;;;;;;;;;;;;;;;;;;;;;;;;;;;;;;;;;;;;;;;;;;;;;;;;;;;;;;;;;;;;%%%%%++++++@@@@@######-----------oooooooooooooooo@@@@@@@@@@@XXXXXXoooooooooooXXXXXoooooo.....XXXXXX=====******;;;;;%%%%%%+++++@@@@@@XXXXX&&&&&&@@@@@*****************%%%%%++++++%%%%%%%%%%%%%%%%%%%%%%%%%%%%%%%%%%%%%%%%%%%%%%%%%%",
"%%&&&&&&XXXXX&&&&&&===========.....======XXXXX======;;;;;;;;;;;;;;;;;;;;;;;;;;;;;;;;;;;;;;;;;;;;;;;;;;;;;;;;;;;;;;;;;;%%%%%++++++@@@@@######-----------oooooooooooooooo@@@@@@@@@@@XXXXXXoooooooooooXXXXXoooooo.....XXXXXX=====******;;;;;%%%%%%+++++@@@@@@XXXXX&&&&&&@@@@@*****************%%%%%++++++%%%%%%%%%%%%%%%%%%%%%%%%%%%%%%%%%%%%%%%%%%%%%%%%%%",
"%%%%%%%%%%%%%%%%%%%%%%%%%%%%%%%%%%%%%%%%%%%%%%%%%%%%%%%%%%%%%%%%%%%%%%%%%%%%%%%%%%%%%%%%%%%%%%%%%%%%%%%%%%%%%%%%%%%%%%%%%%%++++++@@@@@######@@@@@@@@@@@&&&&&ooooooooooo@@@@@@@@@@@@@@@@@ooooooooooo&&&&&===========XXXXXX=====******;;;;;%%%%%%+++++@@@@@@@@@@@@@@@@@&&&&&@@@@@@*****======%%%%%++++++++++++++++++++++++++++++++++++++++++++++++++++++++",
"%%%%%%%%%%%%%%%%%%%%%%%%%%%%%%%%%%%%%%%%%%%%%%%%%%%%%%%%%%%%%%%%%%%%%%%%%%%%%%%%%%%%%%%%%%%%%%%%%%%%%%%%%%%%%%%%%%%%%%%%%%%++++++@@@@@######@@@@@@@@@@@&&&&&ooooooooooo@@@@@@@@@@@@@@@@@ooooooooooo&&&&&===========XXXXXX=====******;;;;;%%%%%%+++++@@@@@@@@@@@@@@@@@&&&&&@@@@@@*****======%%%%%++++++++++++++++++++++++++++++++++++++++++++++++++++++++",
"%%%%%%%%%%%%%%%%%%%%%%%%%%%%%%%%%%%%%%%%%%%%%%%%%%%%%%%%%%%%%%%%%%%%%%%%%%%%%%%%%%%%%%%%%%%%%%%%%%%%%%%%%%%%%%%%%%%%%%%%%%%++++++@@@@@######@@@@@@@@@@@&&&&&ooooooooooo@@@@@@@@@@@@@@@@@ooooooooooo&&&&&===========XXXXXX=====******;;;;;%%%%%%+++++@@@@@@@@@@@@@@@@@&&&&&@@@@@@*****======%%%%%++++++++++++++++++++++++++++++++++++++++++++++++++++++++",
"%%%%%%%%%%%%%%%%%%%%%%%%%%%%%%%%%%%%%%%%%%%%%%%%%%%%%%%%%%%%%%%%%%%%%%%%%%%%%%%%%%%%%%%%%%%%%%%%%%%%%%%%%%%%%%%%%%%%%%%%%%%++++++@@@@@######@@@@@@@@@@@&&&&&ooooooooooo@@@@@@@@@@@@@@@@@ooooooooooo&&&&&===========XXXXXX=====******;;;;;%%%%%%+++++@@@@@@@@@@@@@@@@@&&&&&@@@@@@*****======%%%%%++++++++++++++++++++++++++++++++++++++++++++++++++++++++",
"%%%%%%%%%%%%%%%%%%%%%%%%%%%%%%%%%%%%%%%%%%%%%%%%%%%%%%%%%%%%%%%%%%%%%%%%%%%%%%%%%%%%%%%%%%%%%%%%%%%%%%%%%%%%%%%%%%%%%%%%%%%++++++@@@@@######@@@@@@@@@@@&&&&&ooooooooooo@@@@@@@@@@@@@@@@@ooooooooooo&&&&&===========XXXXXX=====******;;;;;%%%%%%+++++@@@@@@@@@@@@@@@@@&&&&&@@@@@@*****======%%%%%++++++++++++++++++++++++++++++++++++++++++++++++++++++++",
"@@######$$$$$@@@@@@$$$$$@@@@@@@@@@@@@@@@@@@@@@@@@@@@$$$$$@@@@@@@@@@@@@@@@@@@@@@%%%%%%$$$$$$$$$$$$$$$$@@@@@@@@@@@&&&&&&&&&&&%%%%%%@@@@@$$$$$$&&&&&@@@@@@ooooo&&&&&&@@@@@@@@@@@@@@@@@@@@@@XXXXX&&&&&&&&&&&XXXXXXXXXXX***********;;;;;;;;;;;%%%%%%+++++&&&&&&@@@@@&&&&&&@@@@@&&&&&&.....======%%%%%++++++@@@@@@@@@@@@@@@@@@@@@@%%%%%#######################",
"@@######$$$$$@@@@@@$$$$$@@@@@@@@@@@@@@@@@@@@@@@@@@@@$$$$$@@@@@@@@@@@@@@@@@@@@@@%%%%%%$$$$$$$$$$$$$$$$@@@@@@@@@@@&&&&&&&&&&&%%%%%%@@@@@$$$$$$&&&&&@@@@@@ooooo&&&&&&@@@@@@@@@@@@@@@@@@@@@@XXXXX&&&&&&&&&&&XXXXXXXXXXX***********;;;;;;;;;;;%%%%%%+++++&&&&&&@@@@@&&&&&&@@@@@&&&&&&.....======%%%%%++++++@@@@@@@@@@@@@@@@@@@@@@%%%%%#######################",
"@@######$$$$$@@@@@@$$$$$@@@@@@@@@@@@@@@@@@@@@@@@@@@@$$$$$@@@@@@@@@@@@@@@@@@@@@@%%%%%%$$$$$$$$$$$$$$$$@@@@@@@@@@@&&&&&&&&&&&%%%%%%@@@@@$$$$$$&&&&&@@@@@@ooooo&&&&&&@@@@@@@@@@@@@@@@@@@@@@XXXXX&&&&&&&&&&&XXXXXXXXXXX***********;;;;;;;;;;;%%%%%%+++++&&&&&&@@@@@&&&&&&@@@@@&&&&&&.....======%%%%%++++++@@@@@@@@@@@@@@@@@@@@@@%%%%%#######################",
"@@######$$$$$@@@@@@$$$$$@@@@@@@@@@@@@@@@@@@@@@@@@@@@$$$$$@@@@@@@@@@@@@@@@@@@@@@%%%%%%$$$$$$$$$$$$$$$$@@@@@@@@@@@&&&&&&&&&&&%%%%%%@@@@@$$$$$$&&&&&@@@@@@ooooo&&&&&&@@@@@@@@@@@@@@@@@@@@@@XXXXX&&&&&&&&&&&XXXXXXXXXXX***********;;;;;;;;;;;%%%%%%+++++&&&&&&@@@@@&&&&&&@@@@@&&&&&&.....======%%%%%++++++@@@@@@@@@@@@@@@@@@@@@@%%%%%#######################",
"@@######$$$$$@@@@@@$$$$$@@@@@@@@@@@@@@@@@@@@@@@@@@@@$$$$$@@@@@@@@@@@@@@@@@@@@@@%%%%%%$$$$$$$$$$$$$$$$@@@@@@@@@@@&&&&&&&&&&&%%%%%%@@@@@$$$$$$&&&&&@@@@@@ooooo&&&&&&@@@@@@@@@@@@@@@@@@@@@@XXXXX&&&&&&&&&&&XXXXXXXXXXX***********;;;;;;;;;;;%%%%%%+++++&&&&&&@@@@@&&&&&&@@@@@&&&&&&.....======%%%%%++++++@@@@@@@@@@@@@@@@@@@@@@%%%%%#######################",
"@@######$$$$$@@@@@@$$$$$@@@@@@@@@@@@@@@@@@@@@@@@@@@@$$$$$@@@@@@@@@@@@@@@@@@@@@@%%%%%%$$$$$$$$$$$$$$$$@@@@@@@@@@@&&&&&&&&&&&%%%%%%@@@@@$$$$$$&&&&&@@@@@@ooooo&&&&&&@@@@@@@@@@@@@@@@@@@@@@XXXXX&&&&&&&&&&&XXXXXXXXXXX***********;;;;;;;;;;;%%%%%%+++++&&&&&&@@@@@&&&&&&@@@@@&&&&&&.....======%%%%%++++++@@@@@@@@@@@@@@@@@@@@@@%%%%%#######################",
"##$$$$$$@@@@@&&&&&&@@@@@######$$$$$@@@@@@ooooo@@@@@@@@@@@XXXXXX@@@@@&&&&&&XXXXX%%%%%%$$$$$$$$$$$&&&&&###########XXXXXX#####%%%%%%@@@@@@@@@@@@@@@@@@@@@@#####@@@@@@&&&&&@@@@@@@@@@@@@@@@@ooooo======.....XXXXXX;;;;;;;;;;;=====******;;;;;%%%%%%+++++&&&&&&&&&&&XXXXXX.....XXXXXX.....******%%%%%++++++@@@@@$$$$$$oooooXXXXXX%%%%%###########@@@@@@$$$$$#",
"##$$$$$$@@@@@&&&&&&@@@@@######$$$$$@@@@@@ooooo@@@@@@@@@@@XXXXXX@@@@@&&&&&&XXXXX%%%%%%$$$$$$$$$$$&&&&&###########XXXXXX#####%%%%%%@@@@@@@@@@@@@@@@@@@@@@#####@@@@@@&&&&&@@@@@@@@@@@@@@@@@ooooo======.....XXXXXX;;;;;;;;;;;=====******;;;;;%%%%%%+++++&&&&&&&&&&&XXXXXX.....XXXXXX.....******%%%%%++++++@@@@@$$$$$$oooooXXXXXX%%%%%###########@@@@@@$$$$$#",
"##$$$$$$@@@@@&&&&&&@@@@@######$$$$$@@@@@@ooooo@@@@@@@@@@@XXXXXX@@@@@&&&&&&XXXXX%%%%%%$$$$$$$$$$$&&&&&###########XXXXXX#####%%%%%%@@@@@@@@@@@@@@@@@@@@@@#####@@@@@@&&&&&@@@@@@@@@@@@@@@@@ooooo======.....XXXXXX;;;;;;;;;;;=====******;;;;;%%%%%%+++++&&&&&&&&&&&XXXXXX.....XXXXXX.....******%%%%%++++++@@@@@$$$$$$oooooXXXXXX%%%%%###########@@@@@@$$$$$#",
"##$$$$$$@@@@@&&&&&&@@@@@######$$$$$@@@@@@ooooo@@@@@@@@@@@XXXXXX@@@@@&&&&&&XXXXX%%%%%%$$$$$$$$$$$&&&&&###########XXXXXX#####%%%%%%@@@@@@@@@@@@@@@@@@@@@@#####@@@@@@&&&&&@@@@@@@@@@@@@@@@@ooooo======.....XXXXXX;;;;;;;;;;;=====******;;;;;%%%%%%+++++&&&&&&&&&&&XXXXXX.....XXXXXX.....******%%%%%++++++@@@@@$$$$$$oooooXXXXXX%%%%%###########@@@@@@$$$$$#",
"##$$$$$$@@@@@&&&&&&@@@@@######$$$$$@@@@@@ooooo@@@@@@@@@@@XXXXXX@@@@@&&&&&&XXXXX%%%%%%$$$$$$$$$$$&&&&&###########XXXXXX#####%%%%%%@@@@@@@@@@@@@@@@@@@@@@#####@@@@@@&&&&&@@@@@@@@@@@@@@@@@ooooo======.....XXXXXX;;;;;;;;;;;=====******;;;;;%%%%%%+++++&&&&&&&&&&&XXXXXX.....XXXXXX.....******%%%%%++++++@@@@@$$$$$$oooooXXXXXX%%%%%###########@@@@@@$$$$$#",
"##$$$$$$&&&&&&&&&&&ooooo@@@@@@@@@@@ooooooXXXXX&&&&&&&&&&&XXXXXXXXXXX&&&&&&&&&&&%%%%%%$$$$$###########$$$$$$&&&&&XXXXXXXXXXX%%%%%%@@@@@$$$$$$&&&&&@@@@@@#####@@@@@@oooooXXXXXXooooooooooo=====XXXXXXXXXXX......;;;;;;;;;;;=====;;;;;;;;;;;%%%%%%+++++&&&&&&&&&&&*****************=====;;;;;;%%%%%++++++@@@@@$$$$$$$$$$$XXXXXX%%%%%######@@@@@$$$$$$$$$$$$",
"##$$$$$$&&&&&&&&&&&ooooo@@@@@@@@@@@ooooooXXXXX&&&&&&&&&&&XXXXXXXXXXX&&&&&&&&&&&%%%%%%$$$$$###########$$$$$$&&&&&XXXXXXXXXXX%%%%%%@@@@@$$$$$$&&&&&@@@@@@#####@@@@@@oooooXXXXXXooooooooooo=====XXXXXXXXXXX......;;;;;;;;;;;=====;;;;;;;;;;;%%%%%%+++++&&&&&&&&&&&*****************=====;;;;;;%%%%%++++++@@@@@$$$$$$$$$$$XXXXXX%%%%%######@@@@@$$$$$$$$$$$$",
"##$$$$$$&&&&&&&&&&&ooooo@@@@@@@@@@@ooooooXXXXX&&&&&&&&&&&XXXXXXXXXXX&&&&&&&&&&&%%%%%%$$$$$###########$$$$$$&&&&&XXXXXXXXXXX%%%%%%@@@@@$$$$$$&&&&&@@@@@@#####@@@@@@oooooXXXXXXooooooooooo=====XXXXXXXXXXX......;;;;;;;;;;;=====;;;;;;;;;;;%%%%%%+++++&&&&&&&&&&&*****************=====;;;;;;%%%%%++++++@@@@@$$$$$$$$$$$XXXXXX%%%%%######@@@@@$$$$$$$$$$$$",
"##$$$$$$&&&&&&&&&&&ooooo@@@@@@@@@@@ooooooXXXXX&&&&&&&&&&&XXXXXXXXXXX&&&&&&&&&&&%%%%%%$$$$$###########$$$$$$&&&&&XXXXXXXXXXX%%%%%%@@@@@$$$$$$&&&&&@@@@@@#####@@@@@@oooooXXXXXXooooooooooo=====XXXXXXXXXXX......;;;;;;;;;;;=====;;;;;;;;;;;%%%%%%+++++&&&&&&&&&&&*****************=====;;;;;;%%%%%++++++@@@@@$$$$$$$$$$$XXXXXX%%%%%######@@@@@$$$$$$$$$$$$",
"##$$$$$$&&&&&&&&&&&ooooo@@@@@@@@@@@ooooooXXXXX&&&&&&&&&&&XXXXXXXXXXX&&&&&&&&&&&%%%%%%$$$$$###########$$$$$$&&&&&XXXXXXXXXXX%%%%%%@@@@@$$$$$$&&&&&@@@@@@#####@@@@@@oooooXXXXXXooooooooooo=====XXXXXXXXXXX......;;;;;;;;;;;=====;;;;;;;;;;;%%%%%%+++++&&&&&&&&&&&*****************=====;;;;;;%%%%%++++++@@@@@$$$$$$$$$$$XXXXXX%%%%%######@@@@@$$$$$$$$$$$$",
"##$$$$$$&&&&&&&&&&&ooooo@@@@@@@@@@@ooooooXXXXX&&&&&&&&&&&XXXXXXXXXXX&&&&&&&&&&&%%%%%%$$$$$###########$$$$$$&&&&&XXXXXXXXXXX%%%%%%@@@@@$$$$$$&&&&&@@@@@@#####@@@@@@oooooXXXXXXooooooooooo=====XXXXXXXXXXX......;;;;;;;;;;;=====;;;;;;;;;;;%%%%%%+++++&&&&&&&&&&&*****************=====;;;;;;%%%%%++++++@@@@@$$$$$$$$$$$XXXXXX%%%%%######@@@@@$$$$$$$$$$$$",
"$$@@@@@@&&&&&$$$$$$$$$$$&&&&&&&&&&&XXXXXXXXXXXXXXXXX&&&&&XXXXXXXXXXXXXXXXXXXXXX%%%%%%$$$$$######$$$$$$$$$$$&&&&&&&&&&&=====%%%%%%@@@@@$$$$$$@@@@@@@@@@@@@@@@oooooo@@@@@XXXXXXXXXXX======...........****************===========******;;;;;%%%%%%+++++&&&&&&XXXXX******=====***********;;;;;;%%%%%++++++@@@@@ooooooXXXXX******%%%%%#################$$$$$$",
"$$@@@@@@&&&&&$$$$$$$$$$$&&&&&&&&&&&XXXXXXXXXXXXXXXXX&&&&&XXXXXXXXXXXXXXXXXXXXXX%%%%%%$$$$$######$$$$$$$$$$$&&&&&&&&&&&=====%%%%%%@@@@@$$$$$$@@@@@@@@@@@@@@@@oooooo@@@@@XXXXXXXXXXX======...........****************===========******;;;;;%%%%%%+++++&&&&&&XXXXX******=====***********;;;;;;%%%%%++++++@@@@@ooooooXXXXX******%%%%%#################$$$$$$",
"$$@@@@@@&&&&&$$$$$$$$$$$&&&&&&&&&&&XXXXXXXXXXXXXXXXX&&&&&XXXXXXXXXXXXXXXXXXXXXX%%%%%%$$$$$######$$$$$$$$$$$&&&&&&&&&&&=====%%%%%%@@@@@$$$$$$@@@@@@@@@@@@@@@@oooooo@@@@@XXXXXXXXXXX======...........****************===========******;;;;;%%%%%%+++++&&&&&&XXXXX******=====***********;;;;;;%%%%%++++++@@@@@ooooooXXXXX******%%%%%#################$$$$$$",
"$$@@@@@@&&&&&$$$$$$$$$$$&&&&&&&&&&&XXXXXXXXXXXXXXXXX&&&&&XXXXXXXXXXXXXXXXXXXXXX%%%%%%$$$$$######$$$$$$$$$$$&&&&&&&&&&&=====%%%%%%@@@@@$$$$$$@@@@@@@@@@@@@@@@oooooo@@@@@XXXXXXXXXXX======...........****************===========******;;;;;%%%%%%+++++&&&&&&XXXXX******=====***********;;;;;;%%%%%++++++@@@@@ooooooXXXXX******%%%%%#################$$$$$$",
"$$@@@@@@&&&&&$$$$$$$$$$$&&&&&&&&&&&XXXXXXXXXXXXXXXXX&&&&&XXXXXXXXXXXXXXXXXXXXXX%%%%%%$$$$$######$$$$$$$$$$$&&&&&&&&&&&=====%%%%%%@@@@@$$$$$$@@@@@@@@@@@@@@@@oooooo@@@@@XXXXXXXXXXX======...........****************===========******;;;;;%%%%%%+++++&&&&&&XXXXX******=====***********;;;;;;%%%%%++++++@@@@@ooooooXXXXX******%%%%%#################$$$$$$",
"@@oooooo&&&&&$$$$$$#####$$$$$$XXXXXXXXXXX&&&&&&&&&&&XXXXX&&&&&&*****XXXXXXXXXXX%%%%%%$$$$$######&&&&&XXXXXX&&&&&&&&&&&=====%%%%%%@@@@@@@@@@@@@@@@&&&&&&&&&&&&&&&&&&&&&&XXXXXX=====******===========*****===========******;;;;;;;;;;;;;;;;%%%%%%+++++&&&&&&XXXXX======***********;;;;;;;;;;;%%%%%++++++@@@@@******=====******%%%%%###########$$$$$$$$$$$$",
"@@oooooo&&&&&$$$$$$#####$$$$$$XXXXXXXXXXX&&&&&&&&&&&XXXXX&&&&&&*****XXXXXXXXXXX%%%%%%$$$$$######&&&&&XXXXXX&&&&&&&&&&&=====%%%%%%@@@@@@@@@@@@@@@@&&&&&&&&&&&&&&&&&&&&&&XXXXXX=====******===========*****===========******;;;;;;;;;;;;;;;;%%%%%%+++++&&&&&&XXXXX======***********;;;;;;;;;;;%%%%%++++++@@@@@******=====******%%%%%###########$$$$$$$$$$$$",
"@@oooooo&&&&&$$$$$$#####$$$$$$XXXXXXXXXXX&&&&&&&&&&&XXXXX&&&&&&*****XXXXXXXXXXX%%%%%%$$$$$######&&&&&XXXXXX&&&&&&&&&&&=====%%%%%%@@@@@@@@@@@@@@@@&&&&&&&&&&&&&&&&&&&&&&XXXXXX=====******===========*****===========******;;;;;;;;;;;;;;;;%%%%%%+++++&&&&&&XXXXX======***********;;;;;;;;;;;%%%%%++++++@@@@@******=====******%%%%%###########$$$$$$$$$$$$",
"@@oooooo&&&&&$$$$$$#####$$$$$$XXXXXXXXXXX&&&&&&&&&&&XXXXX&&&&&&*****XXXXXXXXXXX%%%%%%$$$$$######&&&&&XXXXXX&&&&&&&&&&&=====%%%%%%@@@@@@@@@@@@@@@@&&&&&&&&&&&&&&&&&&&&&&XXXXXX=====******===========*****===========******;;;;;;;;;;;;;;;;%%%%%%+++++&&&&&&XXXXX======***********;;;;;;;;;;;%%%%%++++++@@@@@******=====******%%%%%###########$$$$$$$$$$$$",
"@@oooooo&&&&&$$$$$$#####$$$$$$XXXXXXXXXXX&&&&&&&&&&&XXXXX&&&&&&*****XXXXXXXXXXX%%%%%%$$$$$######&&&&&XXXXXX&&&&&&&&&&&=====%%%%%%@@@@@@@@@@@@@@@@&&&&&&&&&&&&&&&&&&&&&&XXXXXX=====******===========*****===========******;;;;;;;;;;;;;;;;%%%%%%+++++&&&&&&XXXXX======***********;;;;;;;;;;;%%%%%++++++@@@@@******=====******%%%%%###########$$$$$$$$$$$$",
"@@oooooo&&&&&$$$$$$#####$$$$$$XXXXXXXXXXX&&&&&&&&&&&XXXXX&&&&&&*****XXXXXXXXXXX%%%%%%$$$$$######&&&&&XXXXXX&&&&&&&&&&&=====%%%%%%@@@@@@@@@@@@@@@@&&&&&&&&&&&&&&&&&&&&&&XXXXXX=====******===========*****===========******;;;;;;;;;;;;;;;;%%%%%%+++++&&&&&&XXXXX======***********;;;;;;;;;;;%%%%%++++++@@@@@******=====******%%%%%###########$$$$$$$$$$$$",
"@@@@@@@@ooooo&&&&&&$$$$$>>>>>>XXXXX&&&&&&XXXXXXXXXXX===========.....XXXXXXXXXXX%%%%%%$$$$$&&&&&&#####XXXXXXXXXXXXXXXXX=====%%%%%%%%%%%%%%%%%%%%%%%%%%%%%%%%%%%%%%%%%%%%%%%%%%%%%%%%%%%%%%%%%%%%%%%%%%%%%%%%%%%%%%%%%%%%%%%%%%%%%%%%%%%%%%%%%%%%+++++%%%%%%%%%%%%%%%%%%%%%%%%%%%%%%%%%%%%%%%%%%%%%%%%%%%%%%%%%%%%%%%%%%%%%%%%+++++###########@@@@@@@@@@@&",
"@@@@@@@@ooooo&&&&&&$$$$$>>>>>>XXXXX&&&&&&XXXXXXXXXXX===========.....XXXXXXXXXXX%%%%%%$$$$$&&&&&&#####XXXXXXXXXXXXXXXXX=====%%%%%%%%%%%%%%%%%%%%%%%%%%%%%%%%%%%%%%%%%%%%%%%%%%%%%%%%%%%%%%%%%%%%%%%%%%%%%%%%%%%%%%%%%%%%%%%%%%%%%%%%%%%%%%%%%%%%+++++%%%%%%%%%%%%%%%%%%%%%%%%%%%%%%%%%%%%%%%%%%%%%%%%%%%%%%%%%%%%%%%%%%%%%%%%+++++###########@@@@@@@@@@@&",
"@@@@@@@@ooooo&&&&&&$$$$$>>>>>>XXXXX&&&&&&XXXXXXXXXXX===========.....XXXXXXXXXXX%%%%%%$$$$$&&&&&&#####XXXXXXXXXXXXXXXXX=====%%%%%%%%%%%%%%%%%%%%%%%%%%%%%%%%%%%%%%%%%%%%%%%%%%%%%%%%%%%%%%%%%%%%%%%%%%%%%%%%%%%%%%%%%%%%%%%%%%%%%%%%%%%%%%%%%%%%+++++%%%%%%%%%%%%%%%%%%%%%%%%%%%%%%%%%%%%%%%%%%%%%%%%%%%%%%%%%%%%%%%%%%%%%%%%+++++###########@@@@@@@@@@@&",
"@@@@@@@@ooooo&&&&&&$$$$$>>>>>>XXXXX&&&&&&XXXXXXXXXXX===========.....XXXXXXXXXXX%%%%%%$$$$$&&&&&&#####XXXXXXXXXXXXXXXXX=====%%%%%%%%%%%%%%%%%%%%%%%%%%%%%%%%%%%%%%%%%%%%%%%%%%%%%%%%%%%%%%%%%%%%%%%%%%%%%%%%%%%%%%%%%%%%%%%%%%%%%%%%%%%%%%%%%%%%+++++%%%%%%%%%%%%%%%%%%%%%%%%%%%%%%%%%%%%%%%%%%%%%%%%%%%%%%%%%%%%%%%%%%%%%%%%+++++###########@@@@@@@@@@@&",
"@@@@@@@@ooooo&&&&&&$$$$$>>>>>>XXXXX&&&&&&XXXXXXXXXXX===========.....XXXXXXXXXXX%%%%%%$$$$$&&&&&&#####XXXXXXXXXXXXXXXXX=====%%%%%%%%%%%%%%%%%%%%%%%%%%%%%%%%%%%%%%%%%%%%%%%%%%%%%%%%%%%%%%%%%%%%%%%%%%%%%%%%%%%%%%%%%%%%%%%%%%%%%%%%%%%%%%%%%%%%+++++%%%%%%%%%%%%%%%%%%%%%%%%%%%%%%%%%%%%%%%%%%%%%%%%%%%%%%%%%%%%%%%%%%%%%%%%+++++###########@@@@@@@@@@@&",
"$$ooooooXXXXXoooooo&&&&&@@@@@@&&&&&XXXXXXXXXXX&&&&&&=====......XXXXX***********%%%%%%$$$$$&&&&&&&&&&&======XXXXXXXXXXX*****%%%%%%+++++++++++++++++++++++++++++++++++++++++++++++++++++++++++++++++++++++++++++++++++++++++++++++++++++++++++++++++++++++++++++++++++++++++$$$$$$$$$$$$$$$$$$$$$$$$$$$$$$$$$$$$$$$$$$$$+++++++++++######@@@@@@@@@@@&&&&&&",
"$$ooooooXXXXXoooooo&&&&&@@@@@@&&&&&XXXXXXXXXXX&&&&&&=====......XXXXX***********%%%%%%$$$$$&&&&&&&&&&&======XXXXXXXXXXX*****%%%%%%+++++++++++++++++++++++++++++++++++++++++++++++++++++++++++++++++++++++++++++++++++++++++++++++++++++++++++++++++++++++++++++++++++++++++$$$$$$$$$$$$$$$$$$$$$$$$$$$$$$$$$$$$$$$$$$$$+++++++++++######@@@@@@@@@@@&&&&&&",
"$$ooooooXXXXXoooooo&&&&&@@@@@@&&&&&XXXXXXXXXXX&&&&&&=====......XXXXX***********%%%%%%$$$$$&&&&&&&&&&&======XXXXXXXXXXX*****%%%%%%+++++++++++++++++++++++++++++++++++++++++++++++++++++++++++++++++++++++++++++++++++++++++++++++++++++++++++++++++++++++++++++++++++++++++$$$$$$$$$$$$$$$$$$$$$$$$$$$$$$$$$$$$$$$$$$$$+++++++++++######@@@@@@@@@@@&&&&&&",
"$$ooooooXXXXXoooooo&&&&&@@@@@@&&&&&XXXXXXXXXXX&&&&&&=====......XXXXX***********%%%%%%$$$$$&&&&&&&&&&&======XXXXXXXXXXX*****%%%%%%+++++++++++++++++++++++++++++++++++++++++++++++++++++++++++++++++++++++++++++++++++++++++++++++++++++++++++++++++++++++++++++++++++++++++$$$$$$$$$$$$$$$$$$$$$$$$$$$$$$$$$$$$$$$$$$$$+++++++++++######@@@@@@@@@@@&&&&&&",
"$$ooooooXXXXXoooooo&&&&&@@@@@@&&&&&XXXXXXXXXXX&&&&&&=====......XXXXX***********%%%%%%$$$$$&&&&&&&&&&&======XXXXXXXXXXX*****%%%%%%+++++++++++++++++++++++++++++++++++++++++++++++++++++++++++++++++++++++++++++++++++++++++++++++++++++++++++++++++++++++++++++++++++++++++$$$$$$$$$$$$$$$$$$$$$$$$$$$$$$$$$$$$$$$$$$$$+++++++++++######@@@@@@@@@@@&&&&&&",
"$$ooooooXXXXXoooooo&&&&&@@@@@@&&&&&XXXXXXXXXXX&&&&&&=====......XXXXX***********%%%%%%$$$$$&&&&&&&&&&&======XXXXXXXXXXX*****%%%%%%+++++++++++++++++++++++++++++++++++++++++++++++++++++++++++++++++++++++++++++++++++++++++++++++++++++++++++++++++++++++++++++++++++++++++$$$$$$$$$$$$$$$$$$$$$$$$$$$$$$$$$$$$$$$$$$$$+++++++++++######@@@@@@@@@@@&&&&&&",
"$$@@@@@@ooooo&&&&&&XXXXX&&&&&&XXXXX&&&&&&&&&&&XXXXXX.....XXXXXX=====XXXXXX*****%%%%%%$$$$$######&&&&&oooooo=====******=====%%%%%%+++++$$$$$$$$$$$$$$$$$$$$$$$$$$$$$$$$$$$$$$$$$$$$$$$$$$$$$$$$$$$$$$$$$$$$$$$$$$$$$$$$$$$$$$$$$$$$$$$$$$$$$$$$$$$$$$&&&&&&@@@@@+++++++++++$$$$$$-----$$$$$$-----@@@@@@@@@@@@@@@@@&&&&&%%%%%%+++++######$$$$$&&&&&&&&&&&&",
"$$@@@@@@ooooo&&&&&&XXXXX&&&&&&XXXXX&&&&&&&&&&&XXXXXX.....XXXXXX=====XXXXXX*****%%%%%%$$$$$######&&&&&oooooo=====******=====%%%%%%+++++$$$$$$$$$$$$$$$$$$$$$$$$$$$$$$$$$$$$$$$$$$$$$$$$$$$$$$$$$$$$$$$$$$$$$$$$$$$$$$$$$$$$$$$$$$$$$$$$$$$$$$$$$$$$$$&&&&&&@@@@@+++++++++++$$$$$$-----$$$$$$-----@@@@@@@@@@@@@@@@@&&&&&%%%%%%+++++######$$$$$&&&&&&&&&&&&",
"$$@@@@@@ooooo&&&&&&XXXXX&&&&&&XXXXX&&&&&&&&&&&XXXXXX.....XXXXXX=====XXXXXX*****%%%%%%$$$$$######&&&&&oooooo=====******=====%%%%%%+++++$$$$$$$$$$$$$$$$$$$$$$$$$$$$$$$$$$$$$$$$$$$$$$$$$$$$$$$$$$$$$$$$$$$$$$$$$$$$$$$$$$$$$$$$$$$$$$$$$$$$$$$$$$$$$$&&&&&&@@@@@+++++++++++$$$$$$-----$$$$$$-----@@@@@@@@@@@@@@@@@&&&&&%%%%%%+++++######$$$$$&&&&&&&&&&&&",
"$$@@@@@@ooooo&&&&&&XXXXX&&&&&&XXXXX&&&&&&&&&&&XXXXXX.....XXXXXX=====XXXXXX*****%%%%%%$$$$$######&&&&&oooooo=====******=====%%%%%%+++++$$$$$$$$$$$$$$$$$$$$$$$$$$$$$$$$$$$$$$$$$$$$$$$$$$$$$$$$$$$$$$$$$$$$$$$$$$$$$$$$$$$$$$$$$$$$$$$$$$$$$$$$$$$$$$&&&&&&@@@@@+++++++++++$$$$$$-----$$$$$$-----@@@@@@@@@@@@@@@@@&&&&&%%%%%%+++++######$$$$$&&&&&&&&&&&&",
"$$@@@@@@ooooo&&&&&&XXXXX&&&&&&XXXXX&&&&&&&&&&&XXXXXX.....XXXXXX=====XXXXXX*****%%%%%%$$$$$######&&&&&oooooo=====******=====%%%%%%+++++$$$$$$$$$$$$$$$$$$$$$$$$$$$$$$$$$$$$$$$$$$$$$$$$$$$$$$$$$$$$$$$$$$$$$$$$$$$$$$$$$$$$$$$$$$$$$$$$$$$$$$$$$$$$$$&&&&&&@@@@@+++++++++++$$$$$$-----$$$$$$-----@@@@@@@@@@@@@@@@@&&&&&%%%%%%+++++######$$$$$&&&&&&&&&&&&",
"$$$$$$$$&&&&&oooooo$$$$$&&&&&&&&&&&&&&&&&&&&&&XXXXXXXXXXX......****************%%%%%%@@@@@######XXXXXooooooooooo======*****%%%%%%+++++$$$$$$#####$$$$$$@@@@@#################$$$$$######@@@@@$$$$$$@@@@@######$$$$$XXXXXX@@@@@#################XXXXX@@@@@@*****%%%%%%+++++$$$$$$-----$$$$$$-----------@@@@@&&&&&&ooooo%%%%%%+++++###########&&&&&&&&&&&&",
"$$$$$$$$&&&&&oooooo$$$$$&&&&&&&&&&&&&&&&&&&&&&XXXXXXXXXXX......****************%%%%%%@@@@@######XXXXXooooooooooo======*****%%%%%%+++++$$$$$$#####$$$$$$@@@@@#################$$$$$######@@@@@$$$$$$@@@@@######$$$$$XXXXXX@@@@@#################XXXXX@@@@@@*****%%%%%%+++++$$$$$$-----$$$$$$-----------@@@@@&&&&&&ooooo%%%%%%+++++###########&&&&&&&&&&&&",
"$$$$$$$$&&&&&oooooo$$$$$&&&&&&&&&&&&&&&&&&&&&&XXXXXXXXXXX......****************%%%%%%@@@@@######XXXXXooooooooooo======*****%%%%%%+++++$$$$$$#####$$$$$$@@@@@#################$$$$$######@@@@@$$$$$$@@@@@######$$$$$XXXXXX@@@@@#################XXXXX@@@@@@*****%%%%%%+++++$$$$$$-----$$$$$$-----------@@@@@&&&&&&ooooo%%%%%%+++++###########&&&&&&&&&&&&",
"$$$$$$$$&&&&&oooooo$$$$$&&&&&&&&&&&&&&&&&&&&&&XXXXXXXXXXX......****************%%%%%%@@@@@######XXXXXooooooooooo======*****%%%%%%+++++$$$$$$#####$$$$$$@@@@@#################$$$$$######@@@@@$$$$$$@@@@@######$$$$$XXXXXX@@@@@#################XXXXX@@@@@@*****%%%%%%+++++$$$$$$-----$$$$$$-----------@@@@@&&&&&&ooooo%%%%%%+++++###########&&&&&&&&&&&&",
"$$$$$$$$&&&&&oooooo$$$$$&&&&&&&&&&&&&&&&&&&&&&XXXXXXXXXXX......****************%%%%%%@@@@@######XXXXXooooooooooo======*****%%%%%%+++++$$$$$$#####$$$$$$@@@@@#################$$$$$######@@@@@$$$$$$@@@@@######$$$$$XXXXXX@@@@@#################XXXXX@@@@@@*****%%%%%%+++++$$$$$$-----$$$$$$-----------@@@@@&&&&&&ooooo%%%%%%+++++###########&&&&&&&&&&&&",
"$$$$$$$$&&&&&oooooo$$$$$&&&&&&&&&&&&&&&&&&&&&&XXXXXXXXXXX......****************%%%%%%@@@@@######XXXXXooooooooooo======*****%%%%%%+++++$$$$$$#####$$$$$$@@@@@#################$$$$$######@@@@@$$$$$$@@@@@######$$$$$XXXXXX@@@@@#################XXXXX@@@@@@*****%%%%%%+++++$$$$$$-----$$$$$$-----------@@@@@&&&&&&ooooo%%%%%%+++++###########&&&&&&&&&&&&",
"$$@@@@@@oooooXXXXXXooooo$$$$$$$$$$$======XXXXX&&&&&&ooooooooooo.....******=====%%%%%%@@@@@XXXXXX=====...........******=====%%%%%%+++++$$$$$$#####@@@@@@$$$$$------:::::::::::#####>>>>>>:::::@@@@@@#####@@@@@@@@@@@###########@@@@@@@@@@@@@@@@@@@@@@XXXXXX*****%%%%%%+++++$$$$$$----------------------@@@@@ooooooXXXXX%%%%%%+++++######$$$$$######@@@@@@",
"$$@@@@@@oooooXXXXXXooooo$$$$$$$$$$$======XXXXX&&&&&&ooooooooooo.....******=====%%%%%%@@@@@XXXXXX=====...........******=====%%%%%%+++++$$$$$$#####@@@@@@$$$$$------:::::::::::#####>>>>>>:::::@@@@@@#####@@@@@@@@@@@###########@@@@@@@@@@@@@@@@@@@@@@XXXXXX*****%%%%%%+++++$$$$$$----------------------@@@@@ooooooXXXXX%%%%%%+++++######$$$$$######@@@@@@",
"$$@@@@@@oooooXXXXXXooooo$$$$$$$$$$$======XXXXX&&&&&&ooooooooooo.....******=====%%%%%%@@@@@XXXXXX=====...........******=====%%%%%%+++++$$$$$$#####@@@@@@$$$$$------:::::::::::#####>>>>>>:::::@@@@@@#####@@@@@@@@@@@###########@@@@@@@@@@@@@@@@@@@@@@XXXXXX*****%%%%%%+++++$$$$$$----------------------@@@@@ooooooXXXXX%%%%%%+++++######$$$$$######@@@@@@",
"$$@@@@@@oooooXXXXXXooooo$$$$$$$$$$$======XXXXX&&&&&&ooooooooooo.....******=====%%%%%%@@@@@XXXXXX=====...........******=====%%%%%%+++++$$$$$$#####@@@@@@$$$$$------:::::::::::#####>>>>>>:::::@@@@@@#####@@@@@@@@@@@###########@@@@@@@@@@@@@@@@@@@@@@XXXXXX*****%%%%%%+++++$$$$$$----------------------@@@@@ooooooXXXXX%%%%%%+++++######$$$$$######@@@@@@",
"$$@@@@@@oooooXXXXXXooooo$$$$$$$$$$$======XXXXX&&&&&&ooooooooooo.....******=====%%%%%%@@@@@XXXXXX=====...........******=====%%%%%%+++++$$$$$$#####@@@@@@$$$$$------:::::::::::#####>>>>>>:::::@@@@@@#####@@@@@@@@@@@###########@@@@@@@@@@@@@@@@@@@@@@XXXXXX*****%%%%%%+++++$$$$$$----------------------@@@@@ooooooXXXXX%%%%%%+++++######$$$$$######@@@@@@",
"@@&&&&&&XXXXXoooooo@@@@@$$$$$$$$$$$@@@@@@&&&&&XXXXXXooooooooooo.....******=====%%%%%%&&&&&XXXXXX**********************=====%%%%%%+++++$$$$$$$$$$$@@@@@@#####>>>>>>>>>>>::::::#####::::::>>>>>>>>>>>$$$$$XXXXXX@@@@@XXXXXXXXXXX@@@@@@XXXXXXXXXXX@@@@@***********%%%%%%+++++$$$$$$$$$$$@@@@@@-----@@@@@@ooooo@@@@@@=====%%%%%%+++++#################@@@@@@",
"@@&&&&&&XXXXXoooooo@@@@@$$$$$$$$$$$@@@@@@&&&&&XXXXXXooooooooooo.....******=====%%%%%%&&&&&XXXXXX**********************=====%%%%%%+++++$$$$$$$$$$$@@@@@@#####>>>>>>>>>>>::::::#####::::::>>>>>>>>>>>$$$$$XXXXXX@@@@@XXXXXXXXXXX@@@@@@XXXXXXXXXXX@@@@@***********%%%%%%+++++$$$$$$$$$$$@@@@@@-----@@@@@@ooooo@@@@@@=====%%%%%%+++++#################@@@@@@",
"@@&&&&&&XXXXXoooooo@@@@@$$$$$$$$$$$@@@@@@&&&&&XXXXXXooooooooooo.....******=====%%%%%%&&&&&XXXXXX**********************=====%%%%%%+++++$$$$$$$$$$$@@@@@@#####>>>>>>>>>>>::::::#####::::::>>>>>>>>>>>$$$$$XXXXXX@@@@@XXXXXXXXXXX@@@@@@XXXXXXXXXXX@@@@@***********%%%%%%+++++$$$$$$$$$$$@@@@@@-----@@@@@@ooooo@@@@@@=====%%%%%%+++++#################@@@@@@",
"@@&&&&&&XXXXXoooooo@@@@@$$$$$$$$$$$@@@@@@&&&&&XXXXXXooooooooooo.....******=====%%%%%%&&&&&XXXXXX**********************=====%%%%%%+++++$$$$$$$$$$$@@@@@@#####>>>>>>>>>>>::::::#####::::::>>>>>>>>>>>$$$$$XXXXXX@@@@@XXXXXXXXXXX@@@@@@XXXXXXXXXXX@@@@@***********%%%%%%+++++$$$$$$$$$$$@@@@@@-----@@@@@@ooooo@@@@@@=====%%%%%%+++++#################@@@@@@",
"@@&&&&&&XXXXXoooooo@@@@@$$$$$$$$$$$@@@@@@&&&&&XXXXXXooooooooooo.....******=====%%%%%%&&&&&XXXXXX**********************=====%%%%%%+++++$$$$$$$$$$$@@@@@@#####>>>>>>>>>>>::::::#####::::::>>>>>>>>>>>$$$$$XXXXXX@@@@@XXXXXXXXXXX@@@@@@XXXXXXXXXXX@@@@@***********%%%%%%+++++$$$$$$$$$$$@@@@@@-----@@@@@@ooooo@@@@@@=====%%%%%%+++++#################@@@@@@",
"@@&&&&&&XXXXXoooooo@@@@@$$$$$$$$$$$@@@@@@&&&&&XXXXXXooooooooooo.....******=====%%%%%%&&&&&XXXXXX**********************=====%%%%%%+++++$$$$$$$$$$$@@@@@@#####>>>>>>>>>>>::::::#####::::::>>>>>>>>>>>$$$$$XXXXXX@@@@@XXXXXXXXXXX@@@@@@XXXXXXXXXXX@@@@@***********%%%%%%+++++$$$$$$$$$$$@@@@@@-----@@@@@@ooooo@@@@@@=====%%%%%%+++++#################@@@@@@",
"$$&&&&&&$$$$$&&&&&&&&&&&@@@@@@$$$$$@@@@@@=====XXXXXX................***********%%%%%%%%%%%%%%%%%%%%%%%%%%%%%%%%%%%%%%%%%%%%%%%%%%+++++$$$$$$###########$$$$$$$$$$$-----------@@@@@@@@@@@>>>>>>>>>>>@@@@@@@@@@@XXXXXXXXXXXXXXXX......@@@@@XXXXXXXXXXX***********%%%%%%+++++$$$$$$-----@@@@@@@@@@@@@@@@@@@@@@oooooo=====%%%%%%+++++#################$$$$$$",
"$$&&&&&&$$$$$&&&&&&&&&&&@@@@@@$$$$$@@@@@@=====XXXXXX................***********%%%%%%%%%%%%%%%%%%%%%%%%%%%%%%%%%%%%%%%%%%%%%%%%%%+++++$$$$$$###########$$$$$$$$$$$-----------@@@@@@@@@@@>>>>>>>>>>>@@@@@@@@@@@XXXXXXXXXXXXXXXX......@@@@@XXXXXXXXXXX***********%%%%%%+++++$$$$$$-----@@@@@@@@@@@@@@@@@@@@@@oooooo=====%%%%%%+++++#################$$$$$$",
"$$&&&&&&$$$$$&&&&&&&&&&&@@@@@@$$$$$@@@@@@=====XXXXXX................***********%%%%%%%%%%%%%%%%%%%%%%%%%%%%%%%%%%%%%%%%%%%%%%%%%%+++++$$$$$$###########$$$$$$$$$$$-----------@@@@@@@@@@@>>>>>>>>>>>@@@@@@@@@@@XXXXXXXXXXXXXXXX......@@@@@XXXXXXXXXXX***********%%%%%%+++++$$$$$$-----@@@@@@@@@@@@@@@@@@@@@@oooooo=====%%%%%%+++++#################$$$$$$",
"$$&&&&&&$$$$$&&&&&&&&&&&@@@@@@$$$$$@@@@@@=====XXXXXX................***********%%%%%%%%%%%%%%%%%%%%%%%%%%%%%%%%%%%%%%%%%%%%%%%%%%+++++$$$$$$###########$$$$$$$$$$$-----------@@@@@@@@@@@>>>>>>>>>>>@@@@@@@@@@@XXXXXXXXXXXXXXXX......@@@@@XXXXXXXXXXX***********%%%%%%+++++$$$$$$-----@@@@@@@@@@@@@@@@@@@@@@oooooo=====%%%%%%+++++#################$$$$$$",
"$$&&&&&&$$$$$&&&&&&&&&&&@@@@@@$$$$$@@@@@@=====XXXXXX................***********%%%%%%%%%%%%%%%%%%%%%%%%%%%%%%%%%%%%%%%%%%%%%%%%%%+++++$$$$$$###########$$$$$$$$$$$-----------@@@@@@@@@@@>>>>>>>>>>>@@@@@@@@@@@XXXXXXXXXXXXXXXX......@@@@@XXXXXXXXXXX***********%%%%%%+++++$$$$$$-----@@@@@@@@@@@@@@@@@@@@@@oooooo=====%%%%%%+++++#################$$$$$$",
"@@ooooooooooo@@@@@@@@@@@&&&&&&@@@@@@@@@@@=====......*****======*****;;;;;;;;;;;%%%%%%+++++++++++++++++++++++++++++++++++++++++++++++++$$$$$$$$$$$######$$$$$$$$$$$$$$$$@@@@@@@@@@@@@@@@@#####@@@@@@@@@@@@@@@@@XXXXXoooooooooooXXXXXXXXXXX*****************=====%%%%%%+++++$$$$$$-----------@@@@@@@@@@@oooooXXXXXX.....%%%%%%+++++######@@@@@@@@@@@#####$",
"@@ooooooooooo@@@@@@@@@@@&&&&&&@@@@@@@@@@@=====......*****======*****;;;;;;;;;;;%%%%%%+++++++++++++++++++++++++++++++++++++++++++++++++$$$$$$$$$$$######$$$$$$$$$$$$$$$$@@@@@@@@@@@@@@@@@#####@@@@@@@@@@@@@@@@@XXXXXoooooooooooXXXXXXXXXXX*****************=====%%%%%%+++++$$$$$$-----------@@@@@@@@@@@oooooXXXXXX.....%%%%%%+++++######@@@@@@@@@@@#####$",
"@@ooooooooooo@@@@@@@@@@@&&&&&&@@@@@@@@@@@=====......*****======*****;;;;;;;;;;;%%%%%%+++++++++++++++++++++++++++++++++++++++++++++++++$$$$$$$$$$$######$$$$$$$$$$$$$$$$@@@@@@@@@@@@@@@@@#####@@@@@@@@@@@@@@@@@XXXXXoooooooooooXXXXXXXXXXX*****************=====%%%%%%+++++$$$$$$-----------@@@@@@@@@@@oooooXXXXXX.....%%%%%%+++++######@@@@@@@@@@@#####$",
"@@ooooooooooo@@@@@@@@@@@&&&&&&@@@@@@@@@@@=====......*****======*****;;;;;;;;;;;%%%%%%+++++++++++++++++++++++++++++++++++++++++++++++++$$$$$$$$$$$######$$$$$$$$$$$$$$$$@@@@@@@@@@@@@@@@@#####@@@@@@@@@@@@@@@@@XXXXXoooooooooooXXXXXXXXXXX*****************=====%%%%%%+++++$$$$$$-----------@@@@@@@@@@@oooooXXXXXX.....%%%%%%+++++######@@@@@@@@@@@#####$",
"@@ooooooooooo@@@@@@@@@@@&&&&&&@@@@@@@@@@@=====......*****======*****;;;;;;;;;;;%%%%%%+++++++++++++++++++++++++++++++++++++++++++++++++$$$$$$$$$$$######$$$$$$$$$$$$$$$$@@@@@@@@@@@@@@@@@#####@@@@@@@@@@@@@@@@@XXXXXoooooooooooXXXXXXXXXXX*****************=====%%%%%%+++++$$$$$$-----------@@@@@@@@@@@oooooXXXXXX.....%%%%%%+++++######@@@@@@@@@@@#####$",
"@@ooooooooooo@@@@@@@@@@@&&&&&&@@@@@@@@@@@=====......*****======*****;;;;;;;;;;;%%%%%%+++++++++++++++++++++++++++++++++++++++++++++++++$$$$$$$$$$$######$$$$$$$$$$$$$$$$@@@@@@@@@@@@@@@@@#####@@@@@@@@@@@@@@@@@XXXXXoooooooooooXXXXXXXXXXX*****************=====%%%%%%+++++$$$$$$-----------@@@@@@@@@@@oooooXXXXXX.....%%%%%%+++++######@@@@@@@@@@@#####$",
"@@&&&&&&ooooo@@@@@@@@@@@@@@@@@&&&&&XXXXXX.....======*****===========***********%%%%%%+++++$$$$$$$$$$$$$$$$$$$$$$@@@@@@@@@@@+++++++++++$$$$$$@@@@@@@@@@@#####$$$$$$ooooooooooo@@@@@######$$$$$XXXXXX@@@@@@@@@@@XXXXXooooooooooooooooo................***********%%%%%%+++++$$$$$$-----------&&&&&&&&&&&@@@@@@@@@@@*****%%%%%%+++++######@@@@@@@@@@@$$$$$$",
"@@&&&&&&ooooo@@@@@@@@@@@@@@@@@&&&&&XXXXXX.....======*****===========***********%%%%%%+++++$$$$$$$$$$$$$$$$$$$$$$@@@@@@@@@@@+++++++++++$$$$$$@@@@@@@@@@@#####$$$$$$ooooooooooo@@@@@######$$$$$XXXXXX@@@@@@@@@@@XXXXXooooooooooooooooo................***********%%%%%%+++++$$$$$$-----------&&&&&&&&&&&@@@@@@@@@@@*****%%%%%%+++++######@@@@@@@@@@@$$$$$$",
"@@&&&&&&ooooo@@@@@@@@@@@@@@@@@&&&&&XXXXXX.....======*****===========***********%%%%%%+++++$$$$$$$$$$$$$$$$$$$$$$@@@@@@@@@@@+++++++++++$$$$$$@@@@@@@@@@@#####$$$$$$ooooooooooo@@@@@######$$$$$XXXXXX@@@@@@@@@@@XXXXXooooooooooooooooo................***********%%%%%%+++++$$$$$$-----------&&&&&&&&&&&@@@@@@@@@@@*****%%%%%%+++++######@@@@@@@@@@@$$$$$$",
"@@&&&&&&ooooo@@@@@@@@@@@@@@@@@&&&&&XXXXXX.....======*****===========***********%%%%%%+++++$$$$$$$$$$$$$$$$$$$$$$@@@@@@@@@@@+++++++++++$$$$$$@@@@@@@@@@@#####$$$$$$ooooooooooo@@@@@######$$$$$XXXXXX@@@@@@@@@@@XXXXXooooooooooooooooo................***********%%%%%%+++++$$$$$$-----------&&&&&&&&&&&@@@@@@@@@@@*****%%%%%%+++++######@@@@@@@@@@@$$$$$$",
"@@&&&&&&ooooo@@@@@@@@@@@@@@@@@&&&&&XXXXXX.....======*****===========***********%%%%%%+++++$$$$$$$$$$$$$$$$$$$$$$@@@@@@@@@@@+++++++++++$$$$$$@@@@@@@@@@@#####$$$$$$ooooooooooo@@@@@######$$$$$XXXXXX@@@@@@@@@@@XXXXXooooooooooooooooo................***********%%%%%%+++++$$$$$$-----------&&&&&&&&&&&@@@@@@@@@@@*****%%%%%%+++++######@@@@@@@@@@@$$$$$$",
"&&oooooo&&&&&oooooo@@@@@@@@@@@XXXXX===========*****************=====;;;;;;=====%%%%%%+++++$$$$$$$$$$$oooooo@@@@@&&&&&&ooooo%%%%%%+++++$$$$$$#####$$$$$$#####$$$$$$ooooooooooo@@@@@@@@@@@@@@@@XXXXXX@@@@@@@@@@@@@@@@......ooooooooooo*****.................;;;;;%%%%%%+++++$$$$$$$$$$$------&&&&&&&&&&&&&&&&@@@@@@*****%%%%%%+++++###########&&&&&&&&&&&X",
"&&oooooo&&&&&oooooo@@@@@@@@@@@XXXXX===========*****************=====;;;;;;=====%%%%%%+++++$$$$$$$$$$$oooooo@@@@@&&&&&&ooooo%%%%%%+++++$$$$$$#####$$$$$$#####$$$$$$ooooooooooo@@@@@@@@@@@@@@@@XXXXXX@@@@@@@@@@@@@@@@......ooooooooooo*****.................;;;;;%%%%%%+++++$$$$$$$$$$$------&&&&&&&&&&&&&&&&@@@@@@*****%%%%%%+++++###########&&&&&&&&&&&X",
"&&oooooo&&&&&oooooo@@@@@@@@@@@XXXXX===========*****************=====;;;;;;=====%%%%%%+++++$$$$$$$$$$$oooooo@@@@@&&&&&&ooooo%%%%%%+++++$$$$$$#####$$$$$$#####$$$$$$ooooooooooo@@@@@@@@@@@@@@@@XXXXXX@@@@@@@@@@@@@@@@......ooooooooooo*****.................;;;;;%%%%%%+++++$$$$$$$$$$$------&&&&&&&&&&&&&&&&@@@@@@*****%%%%%%+++++###########&&&&&&&&&&&X",
"&&oooooo&&&&&oooooo@@@@@@@@@@@XXXXX===========*****************=====;;;;;;=====%%%%%%+++++$$$$$$$$$$$oooooo@@@@@&&&&&&ooooo%%%%%%+++++$$$$$$#####$$$$$$#####$$$$$$ooooooooooo@@@@@@@@@@@@@@@@XXXXXX@@@@@@@@@@@@@@@@......ooooooooooo*****.................;;;;;%%%%%%+++++$$$$$$$$$$$------&&&&&&&&&&&&&&&&@@@@@@*****%%%%%%+++++###########&&&&&&&&&&&X",
"&&oooooo&&&&&oooooo@@@@@@@@@@@XXXXX===========*****************=====;;;;;;=====%%%%%%+++++$$$$$$$$$$$oooooo@@@@@&&&&&&ooooo%%%%%%+++++$$$$$$#####$$$$$$#####$$$$$$ooooooooooo@@@@@@@@@@@@@@@@XXXXXX@@@@@@@@@@@@@@@@......ooooooooooo*****.................;;;;;%%%%%%+++++$$$$$$$$$$$------&&&&&&&&&&&&&&&&@@@@@@*****%%%%%%+++++###########&&&&&&&&&&&X",
"&&oooooo&&&&&oooooo@@@@@@@@@@@XXXXX===========*****************=====;;;;;;=====%%%%%%+++++$$$$$$$$$$$oooooo@@@@@&&&&&&ooooo%%%%%%+++++$$$$$$#####$$$$$$#####$$$$$$ooooooooooo@@@@@@@@@@@@@@@@XXXXXX@@@@@@@@@@@@@@@@......ooooooooooo*****.................;;;;;%%%%%%+++++$$$$$$$$$$$------&&&&&&&&&&&&&&&&@@@@@@*****%%%%%%+++++###########&&&&&&&&&&&X",
"&&oooooooooooXXXXXXoooooooooooXXXXX===========......XXXXXXXXXXX=====;;;;;;;;;;;%%%%%%+++++$$$$$$@@@@@@@@@@@&&&&&oooooo&&&&&%%%%%%+++++$$$$$$###########@@@@@$$$$$$$$$$$$$$$$$&&&&&@@@@@@XXXXXXXXXXXXXXXX@@@@@@@@@@@......*****======*****======...........;;;;;%%%%%%+++++$$$$$$$$$$$@@@@@@ooooo$$$$$$@@@@@@@@@@@=====%%%%%%+++++######ooooooooooo&&&&&&",
"&&oooooooooooXXXXXXoooooooooooXXXXX===========......XXXXXXXXXXX=====;;;;;;;;;;;%%%%%%+++++$$$$$$@@@@@@@@@@@&&&&&oooooo&&&&&%%%%%%+++++$$$$$$###########@@@@@$$$$$$$$$$$$$$$$$&&&&&@@@@@@XXXXXXXXXXXXXXXX@@@@@@@@@@@......*****======*****======...........;;;;;%%%%%%+++++$$$$$$$$$$$@@@@@@ooooo$$$$$$@@@@@@@@@@@=====%%%%%%+++++######ooooooooooo&&&&&&",
"&&oooooooooooXXXXXXoooooooooooXXXXX===========......XXXXXXXXXXX=====;;;;;;;;;;;%%%%%%+++++$$$$$$@@@@@@@@@@@&&&&&oooooo&&&&&%%%%%%+++++$$$$$$###########@@@@@$$$$$$$$$$$$$$$$$&&&&&@@@@@@XXXXXXXXXXXXXXXX@@@@@@@@@@@......*****======*****======...........;;;;;%%%%%%+++++$$$$$$$$$$$@@@@@@ooooo$$$$$$@@@@@@@@@@@=====%%%%%%+++++######ooooooooooo&&&&&&",
"&&oooooooooooXXXXXXoooooooooooXXXXX===========......XXXXXXXXXXX=====;;;;;;;;;;;%%%%%%+++++$$$$$$@@@@@@@@@@@&&&&&oooooo&&&&&%%%%%%+++++$$$$$$###########@@@@@$$$$$$$$$$$$$$$$$&&&&&@@@@@@XXXXXXXXXXXXXXXX@@@@@@@@@@@......*****======*****======...........;;;;;%%%%%%+++++$$$$$$$$$$$@@@@@@ooooo$$$$$$@@@@@@@@@@@=====%%%%%%+++++######ooooooooooo&&&&&&",
"&&oooooooooooXXXXXXoooooooooooXXXXX===========......XXXXXXXXXXX=====;;;;;;;;;;;%%%%%%+++++$$$$$$@@@@@@@@@@@&&&&&oooooo&&&&&%%%%%%+++++$$$$$$###########@@@@@$$$$$$$$$$$$$$$$$&&&&&@@@@@@XXXXXXXXXXXXXXXX@@@@@@@@@@@......*****======*****======...........;;;;;%%%%%%+++++$$$$$$$$$$$@@@@@@ooooo$$$$$$@@@@@@@@@@@=====%%%%%%+++++######ooooooooooo&&&&&&",
"&&oooooo@@@@@&&&&&&.....XXXXXXXXXXX......=====......XXXXXXXXXXX=====******;;;;;%%%%%%+++++$$$$$$@@@@@&&&&&&ooooo......=====%%%%%%+++++$$$$$$#####@@@@@@XXXXX@@@@@@$$$$$$$$$$$@@@@@@@@@@@XXXXX......XXXXX======................******;;;;;;;;;;;*****;;;;;;;;;;;%%%%%%+++++$$$$$$$$$$$------ooooo$$$$$$$$$$$&&&&&&=====%%%%%%+++++######oooooooooooXXXXXX",
"&&oooooo@@@@@&&&&&&.....XXXXXXXXXXX......=====......XXXXXXXXXXX=====******;;;;;%%%%%%+++++$$$$$$@@@@@&&&&&&ooooo......=====%%%%%%+++++$$$$$$#####@@@@@@XXXXX@@@@@@$$$$$$$$$$$@@@@@@@@@@@XXXXX......XXXXX======................******;;;;;;;;;;;*****;;;;;;;;;;;%%%%%%+++++$$$$$$$$$$$------ooooo$$$$$$$$$$$&&&&&&=====%%%%%%+++++######oooooooooooXXXXXX",
"&&oooooo@@@@@&&&&&&.....XXXXXXXXXXX......=====......XXXXXXXXXXX=====******;;;;;%%%%%%+++++$$$$$$@@@@@&&&&&&ooooo......=====%%%%%%+++++$$$$$$#####@@@@@@XXXXX@@@@@@$$$$$$$$$$$@@@@@@@@@@@XXXXX......XXXXX======................******;;;;;;;;;;;*****;;;;;;;;;;;%%%%%%+++++$$$$$$$$$$$------ooooo$$$$$$$$$$$&&&&&&=====%%%%%%+++++######oooooooooooXXXXXX",
"&&oooooo@@@@@&&&&&&.....XXXXXXXXXXX......=====......XXXXXXXXXXX=====******;;;;;%%%%%%+++++$$$$$$@@@@@&&&&&&ooooo......=====%%%%%%+++++$$$$$$#####@@@@@@XXXXX@@@@@@$$$$$$$$$$$@@@@@@@@@@@XXXXX......XXXXX======................******;;;;;;;;;;;*****;;;;;;;;;;;%%%%%%+++++$$$$$$$$$$$------ooooo$$$$$$$$$$$&&&&&&=====%%%%%%+++++######oooooooooooXXXXXX",
"&&oooooo@@@@@&&&&&&.....XXXXXXXXXXX......=====......XXXXXXXXXXX=====******;;;;;%%%%%%+++++$$$$$$@@@@@&&&&&&ooooo......=====%%%%%%+++++$$$$$$#####@@@@@@XXXXX@@@@@@$$$$$$$$$$$@@@@@@@@@@@XXXXX......XXXXX======................******;;;;;;;;;;;*****;;;;;;;;;;;%%%%%%+++++$$$$$$$$$$$------ooooo$$$$$$$$$$$&&&&&&=====%%%%%%+++++######oooooooooooXXXXXX",
"&&oooooo@@@@@&&&&&&.....XXXXXXXXXXX......=====......XXXXXXXXXXX=====******;;;;;%%%%%%+++++$$$$$$@@@@@&&&&&&ooooo......=====%%%%%%+++++$$$$$$#####@@@@@@XXXXX@@@@@@$$$$$$$$$$$@@@@@@@@@@@XXXXX......XXXXX======................******;;;;;;;;;;;*****;;;;;;;;;;;%%%%%%+++++$$$$$$$$$$$------ooooo$$$$$$$$$$$&&&&&&=====%%%%%%+++++######oooooooooooXXXXXX",
"&&@@@@@@&&&&&oooooooooooXXXXXX===========*****,,,,,,,,,,,......=====******;;;;;%%%%%%+++++$$$$$$$$$$$oooooo$$$$$oooooo*****%%%%%%+++++$$$$$$@@@@@@@@@@@#####XXXXXX@@@@@@@@@@@&&&&&XXXXXX.....XXXXXXXXXXX===========...........======;;;;;;;;;;;===========;;;;;%%%%%%+++++$$$$$$@@@@@------@@@@@oooooo&&&&&&&&&&&*****%%%%%%+++++###########XXXXXXXXXXXX",
"&&@@@@@@&&&&&oooooooooooXXXXXX===========*****,,,,,,,,,,,......=====******;;;;;%%%%%%+++++$$$$$$$$$$$oooooo$$$$$oooooo*****%%%%%%+++++$$$$$$@@@@@@@@@@@#####XXXXXX@@@@@@@@@@@&&&&&XXXXXX.....XXXXXXXXXXX===========...........======;;;;;;;;;;;===========;;;;;%%%%%%+++++$$$$$$@@@@@------@@@@@oooooo&&&&&&&&&&&*****%%%%%%+++++###########XXXXXXXXXXXX",
"&&@@@@@@&&&&&oooooooooooXXXXXX===========*****,,,,,,,,,,,......=====******;;;;;%%%%%%+++++$$$$$$$$$$$oooooo$$$$$oooooo*****%%%%%%+++++$$$$$$@@@@@@@@@@@#####XXXXXX@@@@@@@@@@@&&&&&XXXXXX.....XXXXXXXXXXX===========...........======;;;;;;;;;;;===========;;;;;%%%%%%+++++$$$$$$@@@@@------@@@@@oooooo&&&&&&&&&&&*****%%%%%%+++++###########XXXXXXXXXXXX",
"&&@@@@@@&&&&&oooooooooooXXXXXX===========*****,,,,,,,,,,,......=====******;;;;;%%%%%%+++++$$$$$$$$$$$oooooo$$$$$oooooo*****%%%%%%+++++$$$$$$@@@@@@@@@@@#####XXXXXX@@@@@@@@@@@&&&&&XXXXXX.....XXXXXXXXXXX===========...........======;;;;;;;;;;;===========;;;;;%%%%%%+++++$$$$$$@@@@@------@@@@@oooooo&&&&&&&&&&&*****%%%%%%+++++###########XXXXXXXXXXXX",
"&&@@@@@@&&&&&oooooooooooXXXXXX===========*****,,,,,,,,,,,......=====******;;;;;%%%%%%+++++$$$$$$$$$$$oooooo$$$$$oooooo*****%%%%%%+++++$$$$$$@@@@@@@@@@@#####XXXXXX@@@@@@@@@@@&&&&&XXXXXX.....XXXXXXXXXXX===========...........======;;;;;;;;;;;===========;;;;;%%%%%%+++++$$$$$$@@@@@------@@@@@oooooo&&&&&&&&&&&*****%%%%%%+++++###########XXXXXXXXXXXX",
"XX&&&&&&&&&&&ooooooXXXXXXXXXXXXXXXXXXXXXX*****,,,,,,,,,,,***********======;;;;;%%%%%%+++++$$$$$$$$$$$$$$$$$...........=====%%%%%%+++++$$$$$$XXXXX######XXXXX@@@@@@@@@@@XXXXXXXXXXX......=====XXXXXXXXXXXXXXXXX===========***********================,,,,,,;;;;;%%%%%%+++++$$$$$$-----@@@@@@@@@@@&&&&&&*****......=====%%%%%%+++++######@@@@@@@@@@@&&&&&&",
"XX&&&&&&&&&&&ooooooXXXXXXXXXXXXXXXXXXXXXX*****,,,,,,,,,,,***********======;;;;;%%%%%%+++++$$$$$$$$$$$$$$$$$...........=====%%%%%%+++++$$$$$$XXXXX######XXXXX@@@@@@@@@@@XXXXXXXXXXX......=====XXXXXXXXXXXXXXXXX===========***********================,,,,,,;;;;;%%%%%%+++++$$$$$$-----@@@@@@@@@@@&&&&&&*****......=====%%%%%%+++++######@@@@@@@@@@@&&&&&&",
"XX&&&&&&&&&&&ooooooXXXXXXXXXXXXXXXXXXXXXX*****,,,,,,,,,,,***********======;;;;;%%%%%%+++++$$$$$$$$$$$$$$$$$...........=====%%%%%%+++++$$$$$$XXXXX######XXXXX@@@@@@@@@@@XXXXXXXXXXX......=====XXXXXXXXXXXXXXXXX===========***********================,,,,,,;;;;;%%%%%%+++++$$$$$$-----@@@@@@@@@@@&&&&&&*****......=====%%%%%%+++++######@@@@@@@@@@@&&&&&&",
"XX&&&&&&&&&&&ooooooXXXXXXXXXXXXXXXXXXXXXX*****,,,,,,,,,,,***********======;;;;;%%%%%%+++++$$$$$$$$$$$$$$$$$...........=====%%%%%%+++++$$$$$$XXXXX######XXXXX@@@@@@@@@@@XXXXXXXXXXX......=====XXXXXXXXXXXXXXXXX===========***********================,,,,,,;;;;;%%%%%%+++++$$$$$$-----@@@@@@@@@@@&&&&&&*****......=====%%%%%%+++++######@@@@@@@@@@@&&&&&&",
"XX&&&&&&&&&&&ooooooXXXXXXXXXXXXXXXXXXXXXX*****,,,,,,,,,,,***********======;;;;;%%%%%%+++++$$$$$$$$$$$$$$$$$...........=====%%%%%%+++++$$$$$$XXXXX######XXXXX@@@@@@@@@@@XXXXXXXXXXX......=====XXXXXXXXXXXXXXXXX===========***********================,,,,,,;;;;;%%%%%%+++++$$$$$$-----@@@@@@@@@@@&&&&&&*****......=====%%%%%%+++++######@@@@@@@@@@@&&&&&&",
"XX&&&&&&&&&&&ooooooXXXXXXXXXXXXXXXXXXXXXX*****,,,,,,,,,,,***********======;;;;;%%%%%%+++++$$$$$$$$$$$$$$$$$...........=====%%%%%%+++++$$$$$$XXXXX######XXXXX@@@@@@@@@@@XXXXXXXXXXX......=====XXXXXXXXXXXXXXXXX===========***********================,,,,,,;;;;;%%%%%%+++++$$$$$$-----@@@@@@@@@@@&&&&&&*****......=====%%%%%%+++++######@@@@@@@@@@@&&&&&&",
"XXoooooooooooXXXXXX.....XXXXXXXXXXXXXXXXX***********=====**********************%%%%%%+++++$$$$$$$$$$$$$$$$$@@@@@***********%%%%%%+++++$$$$$$@@@@@######XXXXX@@@@@@@@@@@......===========*****XXXXXXXXXXXXXXXXX=====**********************,,,,,,,,,,,,,,,,,;;;;;%%%%%%+++++$$$$$$-----@@@@@@&&&&&XXXXXX&&&&&......*****%%%%%%+++++######@@@@@@@@@@@&&&&&o",
"XXoooooooooooXXXXXX.....XXXXXXXXXXXXXXXXX***********=====**********************%%%%%%+++++$$$$$$$$$$$$$$$$$@@@@@***********%%%%%%+++++$$$$$$@@@@@######XXXXX@@@@@@@@@@@......===========*****XXXXXXXXXXXXXXXXX=====**********************,,,,,,,,,,,,,,,,,;;;;;%%%%%%+++++$$$$$$-----@@@@@@&&&&&XXXXXX&&&&&......*****%%%%%%+++++######@@@@@@@@@@@&&&&&o",
"XXoooooooooooXXXXXX.....XXXXXXXXXXXXXXXXX***********=====**********************%%%%%%+++++$$$$$$$$$$$$$$$$$@@@@@***********%%%%%%+++++$$$$$$@@@@@######XXXXX@@@@@@@@@@@......===========*****XXXXXXXXXXXXXXXXX=====**********************,,,,,,,,,,,,,,,,,;;;;;%%%%%%+++++$$$$$$-----@@@@@@&&&&&XXXXXX&&&&&......*****%%%%%%+++++######@@@@@@@@@@@&&&&&o",
"XXoooooooooooXXXXXX.....XXXXXXXXXXXXXXXXX***********=====**********************%%%%%%+++++$$$$$$$$$$$$$$$$$@@@@@***********%%%%%%+++++$$$$$$@@@@@######XXXXX@@@@@@@@@@@......===========*****XXXXXXXXXXXXXXXXX=====**********************,,,,,,,,,,,,,,,,,;;;;;%%%%%%+++++$$$$$$-----@@@@@@&&&&&XXXXXX&&&&&......*****%%%%%%+++++######@@@@@@@@@@@&&&&&o",
"XXoooooooooooXXXXXX.....XXXXXXXXXXXXXXXXX***********=====**********************%%%%%%+++++$$$$$$$$$$$$$$$$$@@@@@***********%%%%%%+++++$$$$$$@@@@@######XXXXX@@@@@@@@@@@......===========*****XXXXXXXXXXXXXXXXX=====**********************,,,,,,,,,,,,,,,,,;;;;;%%%%%%+++++$$$$$$-----@@@@@@&&&&&XXXXXX&&&&&......*****%%%%%%+++++######@@@@@@@@@@@&&&&&o",
"XXoooooo=====......XXXXX======XXXXXXXXXXX*****======*****;;;;;;*****======*****%%%%%%+++++$$$$$$&&&&&&&&&&&*****oooooo=====%%%%%%+++++$$$$$$@@@@@XXXXXX@@@@@@@@@@@XXXXX**********************======================******;;;;;;;;;;;;;;;;;;;;;;;;;;;;;;;;;;;;;;%%%%%%+++++$$$$$$-----@@@@@@XXXXX&&&&&&&&&&&XXXXXX=====%%%%%%+++++######&&&&&@@@@@@@@@@@X",
"XXoooooo=====......XXXXX======XXXXXXXXXXX*****======*****;;;;;;*****======*****%%%%%%+++++$$$$$$&&&&&&&&&&&*****oooooo=====%%%%%%+++++$$$$$$@@@@@XXXXXX@@@@@@@@@@@XXXXX**********************======================******;;;;;;;;;;;;;;;;;;;;;;;;;;;;;;;;;;;;;;%%%%%%+++++$$$$$$-----@@@@@@XXXXX&&&&&&&&&&&XXXXXX=====%%%%%%+++++######&&&&&@@@@@@@@@@@X",
"XXoooooo=====......XXXXX======XXXXXXXXXXX*****======*****;;;;;;*****======*****%%%%%%+++++$$$$$$&&&&&&&&&&&*****oooooo=====%%%%%%+++++$$$$$$@@@@@XXXXXX@@@@@@@@@@@XXXXX**********************======================******;;;;;;;;;;;;;;;;;;;;;;;;;;;;;;;;;;;;;;%%%%%%+++++$$$$$$-----@@@@@@XXXXX&&&&&&&&&&&XXXXXX=====%%%%%%+++++######&&&&&@@@@@@@@@@@X",
"XXoooooo=====......XXXXX======XXXXXXXXXXX*****======*****;;;;;;*****======*****%%%%%%+++++$$$$$$&&&&&&&&&&&*****oooooo=====%%%%%%+++++$$$$$$@@@@@XXXXXX@@@@@@@@@@@XXXXX**********************======================******;;;;;;;;;;;;;;;;;;;;;;;;;;;;;;;;;;;;;;%%%%%%+++++$$$$$$-----@@@@@@XXXXX&&&&&&&&&&&XXXXXX=====%%%%%%+++++######&&&&&@@@@@@@@@@@X",
"XXoooooo=====......XXXXX======XXXXXXXXXXX*****======*****;;;;;;*****======*****%%%%%%+++++$$$$$$&&&&&&&&&&&*****oooooo=====%%%%%%+++++$$$$$$@@@@@XXXXXX@@@@@@@@@@@XXXXX**********************======================******;;;;;;;;;;;;;;;;;;;;;;;;;;;;;;;;;;;;;;%%%%%%+++++$$$$$$-----@@@@@@XXXXX&&&&&&&&&&&XXXXXX=====%%%%%%+++++######&&&&&@@@@@@@@@@@X",
"XXoooooo=====......XXXXX======XXXXXXXXXXX*****======*****;;;;;;*****======*****%%%%%%+++++$$$$$$&&&&&&&&&&&*****oooooo=====%%%%%%+++++$$$$$$@@@@@XXXXXX@@@@@@@@@@@XXXXX**********************======================******;;;;;;;;;;;;;;;;;;;;;;;;;;;;;;;;;;;;;;%%%%%%+++++$$$$$$-----@@@@@@XXXXX&&&&&&&&&&&XXXXXX=====%%%%%%+++++######&&&&&@@@@@@@@@@@X",
"XX&&&&&&XXXXX======XXXXX======.....******=====;;;;;;;;;;;******;;;;;;;;;;;;;;;;%%%%%%+++++$$$$$$&&&&&&&&&&&$$$$$******=====%%%%%%+++++%%%%%%%%%%%%%%%%%%%%%%%%%%%%%%%%%%%%%%%%%%%%%%%%%%%%%%%%%%%%%%%%%%%%%%%%%%%%%%%%%%%%%%%%%%%%%%%%%%%%%%%%%%%%%%%%%%%%%%%%%%%%%%%+++++@@@@@@$$$$$@@@@@@XXXXX======XXXXXXXXXXX=====%%%%%%+++++######&&&&&oooooooooooX",
"XX&&&&&&XXXXX======XXXXX======.....******=====;;;;;;;;;;;******;;;;;;;;;;;;;;;;%%%%%%+++++$$$$$$&&&&&&&&&&&$$$$$******=====%%%%%%+++++%%%%%%%%%%%%%%%%%%%%%%%%%%%%%%%%%%%%%%%%%%%%%%%%%%%%%%%%%%%%%%%%%%%%%%%%%%%%%%%%%%%%%%%%%%%%%%%%%%%%%%%%%%%%%%%%%%%%%%%%%%%%%%%+++++@@@@@@$$$$$@@@@@@XXXXX======XXXXXXXXXXX=====%%%%%%+++++######&&&&&oooooooooooX",
"XX&&&&&&XXXXX======XXXXX======.....******=====;;;;;;;;;;;******;;;;;;;;;;;;;;;;%%%%%%+++++$$$$$$&&&&&&&&&&&$$$$$******=====%%%%%%+++++%%%%%%%%%%%%%%%%%%%%%%%%%%%%%%%%%%%%%%%%%%%%%%%%%%%%%%%%%%%%%%%%%%%%%%%%%%%%%%%%%%%%%%%%%%%%%%%%%%%%%%%%%%%%%%%%%%%%%%%%%%%%%%%+++++@@@@@@$$$$$@@@@@@XXXXX======XXXXXXXXXXX=====%%%%%%+++++######&&&&&oooooooooooX",
"XX&&&&&&XXXXX======XXXXX======.....******=====;;;;;;;;;;;******;;;;;;;;;;;;;;;;%%%%%%+++++$$$$$$&&&&&&&&&&&$$$$$******=====%%%%%%+++++%%%%%%%%%%%%%%%%%%%%%%%%%%%%%%%%%%%%%%%%%%%%%%%%%%%%%%%%%%%%%%%%%%%%%%%%%%%%%%%%%%%%%%%%%%%%%%%%%%%%%%%%%%%%%%%%%%%%%%%%%%%%%%%+++++@@@@@@$$$$$@@@@@@XXXXX======XXXXXXXXXXX=====%%%%%%+++++######&&&&&oooooooooooX",
"XX&&&&&&XXXXX======XXXXX======.....******=====;;;;;;;;;;;******;;;;;;;;;;;;;;;;%%%%%%+++++$$$$$$&&&&&&&&&&&$$$$$******=====%%%%%%+++++%%%%%%%%%%%%%%%%%%%%%%%%%%%%%%%%%%%%%%%%%%%%%%%%%%%%%%%%%%%%%%%%%%%%%%%%%%%%%%%%%%%%%%%%%%%%%%%%%%%%%%%%%%%%%%%%%%%%%%%%%%%%%%%+++++@@@@@@$$$$$@@@@@@XXXXX======XXXXXXXXXXX=====%%%%%%+++++######&&&&&oooooooooooX",
"XXoooooo&&&&&oooooo.....XXXXXX.....*****************;;;;;======;;;;;******;;;;;%%%%%%+++++$$$$$$$$$$$oooooo$$$$$oooooo*****%%%%%%+++++++++++++++++++++++++++++++++++++++++++++++++++++++++++++++++++++++++++++++++++++++++++++++++++++++++++++++++++++++++++++++++++++++++@@@@@@$$$$$$$$$$$@@@@@XXXXXX*****======;;;;;%%%%%%+++++###########oooooooooooX",
"XXoooooo&&&&&oooooo.....XXXXXX.....*****************;;;;;======;;;;;******;;;;;%%%%%%+++++$$$$$$$$$$$oooooo$$$$$oooooo*****%%%%%%+++++++++++++++++++++++++++++++++++++++++++++++++++++++++++++++++++++++++++++++++++++++++++++++++++++++++++++++++++++++++++++++++++++++++@@@@@@$$$$$$$$$$$@@@@@XXXXXX*****======;;;;;%%%%%%+++++###########oooooooooooX",
"XXoooooo&&&&&oooooo.....XXXXXX.....*****************;;;;;======;;;;;******;;;;;%%%%%%+++++$$$$$$$$$$$oooooo$$$$$oooooo*****%%%%%%+++++++++++++++++++++++++++++++++++++++++++++++++++++++++++++++++++++++++++++++++++++++++++++++++++++++++++++++++++++++++++++++++++++++++@@@@@@$$$$$$$$$$$@@@@@XXXXXX*****======;;;;;%%%%%%+++++###########oooooooooooX",
"XXoooooo&&&&&oooooo.....XXXXXX.....*****************;;;;;======;;;;;******;;;;;%%%%%%+++++$$$$$$$$$$$oooooo$$$$$oooooo*****%%%%%%+++++++++++++++++++++++++++++++++++++++++++++++++++++++++++++++++++++++++++++++++++++++++++++++++++++++++++++++++++++++++++++++++++++++++@@@@@@$$$$$$$$$$$@@@@@XXXXXX*****======;;;;;%%%%%%+++++###########oooooooooooX",
"XXoooooo&&&&&oooooo.....XXXXXX.....*****************;;;;;======;;;;;******;;;;;%%%%%%+++++$$$$$$$$$$$oooooo$$$$$oooooo*****%%%%%%+++++++++++++++++++++++++++++++++++++++++++++++++++++++++++++++++++++++++++++++++++++++++++++++++++++++++++++++++++++++++++++++++++++++++@@@@@@$$$$$$$$$$$@@@@@XXXXXX*****======;;;;;%%%%%%+++++###########oooooooooooX",
"XXoooooo&&&&&oooooo.....XXXXXX.....*****************;;;;;======;;;;;******;;;;;%%%%%%+++++$$$$$$$$$$$oooooo$$$$$oooooo*****%%%%%%+++++++++++++++++++++++++++++++++++++++++++++++++++++++++++++++++++++++++++++++++++++++++++++++++++++++++++++++++++++++++++++++++++++++++@@@@@@$$$$$$$$$$$@@@@@XXXXXX*****======;;;;;%%%%%%+++++###########oooooooooooX",
"XX&&&&&&oooooXXXXXX=====......XXXXX......;;;;;;;;;;;;;;;;;;;;;;;;;;;;;;;;;;;;;;%%%%%%+++++$$$$$$$$$$$ooooooooooo******=====%%%%%%+++++@@@@@@@@@@@@@@@@@@@@@@@@@@@@@@@@@@@@@@@@@@@@@@@@@@@@@@@@@@@@@@@@@@@@@@@@@@@@@@@@@@@@@@@@@@@@@@@@@@@@@@@@@@@@@@@@@@@@@@@@@+++++++++++@@@@@@$$$$$@@@@@@#####@@@@@@XXXXX======;;;;;%%%%%%+++++######&&&&&&&&&&&XXXXXo",
"XX&&&&&&oooooXXXXXX=====......XXXXX......;;;;;;;;;;;;;;;;;;;;;;;;;;;;;;;;;;;;;;%%%%%%+++++$$$$$$$$$$$ooooooooooo******=====%%%%%%+++++@@@@@@@@@@@@@@@@@@@@@@@@@@@@@@@@@@@@@@@@@@@@@@@@@@@@@@@@@@@@@@@@@@@@@@@@@@@@@@@@@@@@@@@@@@@@@@@@@@@@@@@@@@@@@@@@@@@@@@@@@+++++++++++@@@@@@$$$$$@@@@@@#####@@@@@@XXXXX======;;;;;%%%%%%+++++######&&&&&&&&&&&XXXXXo",
"XX&&&&&&oooooXXXXXX=====......XXXXX......;;;;;;;;;;;;;;;;;;;;;;;;;;;;;;;;;;;;;;%%%%%%+++++$$$$$$$$$$$ooooooooooo******=====%%%%%%+++++@@@@@@@@@@@@@@@@@@@@@@@@@@@@@@@@@@@@@@@@@@@@@@@@@@@@@@@@@@@@@@@@@@@@@@@@@@@@@@@@@@@@@@@@@@@@@@@@@@@@@@@@@@@@@@@@@@@@@@@@@+++++++++++@@@@@@$$$$$@@@@@@#####@@@@@@XXXXX======;;;;;%%%%%%+++++######&&&&&&&&&&&XXXXXo",
"XX&&&&&&oooooXXXXXX=====......XXXXX......;;;;;;;;;;;;;;;;;;;;;;;;;;;;;;;;;;;;;;%%%%%%+++++$$$$$$$$$$$ooooooooooo******=====%%%%%%+++++@@@@@@@@@@@@@@@@@@@@@@@@@@@@@@@@@@@@@@@@@@@@@@@@@@@@@@@@@@@@@@@@@@@@@@@@@@@@@@@@@@@@@@@@@@@@@@@@@@@@@@@@@@@@@@@@@@@@@@@@@+++++++++++@@@@@@$$$$$@@@@@@#####@@@@@@XXXXX======;;;;;%%%%%%+++++######&&&&&&&&&&&XXXXXo",
"XX&&&&&&oooooXXXXXX=====......XXXXX......;;;;;;;;;;;;;;;;;;;;;;;;;;;;;;;;;;;;;;%%%%%%+++++$$$$$$$$$$$ooooooooooo******=====%%%%%%+++++@@@@@@@@@@@@@@@@@@@@@@@@@@@@@@@@@@@@@@@@@@@@@@@@@@@@@@@@@@@@@@@@@@@@@@@@@@@@@@@@@@@@@@@@@@@@@@@@@@@@@@@@@@@@@@@@@@@@@@@@@+++++++++++@@@@@@$$$$$@@@@@@#####@@@@@@XXXXX======;;;;;%%%%%%+++++######&&&&&&&&&&&XXXXXo",
"%%%%%%%%%%%%%%%%%%%%%%%%%%%%%%%%%%%%%%%%%%%%%%%%%%%%%%%%%%%%%%%%%%%%%%%%%%%%%%%%%%%%%+++++$$$$$$$$$$$XXXXXXXXXXX***********%%%%%%+++++@@@@@@#################################$$$$$@@@@@@@@@@@@@@@@@@@@@@@@@@@@@@@@@@@@@@@&&&&&ooooooXXXXX######&&&&&@@@@@@XXXXX%%%%%%+++++@@@@@@-----@@@@@@@@@@@######ooooo******;;;;;%%%%%%+++++%%%%%%%%%%%%%%%%%%%%%%%",
"%%%%%%%%%%%%%%%%%%%%%%%%%%%%%%%%%%%%%%%%%%%%%%%%%%%%%%%%%%%%%%%%%%%%%%%%%%%%%%%%%%%%%+++++$$$$$$$$$$$XXXXXXXXXXX***********%%%%%%+++++@@@@@@#################################$$$$$@@@@@@@@@@@@@@@@@@@@@@@@@@@@@@@@@@@@@@@&&&&&ooooooXXXXX######&&&&&@@@@@@XXXXX%%%%%%+++++@@@@@@-----@@@@@@@@@@@######ooooo******;;;;;%%%%%%+++++%%%%%%%%%%%%%%%%%%%%%%%",
"%%%%%%%%%%%%%%%%%%%%%%%%%%%%%%%%%%%%%%%%%%%%%%%%%%%%%%%%%%%%%%%%%%%%%%%%%%%%%%%%%%%%%+++++$$$$$$$$$$$XXXXXXXXXXX***********%%%%%%+++++@@@@@@#################################$$$$$@@@@@@@@@@@@@@@@@@@@@@@@@@@@@@@@@@@@@@@&&&&&ooooooXXXXX######&&&&&@@@@@@XXXXX%%%%%%+++++@@@@@@-----@@@@@@@@@@@######ooooo******;;;;;%%%%%%+++++%%%%%%%%%%%%%%%%%%%%%%%",
"%%%%%%%%%%%%%%%%%%%%%%%%%%%%%%%%%%%%%%%%%%%%%%%%%%%%%%%%%%%%%%%%%%%%%%%%%%%%%%%%%%%%%+++++$$$$$$$$$$$XXXXXXXXXXX***********%%%%%%+++++@@@@@@#################################$$$$$@@@@@@@@@@@@@@@@@@@@@@@@@@@@@@@@@@@@@@@&&&&&ooooooXXXXX######&&&&&@@@@@@XXXXX%%%%%%+++++@@@@@@-----@@@@@@@@@@@######ooooo******;;;;;%%%%%%+++++%%%%%%%%%%%%%%%%%%%%%%%",
"%%%%%%%%%%%%%%%%%%%%%%%%%%%%%%%%%%%%%%%%%%%%%%%%%%%%%%%%%%%%%%%%%%%%%%%%%%%%%%%%%%%%%+++++$$$$$$$$$$$XXXXXXXXXXX***********%%%%%%+++++@@@@@@#################################$$$$$@@@@@@@@@@@@@@@@@@@@@@@@@@@@@@@@@@@@@@@&&&&&ooooooXXXXX######&&&&&@@@@@@XXXXX%%%%%%+++++@@@@@@-----@@@@@@@@@@@######ooooo******;;;;;%%%%%%+++++%%%%%%%%%%%%%%%%%%%%%%%",
"%%%%%%%%%%%%%%%%%%%%%%%%%%%%%%%%%%%%%%%%%%%%%%%%%%%%%%%%%%%%%%%%%%%%%%%%%%%%%%%%%%%%%+++++$$$$$$$$$$$XXXXXXXXXXX***********%%%%%%+++++@@@@@@#################################$$$$$@@@@@@@@@@@@@@@@@@@@@@@@@@@@@@@@@@@@@@@&&&&&ooooooXXXXX######&&&&&@@@@@@XXXXX%%%%%%+++++@@@@@@-----@@@@@@@@@@@######ooooo******;;;;;%%%%%%+++++%%%%%%%%%%%%%%%%%%%%%%%",
"++++++++++++++++++++++++***********...........oooooooooooooooooXXXXX......=====+++++++++++@@@@@@$$$$$XXXXXXXXXXXXXXXXX*****%%%%%%+++++$$$$$$#####-----------######@@@@@@@@@@@$$$$$$$$$$$-----######&&&&&&&&&&&@@@@@@@@@@@&&&&&XXXXXXoooooXXXXXXooooo&&&&&&XXXXX%%%%%%+++++@@@@@@@@@@@@@@@@@@@@@@ooooooooooo******;;;;;%%%%%%+++++oooooo&&&&&ooooooooooo%",
"++++++++++++++++++++++++***********...........oooooooooooooooooXXXXX......=====+++++++++++@@@@@@$$$$$XXXXXXXXXXXXXXXXX*****%%%%%%+++++$$$$$$#####-----------######@@@@@@@@@@@$$$$$$$$$$$-----######&&&&&&&&&&&@@@@@@@@@@@&&&&&XXXXXXoooooXXXXXXooooo&&&&&&XXXXX%%%%%%+++++@@@@@@@@@@@@@@@@@@@@@@ooooooooooo******;;;;;%%%%%%+++++oooooo&&&&&ooooooooooo%",
"++++++++++++++++++++++++***********...........oooooooooooooooooXXXXX......=====+++++++++++@@@@@@$$$$$XXXXXXXXXXXXXXXXX*****%%%%%%+++++$$$$$$#####-----------######@@@@@@@@@@@$$$$$$$$$$$-----######&&&&&&&&&&&@@@@@@@@@@@&&&&&XXXXXXoooooXXXXXXooooo&&&&&&XXXXX%%%%%%+++++@@@@@@@@@@@@@@@@@@@@@@ooooooooooo******;;;;;%%%%%%+++++oooooo&&&&&ooooooooooo%",
"++++++++++++++++++++++++***********...........oooooooooooooooooXXXXX......=====+++++++++++@@@@@@$$$$$XXXXXXXXXXXXXXXXX*****%%%%%%+++++$$$$$$#####-----------######@@@@@@@@@@@$$$$$$$$$$$-----######&&&&&&&&&&&@@@@@@@@@@@&&&&&XXXXXXoooooXXXXXXooooo&&&&&&XXXXX%%%%%%+++++@@@@@@@@@@@@@@@@@@@@@@ooooooooooo******;;;;;%%%%%%+++++oooooo&&&&&ooooooooooo%",
"++++++++++++++++++++++++***********...........oooooooooooooooooXXXXX......=====+++++++++++@@@@@@$$$$$XXXXXXXXXXXXXXXXX*****%%%%%%+++++$$$$$$#####-----------######@@@@@@@@@@@$$$$$$$$$$$-----######&&&&&&&&&&&@@@@@@@@@@@&&&&&XXXXXXoooooXXXXXXooooo&&&&&&XXXXX%%%%%%+++++@@@@@@@@@@@@@@@@@@@@@@ooooooooooo******;;;;;%%%%%%+++++oooooo&&&&&ooooooooooo%",
"++&&&&&&@@@@@$$$$$$############################################################+++++++++++@@@@@@@@@@@ooooooXXXXXXXXXXX=====%%%%%%+++++$$$$$$#####-----------------$$$$$$$$$$$$$$$$$$$$$$###########XXXXXXXXXXXXXXXXXXXXXX@@@@@@@@@@@@@@@@&&&&&&&&&&&XXXXXX=====%%%%%%+++++@@@@@@-----@@@@@@XXXXX......***********;;;;;%%%%%%+++++&&&&&&&&&&&XXXXXXXXXXX%",
"++&&&&&&@@@@@$$$$$$############################################################+++++++++++@@@@@@@@@@@ooooooXXXXXXXXXXX=====%%%%%%+++++$$$$$$#####-----------------$$$$$$$$$$$$$$$$$$$$$$###########XXXXXXXXXXXXXXXXXXXXXX@@@@@@@@@@@@@@@@&&&&&&&&&&&XXXXXX=====%%%%%%+++++@@@@@@-----@@@@@@XXXXX......***********;;;;;%%%%%%+++++&&&&&&&&&&&XXXXXXXXXXX%",
"++&&&&&&@@@@@$$$$$$############################################################+++++++++++@@@@@@@@@@@ooooooXXXXXXXXXXX=====%%%%%%+++++$$$$$$#####-----------------$$$$$$$$$$$$$$$$$$$$$$###########XXXXXXXXXXXXXXXXXXXXXX@@@@@@@@@@@@@@@@&&&&&&&&&&&XXXXXX=====%%%%%%+++++@@@@@@-----@@@@@@XXXXX......***********;;;;;%%%%%%+++++&&&&&&&&&&&XXXXXXXXXXX%",
"++&&&&&&@@@@@$$$$$$############################################################+++++++++++@@@@@@@@@@@ooooooXXXXXXXXXXX=====%%%%%%+++++$$$$$$#####-----------------$$$$$$$$$$$$$$$$$$$$$$###########XXXXXXXXXXXXXXXXXXXXXX@@@@@@@@@@@@@@@@&&&&&&&&&&&XXXXXX=====%%%%%%+++++@@@@@@-----@@@@@@XXXXX......***********;;;;;%%%%%%+++++&&&&&&&&&&&XXXXXXXXXXX%",
"++&&&&&&@@@@@$$$$$$############################################################+++++++++++@@@@@@@@@@@ooooooXXXXXXXXXXX=====%%%%%%+++++$$$$$$#####-----------------$$$$$$$$$$$$$$$$$$$$$$###########XXXXXXXXXXXXXXXXXXXXXX@@@@@@@@@@@@@@@@&&&&&&&&&&&XXXXXX=====%%%%%%+++++@@@@@@-----@@@@@@XXXXX......***********;;;;;%%%%%%+++++&&&&&&&&&&&XXXXXXXXXXX%",
"++&&&&&&@@@@@$$$$$$############################################################+++++++++++@@@@@@@@@@@ooooooXXXXXXXXXXX=====%%%%%%+++++$$$$$$#####-----------------$$$$$$$$$$$$$$$$$$$$$$###########XXXXXXXXXXXXXXXXXXXXXX@@@@@@@@@@@@@@@@&&&&&&&&&&&XXXXXX=====%%%%%%+++++@@@@@@-----@@@@@@XXXXX......***********;;;;;%%%%%%+++++&&&&&&&&&&&XXXXXXXXXXX%",
"++@@@@@@###########################$$$$$$@@@@@$$$$$$#####@@@@@@@@@@@@@@@@@#####%%%%%%+++++@@@@@@@@@@@&&&&&&*****===========%%%%%%+++++$$$$$$######################>>>>>>>>>>>$$$$$$$$$$$$$$$$XXXXXXXXXXXXXXXXXXXXXXXXXXXXXXXXX&&&&&&XXXXXXXXXXX.....&&&&&&=====%%%%%%+++++@@@@@@$$$$$oooooo.....======*****......;;;;;%%%%%%+++++&&&&&&XXXXX...........%",
"++@@@@@@###########################$$$$$$@@@@@$$$$$$#####@@@@@@@@@@@@@@@@@#####%%%%%%+++++@@@@@@@@@@@&&&&&&*****===========%%%%%%+++++$$$$$$######################>>>>>>>>>>>$$$$$$$$$$$$$$$$XXXXXXXXXXXXXXXXXXXXXXXXXXXXXXXXX&&&&&&XXXXXXXXXXX.....&&&&&&=====%%%%%%+++++@@@@@@$$$$$oooooo.....======*****......;;;;;%%%%%%+++++&&&&&&XXXXX...........%",
"++@@@@@@###########################$$$$$$@@@@@$$$$$$#####@@@@@@@@@@@@@@@@@#####%%%%%%+++++@@@@@@@@@@@&&&&&&*****===========%%%%%%+++++$$$$$$######################>>>>>>>>>>>$$$$$$$$$$$$$$$$XXXXXXXXXXXXXXXXXXXXXXXXXXXXXXXXX&&&&&&XXXXXXXXXXX.....&&&&&&=====%%%%%%+++++@@@@@@$$$$$oooooo.....======*****......;;;;;%%%%%%+++++&&&&&&XXXXX...........%",
"++@@@@@@###########################$$$$$$@@@@@$$$$$$#####@@@@@@@@@@@@@@@@@#####%%%%%%+++++@@@@@@@@@@@&&&&&&*****===========%%%%%%+++++$$$$$$######################>>>>>>>>>>>$$$$$$$$$$$$$$$$XXXXXXXXXXXXXXXXXXXXXXXXXXXXXXXXX&&&&&&XXXXXXXXXXX.....&&&&&&=====%%%%%%+++++@@@@@@$$$$$oooooo.....======*****......;;;;;%%%%%%+++++&&&&&&XXXXX...........%",
"++@@@@@@###########################$$$$$$@@@@@$$$$$$#####@@@@@@@@@@@@@@@@@#####%%%%%%+++++@@@@@@@@@@@&&&&&&*****===========%%%%%%+++++$$$$$$######################>>>>>>>>>>>$$$$$$$$$$$$$$$$XXXXXXXXXXXXXXXXXXXXXXXXXXXXXXXXX&&&&&&XXXXXXXXXXX.....&&&&&&=====%%%%%%+++++@@@@@@$$$$$oooooo.....======*****......;;;;;%%%%%%+++++&&&&&&XXXXX...........%",
"++@@@@@@#####$$$$$$$$$$$>>>>>>>>>>>$$$$$$################&&&&&&@@@@@###########%%%%%%+++++@@@@@@&&&&&oooooo****************%%%%%%+++++$$$$$$###########$$$$$######>>>>>>>>>>>>>>>>XXXXXX@@@@@&&&&&&XXXXXXXXXXX................ooooooXXXXXXXXXXXXXXXXXXXXXX=====%%%%%%+++++@@@@@@@@@@@......=====......***********;;;;;%%%%%%+++++&&&&&&.....XXXXXX*****%",
"++@@@@@@#####$$$$$$$$$$$>>>>>>>>>>>$$$$$$################&&&&&&@@@@@###########%%%%%%+++++@@@@@@&&&&&oooooo****************%%%%%%+++++$$$$$$###########$$$$$######>>>>>>>>>>>>>>>>XXXXXX@@@@@&&&&&&XXXXXXXXXXX................ooooooXXXXXXXXXXXXXXXXXXXXXX=====%%%%%%+++++@@@@@@@@@@@......=====......***********;;;;;%%%%%%+++++&&&&&&.....XXXXXX*****%",
"++@@@@@@#####$$$$$$$$$$$>>>>>>>>>>>$$$$$$################&&&&&&@@@@@###########%%%%%%+++++@@@@@@&&&&&oooooo****************%%%%%%+++++$$$$$$###########$$$$$######>>>>>>>>>>>>>>>>XXXXXX@@@@@&&&&&&XXXXXXXXXXX................ooooooXXXXXXXXXXXXXXXXXXXXXX=====%%%%%%+++++@@@@@@@@@@@......=====......***********;;;;;%%%%%%+++++&&&&&&.....XXXXXX*****%",
"++@@@@@@#####$$$$$$$$$$$>>>>>>>>>>>$$$$$$################&&&&&&@@@@@###########%%%%%%+++++@@@@@@&&&&&oooooo****************%%%%%%+++++$$$$$$###########$$$$$######>>>>>>>>>>>>>>>>XXXXXX@@@@@&&&&&&XXXXXXXXXXX................ooooooXXXXXXXXXXXXXXXXXXXXXX=====%%%%%%+++++@@@@@@@@@@@......=====......***********;;;;;%%%%%%+++++&&&&&&.....XXXXXX*****%",
"++@@@@@@#####$$$$$$$$$$$>>>>>>>>>>>$$$$$$################&&&&&&@@@@@###########%%%%%%+++++@@@@@@&&&&&oooooo****************%%%%%%+++++$$$$$$###########$$$$$######>>>>>>>>>>>>>>>>XXXXXX@@@@@&&&&&&XXXXXXXXXXX................ooooooXXXXXXXXXXXXXXXXXXXXXX=====%%%%%%+++++@@@@@@@@@@@......=====......***********;;;;;%%%%%%+++++&&&&&&.....XXXXXX*****%",
"++@@@@@@#####$$$$$$$$$$$>>>>>>>>>>>$$$$$$################&&&&&&@@@@@###########%%%%%%+++++@@@@@@&&&&&oooooo****************%%%%%%+++++$$$$$$###########$$$$$######>>>>>>>>>>>>>>>>XXXXXX@@@@@&&&&&&XXXXXXXXXXX................ooooooXXXXXXXXXXXXXXXXXXXXXX=====%%%%%%+++++@@@@@@@@@@@......=====......***********;;;;;%%%%%%+++++&&&&&&.....XXXXXX*****%",
"++#################$$$$$>>>>>>>>>>>######&&&&&&&&&&&@@@@@###########&&&&&&$$$$$%%%%%%+++++%%%%%%%%%%%%%%%%%%%%%%%%%%%%%%%%%%%%%%%+++++@@@@@@$$$$$######$$$$$###########>>>>>>>>>>>######@@@@@@@@@@@&&&&&XXXXXX...........===========*****XXXXXXXXXXXXXXXXX=====%%%%%%+++++ooooooXXXXXXXXXXX****************======;;;;;%%%%%%+++++ooooooXXXXX......*****%",
"++#################$$$$$>>>>>>>>>>>######&&&&&&&&&&&@@@@@###########&&&&&&$$$$$%%%%%%+++++%%%%%%%%%%%%%%%%%%%%%%%%%%%%%%%%%%%%%%%+++++@@@@@@$$$$$######$$$$$###########>>>>>>>>>>>######@@@@@@@@@@@&&&&&XXXXXX...........===========*****XXXXXXXXXXXXXXXXX=====%%%%%%+++++ooooooXXXXXXXXXXX****************======;;;;;%%%%%%+++++ooooooXXXXX......*****%",
"++#################$$$$$>>>>>>>>>>>######&&&&&&&&&&&@@@@@###########&&&&&&$$$$$%%%%%%+++++%%%%%%%%%%%%%%%%%%%%%%%%%%%%%%%%%%%%%%%+++++@@@@@@$$$$$######$$$$$###########>>>>>>>>>>>######@@@@@@@@@@@&&&&&XXXXXX...........===========*****XXXXXXXXXXXXXXXXX=====%%%%%%+++++ooooooXXXXXXXXXXX****************======;;;;;%%%%%%+++++ooooooXXXXX......*****%",
"++#################$$$$$>>>>>>>>>>>######&&&&&&&&&&&@@@@@###########&&&&&&$$$$$%%%%%%+++++%%%%%%%%%%%%%%%%%%%%%%%%%%%%%%%%%%%%%%%+++++@@@@@@$$$$$######$$$$$###########>>>>>>>>>>>######@@@@@@@@@@@&&&&&XXXXXX...........===========*****XXXXXXXXXXXXXXXXX=====%%%%%%+++++ooooooXXXXXXXXXXX****************======;;;;;%%%%%%+++++ooooooXXXXX......*****%",
"++#################$$$$$>>>>>>>>>>>######&&&&&&&&&&&@@@@@###########&&&&&&$$$$$%%%%%%+++++%%%%%%%%%%%%%%%%%%%%%%%%%%%%%%%%%%%%%%%+++++@@@@@@$$$$$######$$$$$###########>>>>>>>>>>>######@@@@@@@@@@@&&&&&XXXXXX...........===========*****XXXXXXXXXXXXXXXXX=====%%%%%%+++++ooooooXXXXXXXXXXX****************======;;;;;%%%%%%+++++ooooooXXXXX......*****%",
"++######@@@@@$$$$$$@@@@@$$$$$$$$$$$$$$$$$&&&&&&&&&&&&&&&&######@@@@@ooooooooooo%%%%%%+++++++++++++++++++++++++++++++++++++++++++++++++@@@@@@@@@@@$$$$$$-----&&&&&&&&&&&######@@@@@######@@@@@@@@@@@@@@@@@@@@@@XXXXXXXXXXX===========XXXXX======*****,,,,,,,,,,,%%%%%%+++++%%%%%%%%%%%%%%%%%%%%%%%%%%%%%%%%%%%%%%%%%%%%%%%%%%+++++oooooo.....******=====%",
"++######@@@@@$$$$$$@@@@@$$$$$$$$$$$$$$$$$&&&&&&&&&&&&&&&&######@@@@@ooooooooooo%%%%%%+++++++++++++++++++++++++++++++++++++++++++++++++@@@@@@@@@@@$$$$$$-----&&&&&&&&&&&######@@@@@######@@@@@@@@@@@@@@@@@@@@@@XXXXXXXXXXX===========XXXXX======*****,,,,,,,,,,,%%%%%%+++++%%%%%%%%%%%%%%%%%%%%%%%%%%%%%%%%%%%%%%%%%%%%%%%%%%+++++oooooo.....******=====%",
"++######@@@@@$$$$$$@@@@@$$$$$$$$$$$$$$$$$&&&&&&&&&&&&&&&&######@@@@@ooooooooooo%%%%%%+++++++++++++++++++++++++++++++++++++++++++++++++@@@@@@@@@@@$$$$$$-----&&&&&&&&&&&######@@@@@######@@@@@@@@@@@@@@@@@@@@@@XXXXXXXXXXX===========XXXXX======*****,,,,,,,,,,,%%%%%%+++++%%%%%%%%%%%%%%%%%%%%%%%%%%%%%%%%%%%%%%%%%%%%%%%%%%+++++oooooo.....******=====%",
"++######@@@@@$$$$$$@@@@@$$$$$$$$$$$$$$$$$&&&&&&&&&&&&&&&&######@@@@@ooooooooooo%%%%%%+++++++++++++++++++++++++++++++++++++++++++++++++@@@@@@@@@@@$$$$$$-----&&&&&&&&&&&######@@@@@######@@@@@@@@@@@@@@@@@@@@@@XXXXXXXXXXX===========XXXXX======*****,,,,,,,,,,,%%%%%%+++++%%%%%%%%%%%%%%%%%%%%%%%%%%%%%%%%%%%%%%%%%%%%%%%%%%+++++oooooo.....******=====%",
"++######@@@@@$$$$$$@@@@@$$$$$$$$$$$$$$$$$&&&&&&&&&&&&&&&&######@@@@@ooooooooooo%%%%%%+++++++++++++++++++++++++++++++++++++++++++++++++@@@@@@@@@@@$$$$$$-----&&&&&&&&&&&######@@@@@######@@@@@@@@@@@@@@@@@@@@@@XXXXXXXXXXX===========XXXXX======*****,,,,,,,,,,,%%%%%%+++++%%%%%%%%%%%%%%%%%%%%%%%%%%%%%%%%%%%%%%%%%%%%%%%%%%+++++oooooo.....******=====%",
"++######@@@@@$$$$$$@@@@@$$$$$$$$$$$$$$$$$&&&&&&&&&&&&&&&&######@@@@@ooooooooooo%%%%%%+++++++++++++++++++++++++++++++++++++++++++++++++@@@@@@@@@@@$$$$$$-----&&&&&&&&&&&######@@@@@######@@@@@@@@@@@@@@@@@@@@@@XXXXXXXXXXX===========XXXXX======*****,,,,,,,,,,,%%%%%%+++++%%%%%%%%%%%%%%%%%%%%%%%%%%%%%%%%%%%%%%%%%%%%%%%%%%+++++oooooo.....******=====%",
"++###########$$$$$$&&&&&oooooo$$$$$$$$$$$@@@@@&&&&&&&&&&&@@@@@@###########@@@@@%%%%%%+++++###########$$$$$$@@@@@@@@@@@&&&&&+++++++++++@@@@@@@@@@@-----------&&&&&&&&&&&&&&&&&$$$$$@@@@@@@@@@@@@@@@@XXXXXXXXXXX&&&&&oooooo.....===========***********;;;;;;;;;;;%%%%%%++++++++++++++++++++++++++++++++++++++++++++++++++++++++++++++++++++++++++++++++++%",
"++###########$$$$$$&&&&&oooooo$$$$$$$$$$$@@@@@&&&&&&&&&&&@@@@@@###########@@@@@%%%%%%+++++###########$$$$$$@@@@@@@@@@@&&&&&+++++++++++@@@@@@@@@@@-----------&&&&&&&&&&&&&&&&&$$$$$@@@@@@@@@@@@@@@@@XXXXXXXXXXX&&&&&oooooo.....===========***********;;;;;;;;;;;%%%%%%++++++++++++++++++++++++++++++++++++++++++++++++++++++++++++++++++++++++++++++++++%",
"++###########$$$$$$&&&&&oooooo$$$$$$$$$$$@@@@@&&&&&&&&&&&@@@@@@###########@@@@@%%%%%%+++++###########$$$$$$@@@@@@@@@@@&&&&&+++++++++++@@@@@@@@@@@-----------&&&&&&&&&&&&&&&&&$$$$$@@@@@@@@@@@@@@@@@XXXXXXXXXXX&&&&&oooooo.....===========***********;;;;;;;;;;;%%%%%%++++++++++++++++++++++++++++++++++++++++++++++++++++++++++++++++++++++++++++++++++%",
"++###########$$$$$$&&&&&oooooo$$$$$$$$$$$@@@@@&&&&&&&&&&&@@@@@@###########@@@@@%%%%%%+++++###########$$$$$$@@@@@@@@@@@&&&&&+++++++++++@@@@@@@@@@@-----------&&&&&&&&&&&&&&&&&$$$$$@@@@@@@@@@@@@@@@@XXXXXXXXXXX&&&&&oooooo.....===========***********;;;;;;;;;;;%%%%%%++++++++++++++++++++++++++++++++++++++++++++++++++++++++++++++++++++++++++++++++++%",
"++###########$$$$$$&&&&&oooooo$$$$$$$$$$$@@@@@&&&&&&&&&&&@@@@@@###########@@@@@%%%%%%+++++###########$$$$$$@@@@@@@@@@@&&&&&+++++++++++@@@@@@@@@@@-----------&&&&&&&&&&&&&&&&&$$$$$@@@@@@@@@@@@@@@@@XXXXXXXXXXX&&&&&oooooo.....===========***********;;;;;;;;;;;%%%%%%++++++++++++++++++++++++++++++++++++++++++++++++++++++++++++++++++++++++++++++++++%",
"++###########&&&&&&@@@@@######$$$$$oooooo@@@@@$$$$$$$$$$$$$$$$$XXXXX@@@@@@@@@@@%%%%%%+++++######XXXXX######ooooo&&&&&&ooooo%%%%%%+++++@@@@@@################$$$$$$&&&&&&&&&&&################@@@@@@XXXXXXXXXXXXXXXXXXXXXX================***********;;;;;;;;;;;%%%%%%+++++$$$$$$$$$$$$$$$$$$$$$$#######################################################%",
"++###########&&&&&&@@@@@######$$$$$oooooo@@@@@$$$$$$$$$$$$$$$$$XXXXX@@@@@@@@@@@%%%%%%+++++######XXXXX######ooooo&&&&&&ooooo%%%%%%+++++@@@@@@################$$$$$$&&&&&&&&&&&################@@@@@@XXXXXXXXXXXXXXXXXXXXXX================***********;;;;;;;;;;;%%%%%%+++++$$$$$$$$$$$$$$$$$$$$$$#######################################################%",
"++###########&&&&&&@@@@@######$$$$$oooooo@@@@@$$$$$$$$$$$$$$$$$XXXXX@@@@@@@@@@@%%%%%%+++++######XXXXX######ooooo&&&&&&ooooo%%%%%%+++++@@@@@@################$$$$$$&&&&&&&&&&&################@@@@@@XXXXXXXXXXXXXXXXXXXXXX================***********;;;;;;;;;;;%%%%%%+++++$$$$$$$$$$$$$$$$$$$$$$#######################################################%",
"++###########&&&&&&@@@@@######$$$$$oooooo@@@@@$$$$$$$$$$$$$$$$$XXXXX@@@@@@@@@@@%%%%%%+++++######XXXXX######ooooo&&&&&&ooooo%%%%%%+++++@@@@@@################$$$$$$&&&&&&&&&&&################@@@@@@XXXXXXXXXXXXXXXXXXXXXX================***********;;;;;;;;;;;%%%%%%+++++$$$$$$$$$$$$$$$$$$$$$$#######################################################%",
"++###########&&&&&&@@@@@######$$$$$oooooo@@@@@$$$$$$$$$$$$$$$$$XXXXX@@@@@@@@@@@%%%%%%+++++######XXXXX######ooooo&&&&&&ooooo%%%%%%+++++@@@@@@################$$$$$$&&&&&&&&&&&################@@@@@@XXXXXXXXXXXXXXXXXXXXXX================***********;;;;;;;;;;;%%%%%%+++++$$$$$$$$$$$$$$$$$$$$$$#######################################################%",
"++###########&&&&&&@@@@@######$$$$$oooooo@@@@@$$$$$$$$$$$$$$$$$XXXXX@@@@@@@@@@@%%%%%%+++++######XXXXX######ooooo&&&&&&ooooo%%%%%%+++++@@@@@@################$$$$$$&&&&&&&&&&&################@@@@@@XXXXXXXXXXXXXXXXXXXXXX================***********;;;;;;;;;;;%%%%%%+++++$$$$$$$$$$$$$$$$$$$$$$#######################################################%",
"++######################@@@@@@ooooo######ooooo$$$$$$XXXXXXXXXXX@@@@@oooooo@@@@@%%%%%%+++++######@@@@@$$$$$$$$$$$&&&&&&XXXXX%%%%%%+++++@@@@@@$$$$$@@@@@@@@@@@$$$$$$$$$$$$$$$$$######################@@@@@XXXXXXooooo......*****=================.....******,,,,,%%%%%%+++++$$$$$$$$$$$@@@@@@@@@@@$$$$$$$$$$$$$$$$$$$$$$@@@@@@ooooo######@@@@@@@@@@@XXXXX%",
"++######################@@@@@@ooooo######ooooo$$$$$$XXXXXXXXXXX@@@@@oooooo@@@@@%%%%%%+++++######@@@@@$$$$$$$$$$$&&&&&&XXXXX%%%%%%+++++@@@@@@$$$$$@@@@@@@@@@@$$$$$$$$$$$$$$$$$######################@@@@@XXXXXXooooo......*****=================.....******,,,,,%%%%%%+++++$$$$$$$$$$$@@@@@@@@@@@$$$$$$$$$$$$$$$$$$$$$$@@@@@@ooooo######@@@@@@@@@@@XXXXX%",
"++######################@@@@@@ooooo######ooooo$$$$$$XXXXXXXXXXX@@@@@oooooo@@@@@%%%%%%+++++######@@@@@$$$$$$$$$$$&&&&&&XXXXX%%%%%%+++++@@@@@@$$$$$@@@@@@@@@@@$$$$$$$$$$$$$$$$$######################@@@@@XXXXXXooooo......*****=================.....******,,,,,%%%%%%+++++$$$$$$$$$$$@@@@@@@@@@@$$$$$$$$$$$$$$$$$$$$$$@@@@@@ooooo######@@@@@@@@@@@XXXXX%",
"++######################@@@@@@ooooo######ooooo$$$$$$XXXXXXXXXXX@@@@@oooooo@@@@@%%%%%%+++++######@@@@@$$$$$$$$$$$&&&&&&XXXXX%%%%%%+++++@@@@@@$$$$$@@@@@@@@@@@$$$$$$$$$$$$$$$$$######################@@@@@XXXXXXooooo......*****=================.....******,,,,,%%%%%%+++++$$$$$$$$$$$@@@@@@@@@@@$$$$$$$$$$$$$$$$$$$$$$@@@@@@ooooo######@@@@@@@@@@@XXXXX%",
"++######################@@@@@@ooooo######ooooo$$$$$$XXXXXXXXXXX@@@@@oooooo@@@@@%%%%%%+++++######@@@@@$$$$$$$$$$$&&&&&&XXXXX%%%%%%+++++@@@@@@$$$$$@@@@@@@@@@@$$$$$$$$$$$$$$$$$######################@@@@@XXXXXXooooo......*****=================.....******,,,,,%%%%%%+++++$$$$$$$$$$$@@@@@@@@@@@$$$$$$$$$$$$$$$$$$$$$$@@@@@@ooooo######@@@@@@@@@@@XXXXX%",
"++######@@@@@######&&&&&@@@@@@@@@@@######$$$$$&&&&&&XXXXX,,,,,,XXXXX@@@@@@@@@@@%%%%%%+++++###########XXXXXX@@@@@XXXXXX.....%%%%%%+++++@@@@@@#####@@@@@@@@@@@@@@@@@&&&&&@@@@@@######################@@@@@@@@@@@@@@@@**********************======...........=====%%%%%%+++++$$$$$$@@@@@$$$$$$>>>>>>>>>>>$$$$$$$$$$$$$$$$&&&&&&@@@@@@@@@@@@@@@@&&&&&&XXXXX%",
"++######@@@@@######&&&&&@@@@@@@@@@@######$$$$$&&&&&&XXXXX,,,,,,XXXXX@@@@@@@@@@@%%%%%%+++++###########XXXXXX@@@@@XXXXXX.....%%%%%%+++++@@@@@@#####@@@@@@@@@@@@@@@@@&&&&&@@@@@@######################@@@@@@@@@@@@@@@@**********************======...........=====%%%%%%+++++$$$$$$@@@@@$$$$$$>>>>>>>>>>>$$$$$$$$$$$$$$$$&&&&&&@@@@@@@@@@@@@@@@&&&&&&XXXXX%",
"++######@@@@@######&&&&&@@@@@@@@@@@######$$$$$&&&&&&XXXXX,,,,,,XXXXX@@@@@@@@@@@%%%%%%+++++###########XXXXXX@@@@@XXXXXX.....%%%%%%+++++@@@@@@#####@@@@@@@@@@@@@@@@@&&&&&@@@@@@######################@@@@@@@@@@@@@@@@**********************======...........=====%%%%%%+++++$$$$$$@@@@@$$$$$$>>>>>>>>>>>$$$$$$$$$$$$$$$$&&&&&&@@@@@@@@@@@@@@@@&&&&&&XXXXX%",
"++######@@@@@######&&&&&@@@@@@@@@@@######$$$$$&&&&&&XXXXX,,,,,,XXXXX@@@@@@@@@@@%%%%%%+++++###########XXXXXX@@@@@XXXXXX.....%%%%%%+++++@@@@@@#####@@@@@@@@@@@@@@@@@&&&&&@@@@@@######################@@@@@@@@@@@@@@@@**********************======...........=====%%%%%%+++++$$$$$$@@@@@$$$$$$>>>>>>>>>>>$$$$$$$$$$$$$$$$&&&&&&@@@@@@@@@@@@@@@@&&&&&&XXXXX%",
"++######@@@@@######&&&&&@@@@@@@@@@@######$$$$$&&&&&&XXXXX,,,,,,XXXXX@@@@@@@@@@@%%%%%%+++++###########XXXXXX@@@@@XXXXXX.....%%%%%%+++++@@@@@@#####@@@@@@@@@@@@@@@@@&&&&&@@@@@@######################@@@@@@@@@@@@@@@@**********************======...........=====%%%%%%+++++$$$$$$@@@@@$$$$$$>>>>>>>>>>>$$$$$$$$$$$$$$$$&&&&&&@@@@@@@@@@@@@@@@&&&&&&XXXXX%",
"++######@@@@@######&&&&&@@@@@@@@@@@######$$$$$&&&&&&XXXXX,,,,,,XXXXX@@@@@@@@@@@%%%%%%+++++###########XXXXXX@@@@@XXXXXX.....%%%%%%+++++@@@@@@#####@@@@@@@@@@@@@@@@@&&&&&@@@@@@######################@@@@@@@@@@@@@@@@**********************======...........=====%%%%%%+++++$$$$$$@@@@@$$$$$$>>>>>>>>>>>$$$$$$$$$$$$$$$$&&&&&&@@@@@@@@@@@@@@@@&&&&&&XXXXX%",
"++######$$$$$&&&&&&&&&&&######:::::######@@@@@oooooo@@@@@XXXXXXXXXXX@@@@@@@@@@@%%%%%%+++++######$$$$$@@@@@@@@@@@XXXXXX@@@@@%%%%%%+++++@@@@@@###########@@@@@@@@@@@#####ooooooooooo#################@@@@@@@@@@@@@@@@......***********=====******,,,,,,,,,,,,,,,,%%%%%%+++++$$$$$$###########>>>>>-----------$$$$$$$$$$$ooooooooooo@@@@@@&&&&&XXXXXX=====%",
"++######$$$$$&&&&&&&&&&&######:::::######@@@@@oooooo@@@@@XXXXXXXXXXX@@@@@@@@@@@%%%%%%+++++######$$$$$@@@@@@@@@@@XXXXXX@@@@@%%%%%%+++++@@@@@@###########@@@@@@@@@@@#####ooooooooooo#################@@@@@@@@@@@@@@@@......***********=====******,,,,,,,,,,,,,,,,%%%%%%+++++$$$$$$###########>>>>>-----------$$$$$$$$$$$ooooooooooo@@@@@@&&&&&XXXXXX=====%",
"++######$$$$$&&&&&&&&&&&######:::::######@@@@@oooooo@@@@@XXXXXXXXXXX@@@@@@@@@@@%%%%%%+++++######$$$$$@@@@@@@@@@@XXXXXX@@@@@%%%%%%+++++@@@@@@###########@@@@@@@@@@@#####ooooooooooo#################@@@@@@@@@@@@@@@@......***********=====******,,,,,,,,,,,,,,,,%%%%%%+++++$$$$$$###########>>>>>-----------$$$$$$$$$$$ooooooooooo@@@@@@&&&&&XXXXXX=====%",
"++######$$$$$&&&&&&&&&&&######:::::######@@@@@oooooo@@@@@XXXXXXXXXXX@@@@@@@@@@@%%%%%%+++++######$$$$$@@@@@@@@@@@XXXXXX@@@@@%%%%%%+++++@@@@@@###########@@@@@@@@@@@#####ooooooooooo#################@@@@@@@@@@@@@@@@......***********=====******,,,,,,,,,,,,,,,,%%%%%%+++++$$$$$$###########>>>>>-----------$$$$$$$$$$$ooooooooooo@@@@@@&&&&&XXXXXX=====%",
"++######$$$$$&&&&&&&&&&&######:::::######@@@@@oooooo@@@@@XXXXXXXXXXX@@@@@@@@@@@%%%%%%+++++######$$$$$@@@@@@@@@@@XXXXXX@@@@@%%%%%%+++++@@@@@@###########@@@@@@@@@@@#####ooooooooooo#################@@@@@@@@@@@@@@@@......***********=====******,,,,,,,,,,,,,,,,%%%%%%+++++$$$$$$###########>>>>>-----------$$$$$$$$$$$ooooooooooo@@@@@@&&&&&XXXXXX=====%",
"++######@@@@@######@@@@@::::::<<<<<::::::&&&&&&&&&&&@@@@@&&&&&&oooooXXXXXXooooo%%%%%%+++++######$$$$$@@@@@@XXXXX@@@@@@.....%%%%%%+++++@@@@@@@@@@@######&&&&&&&&&&&XXXXXXXXXXXXXXXXoooooo@@@@@@@@@@@@@@@@XXXXXXXXXXXXXXXXX===========****************;;;;;;;;;;;%%%%%%+++++$$$$$$&&&&&######&&&&&-----------$$$$$$$$$$$@@@@@@@@@@@XXXXXXXXXXXXXXXXX*****%",
"++######@@@@@######@@@@@::::::<<<<<::::::&&&&&&&&&&&@@@@@&&&&&&oooooXXXXXXooooo%%%%%%+++++######$$$$$@@@@@@XXXXX@@@@@@.....%%%%%%+++++@@@@@@@@@@@######&&&&&&&&&&&XXXXXXXXXXXXXXXXoooooo@@@@@@@@@@@@@@@@XXXXXXXXXXXXXXXXX===========****************;;;;;;;;;;;%%%%%%+++++$$$$$$&&&&&######&&&&&-----------$$$$$$$$$$$@@@@@@@@@@@XXXXXXXXXXXXXXXXX*****%",
"++######@@@@@######@@@@@::::::<<<<<::::::&&&&&&&&&&&@@@@@&&&&&&oooooXXXXXXooooo%%%%%%+++++######$$$$$@@@@@@XXXXX@@@@@@.....%%%%%%+++++@@@@@@@@@@@######&&&&&&&&&&&XXXXXXXXXXXXXXXXoooooo@@@@@@@@@@@@@@@@XXXXXXXXXXXXXXXXX===========****************;;;;;;;;;;;%%%%%%+++++$$$$$$&&&&&######&&&&&-----------$$$$$$$$$$$@@@@@@@@@@@XXXXXXXXXXXXXXXXX*****%",
"++######@@@@@######@@@@@::::::<<<<<::::::&&&&&&&&&&&@@@@@&&&&&&oooooXXXXXXooooo%%%%%%+++++######$$$$$@@@@@@XXXXX@@@@@@.....%%%%%%+++++@@@@@@@@@@@######&&&&&&&&&&&XXXXXXXXXXXXXXXXoooooo@@@@@@@@@@@@@@@@XXXXXXXXXXXXXXXXX===========****************;;;;;;;;;;;%%%%%%+++++$$$$$$&&&&&######&&&&&-----------$$$$$$$$$$$@@@@@@@@@@@XXXXXXXXXXXXXXXXX*****%",
"++######@@@@@######@@@@@::::::<<<<<::::::&&&&&&&&&&&@@@@@&&&&&&oooooXXXXXXooooo%%%%%%+++++######$$$$$@@@@@@XXXXX@@@@@@.....%%%%%%+++++@@@@@@@@@@@######&&&&&&&&&&&XXXXXXXXXXXXXXXXoooooo@@@@@@@@@@@@@@@@XXXXXXXXXXXXXXXXX===========****************;;;;;;;;;;;%%%%%%+++++$$$$$$&&&&&######&&&&&-----------$$$$$$$$$$$@@@@@@@@@@@XXXXXXXXXXXXXXXXX*****%",
"++######@@@@@######@@@@@::::::<<<<<::::::&&&&&&&&&&&@@@@@&&&&&&oooooXXXXXXooooo%%%%%%+++++######$$$$$@@@@@@XXXXX@@@@@@.....%%%%%%+++++@@@@@@@@@@@######&&&&&&&&&&&XXXXXXXXXXXXXXXXoooooo@@@@@@@@@@@@@@@@XXXXXXXXXXXXXXXXX===========****************;;;;;;;;;;;%%%%%%+++++$$$$$$&&&&&######&&&&&-----------$$$$$$$$$$$@@@@@@@@@@@XXXXXXXXXXXXXXXXX*****%",
"++######$$$$$######$$$$$######:::::######@@@@@XXXXXX@@@@@@@@@@@,,,,,,,,,,,=====%%%%%%+++++######@@@@@$$$$$$$$$$$XXXXXX=====%%%%%%+++++@@@@@@@@@@@######@@@@@oooooooooooXXXXXXXXXXXXXXXXXoooooXXXXXXooooo***********&&&&&&&&&&&...........******,,,,,;;;;;;;;;;;%%%%%%+++++$$$$$$#####$$$$$$&&&&&&&&&&&&&&&&@@@@@@@@@@@XXXXXXXXXXXXXXXXXXXXXX******=====%",
"++######$$$$$######$$$$$######:::::######@@@@@XXXXXX@@@@@@@@@@@,,,,,,,,,,,=====%%%%%%+++++######@@@@@$$$$$$$$$$$XXXXXX=====%%%%%%+++++@@@@@@@@@@@######@@@@@oooooooooooXXXXXXXXXXXXXXXXXoooooXXXXXXooooo***********&&&&&&&&&&&...........******,,,,,;;;;;;;;;;;%%%%%%+++++$$$$$$#####$$$$$$&&&&&&&&&&&&&&&&@@@@@@@@@@@XXXXXXXXXXXXXXXXXXXXXX******=====%",
"++######$$$$$######$$$$$######:::::######@@@@@XXXXXX@@@@@@@@@@@,,,,,,,,,,,=====%%%%%%+++++######@@@@@$$$$$$$$$$$XXXXXX=====%%%%%%+++++@@@@@@@@@@@######@@@@@oooooooooooXXXXXXXXXXXXXXXXXoooooXXXXXXooooo***********&&&&&&&&&&&...........******,,,,,;;;;;;;;;;;%%%%%%+++++$$$$$$#####$$$$$$&&&&&&&&&&&&&&&&@@@@@@@@@@@XXXXXXXXXXXXXXXXXXXXXX******=====%",
"++######$$$$$######$$$$$######:::::######@@@@@XXXXXX@@@@@@@@@@@,,,,,,,,,,,=====%%%%%%+++++######@@@@@$$$$$$$$$$$XXXXXX=====%%%%%%+++++@@@@@@@@@@@######@@@@@oooooooooooXXXXXXXXXXXXXXXXXoooooXXXXXXooooo***********&&&&&&&&&&&...........******,,,,,;;;;;;;;;;;%%%%%%+++++$$$$$$#####$$$$$$&&&&&&&&&&&&&&&&@@@@@@@@@@@XXXXXXXXXXXXXXXXXXXXXX******=====%",
"++######$$$$$######$$$$$######:::::######@@@@@XXXXXX@@@@@@@@@@@,,,,,,,,,,,=====%%%%%%+++++######@@@@@$$$$$$$$$$$XXXXXX=====%%%%%%+++++@@@@@@@@@@@######@@@@@oooooooooooXXXXXXXXXXXXXXXXXoooooXXXXXXooooo***********&&&&&&&&&&&...........******,,,,,;;;;;;;;;;;%%%%%%+++++$$$$$$#####$$$$$$&&&&&&&&&&&&&&&&@@@@@@@@@@@XXXXXXXXXXXXXXXXXXXXXX******=====%",
"++######@@@@@######$$$$$$$$$$$$$$$$oooooooooooooooooXXXXX......,,,,,,,,,,,=====%%%%%%+++++###########$$$$$$&&&&&oooooo=====%%%%%%+++++@@@@@@&&&&&###########&&&&&&#####XXXXXXXXXXXooooooXXXXXXXXXXXoooooXXXXXX*****&&&&&&&&&&&oooooo...........=====******=====%%%%%%+++++$$$$$$$$$$$@@@@@@&&&&&&&&&&&&&&&&@@@@@@XXXXX......=====XXXXXX***********=====%",
"++######@@@@@######$$$$$$$$$$$$$$$$oooooooooooooooooXXXXX......,,,,,,,,,,,=====%%%%%%+++++###########$$$$$$&&&&&oooooo=====%%%%%%+++++@@@@@@&&&&&###########&&&&&&#####XXXXXXXXXXXooooooXXXXXXXXXXXoooooXXXXXX*****&&&&&&&&&&&oooooo...........=====******=====%%%%%%+++++$$$$$$$$$$$@@@@@@&&&&&&&&&&&&&&&&@@@@@@XXXXX......=====XXXXXX***********=====%",
"++######@@@@@######$$$$$$$$$$$$$$$$oooooooooooooooooXXXXX......,,,,,,,,,,,=====%%%%%%+++++###########$$$$$$&&&&&oooooo=====%%%%%%+++++@@@@@@&&&&&###########&&&&&&#####XXXXXXXXXXXooooooXXXXXXXXXXXoooooXXXXXX*****&&&&&&&&&&&oooooo...........=====******=====%%%%%%+++++$$$$$$$$$$$@@@@@@&&&&&&&&&&&&&&&&@@@@@@XXXXX......=====XXXXXX***********=====%",
"++######@@@@@######$$$$$$$$$$$$$$$$oooooooooooooooooXXXXX......,,,,,,,,,,,=====%%%%%%+++++###########$$$$$$&&&&&oooooo=====%%%%%%+++++@@@@@@&&&&&###########&&&&&&#####XXXXXXXXXXXooooooXXXXXXXXXXXoooooXXXXXX*****&&&&&&&&&&&oooooo...........=====******=====%%%%%%+++++$$$$$$$$$$$@@@@@@&&&&&&&&&&&&&&&&@@@@@@XXXXX......=====XXXXXX***********=====%",
"++######@@@@@######$$$$$$$$$$$$$$$$oooooooooooooooooXXXXX......,,,,,,,,,,,=====%%%%%%+++++###########$$$$$$&&&&&oooooo=====%%%%%%+++++@@@@@@&&&&&###########&&&&&&#####XXXXXXXXXXXooooooXXXXXXXXXXXoooooXXXXXX*****&&&&&&&&&&&oooooo...........=====******=====%%%%%%+++++$$$$$$$$$$$@@@@@@&&&&&&&&&&&&&&&&@@@@@@XXXXX......=====XXXXXX***********=====%",
"++######@@@@@######$$$$$$$$$$$$$$$$oooooooooooooooooXXXXX......,,,,,,,,,,,=====%%%%%%+++++###########$$$$$$&&&&&oooooo=====%%%%%%+++++@@@@@@&&&&&###########&&&&&&#####XXXXXXXXXXXooooooXXXXXXXXXXXoooooXXXXXX*****&&&&&&&&&&&oooooo...........=====******=====%%%%%%+++++$$$$$$$$$$$@@@@@@&&&&&&&&&&&&&&&&@@@@@@XXXXX......=====XXXXXX***********=====%",
"++@@@@@@#####$$$$$$$$$$$@@@@@@XXXXXXXXXXX&&&&&@@@@@@&&&&&&&&&&&XXXXX===========%%%%%%+++++######$$$$$@@@@@@oooooooooooXXXXX%%%%%%+++++@@@@@@#####&&&&&&@@@@@######@@@@@ooooooXXXXX...........ooooooooooo***********XXXXXX&&&&&&&&&&&XXXXX......***********;;;;;%%%%%%+++++$$$$$$$$$$$&&&&&&@@@@@&&&&&&&&&&&@@@@@@XXXXX......=====......XXXXX***********%",
"++@@@@@@#####$$$$$$$$$$$@@@@@@XXXXXXXXXXX&&&&&@@@@@@&&&&&&&&&&&XXXXX===========%%%%%%+++++######$$$$$@@@@@@oooooooooooXXXXX%%%%%%+++++@@@@@@#####&&&&&&@@@@@######@@@@@ooooooXXXXX...........ooooooooooo***********XXXXXX&&&&&&&&&&&XXXXX......***********;;;;;%%%%%%+++++$$$$$$$$$$$&&&&&&@@@@@&&&&&&&&&&&@@@@@@XXXXX......=====......XXXXX***********%",
"++@@@@@@#####$$$$$$$$$$$@@@@@@XXXXXXXXXXX&&&&&@@@@@@&&&&&&&&&&&XXXXX===========%%%%%%+++++######$$$$$@@@@@@oooooooooooXXXXX%%%%%%+++++@@@@@@#####&&&&&&@@@@@######@@@@@ooooooXXXXX...........ooooooooooo***********XXXXXX&&&&&&&&&&&XXXXX......***********;;;;;%%%%%%+++++$$$$$$$$$$$&&&&&&@@@@@&&&&&&&&&&&@@@@@@XXXXX......=====......XXXXX***********%",
"++@@@@@@#####$$$$$$$$$$$@@@@@@XXXXXXXXXXX&&&&&@@@@@@&&&&&&&&&&&XXXXX===========%%%%%%+++++######$$$$$@@@@@@oooooooooooXXXXX%%%%%%+++++@@@@@@#####&&&&&&@@@@@######@@@@@ooooooXXXXX...........ooooooooooo***********XXXXXX&&&&&&&&&&&XXXXX......***********;;;;;%%%%%%+++++$$$$$$$$$$$&&&&&&@@@@@&&&&&&&&&&&@@@@@@XXXXX......=====......XXXXX***********%",
"++@@@@@@#####$$$$$$$$$$$@@@@@@XXXXXXXXXXX&&&&&@@@@@@&&&&&&&&&&&XXXXX===========%%%%%%+++++######$$$$$@@@@@@oooooooooooXXXXX%%%%%%+++++@@@@@@#####&&&&&&@@@@@######@@@@@ooooooXXXXX...........ooooooooooo***********XXXXXX&&&&&&&&&&&XXXXX......***********;;;;;%%%%%%+++++$$$$$$$$$$$&&&&&&@@@@@&&&&&&&&&&&@@@@@@XXXXX......=====......XXXXX***********%",
"++######@@@@@######$$$$$ooooooooooo$$$$$$XXXXX@@@@@@@@@@@&&&&&&.....XXXXXX*****%%%%%%+++++######@@@@@######XXXXXXXXXXXXXXXX%%%%%%+++++@@@@@@#####@@@@@@@@@@@@@@@@@&&&&&oooooo@@@@@@@@@@@...........*****......***********XXXXXXXXXXXXXXXX======***********;;;;;%%%%%%+++++$$$$$$$$$$$######$$$$$oooooo$$$$$$$$$$$&&&&&XXXXXX=====&&&&&&&&&&&******;;;;;%",
"++######@@@@@######$$$$$ooooooooooo$$$$$$XXXXX@@@@@@@@@@@&&&&&&.....XXXXXX*****%%%%%%+++++######@@@@@######XXXXXXXXXXXXXXXX%%%%%%+++++@@@@@@#####@@@@@@@@@@@@@@@@@&&&&&oooooo@@@@@@@@@@@...........*****......***********XXXXXXXXXXXXXXXX======***********;;;;;%%%%%%+++++$$$$$$$$$$$######$$$$$oooooo$$$$$$$$$$$&&&&&XXXXXX=====&&&&&&&&&&&******;;;;;%",
"++######@@@@@######$$$$$ooooooooooo$$$$$$XXXXX@@@@@@@@@@@&&&&&&.....XXXXXX*****%%%%%%+++++######@@@@@######XXXXXXXXXXXXXXXX%%%%%%+++++@@@@@@#####@@@@@@@@@@@@@@@@@&&&&&oooooo@@@@@@@@@@@...........*****......***********XXXXXXXXXXXXXXXX======***********;;;;;%%%%%%+++++$$$$$$$$$$$######$$$$$oooooo$$$$$$$$$$$&&&&&XXXXXX=====&&&&&&&&&&&******;;;;;%",
"++######@@@@@######$$$$$ooooooooooo$$$$$$XXXXX@@@@@@@@@@@&&&&&&.....XXXXXX*****%%%%%%+++++######@@@@@######XXXXXXXXXXXXXXXX%%%%%%+++++@@@@@@#####@@@@@@@@@@@@@@@@@&&&&&oooooo@@@@@@@@@@@...........*****......***********XXXXXXXXXXXXXXXX======***********;;;;;%%%%%%+++++$$$$$$$$$$$######$$$$$oooooo$$$$$$$$$$$&&&&&XXXXXX=====&&&&&&&&&&&******;;;;;%",
"++######@@@@@######$$$$$ooooooooooo$$$$$$XXXXX@@@@@@@@@@@&&&&&&.....XXXXXX*****%%%%%%+++++######@@@@@######XXXXXXXXXXXXXXXX%%%%%%+++++@@@@@@#####@@@@@@@@@@@@@@@@@&&&&&oooooo@@@@@@@@@@@...........*****......***********XXXXXXXXXXXXXXXX======***********;;;;;%%%%%%+++++$$$$$$$$$$$######$$$$$oooooo$$$$$$$$$$$&&&&&XXXXXX=====&&&&&&&&&&&******;;;;;%",
"++######@@@@@######$$$$$ooooooooooo$$$$$$XXXXX@@@@@@@@@@@&&&&&&.....XXXXXX*****%%%%%%+++++######@@@@@######XXXXXXXXXXXXXXXX%%%%%%+++++@@@@@@#####@@@@@@@@@@@@@@@@@&&&&&oooooo@@@@@@@@@@@...........*****......***********XXXXXXXXXXXXXXXX======***********;;;;;%%%%%%+++++$$$$$$$$$$$######$$$$$oooooo$$$$$$$$$$$&&&&&XXXXXX=====&&&&&&&&&&&******;;;;;%",
"++######@@@@@######@@@@@&&&&&&oooooXXXXXX=====oooooo@@@@@@@@@@@&&&&&......=====%%%%%%+++++###########@@@@@@================%%%%%%+++++@@@@@@@@@@@@@@@@@&&&&&&&&&&&XXXXXoooooo@@@@@@@@@@@@@@@@......=====...........******,,,,,,,,,,,,,,,,======;;;;;;;;;;;;;;;;%%%%%%+++++###########$$$$$$ooooo@@@@@@$$$$$$$$$$$$$$$$&&&&&&XXXXX&&&&&&&&&&&XXXXXX;;;;;%",
"++######@@@@@######@@@@@&&&&&&oooooXXXXXX=====oooooo@@@@@@@@@@@&&&&&......=====%%%%%%+++++###########@@@@@@================%%%%%%+++++@@@@@@@@@@@@@@@@@&&&&&&&&&&&XXXXXoooooo@@@@@@@@@@@@@@@@......=====...........******,,,,,,,,,,,,,,,,======;;;;;;;;;;;;;;;;%%%%%%+++++###########$$$$$$ooooo@@@@@@$$$$$$$$$$$$$$$$&&&&&&XXXXX&&&&&&&&&&&XXXXXX;;;;;%",
"++######@@@@@######@@@@@&&&&&&oooooXXXXXX=====oooooo@@@@@@@@@@@&&&&&......=====%%%%%%+++++###########@@@@@@================%%%%%%+++++@@@@@@@@@@@@@@@@@&&&&&&&&&&&XXXXXoooooo@@@@@@@@@@@@@@@@......=====...........******,,,,,,,,,,,,,,,,======;;;;;;;;;;;;;;;;%%%%%%+++++###########$$$$$$ooooo@@@@@@$$$$$$$$$$$$$$$$&&&&&&XXXXX&&&&&&&&&&&XXXXXX;;;;;%",
"++######@@@@@######@@@@@&&&&&&oooooXXXXXX=====oooooo@@@@@@@@@@@&&&&&......=====%%%%%%+++++###########@@@@@@================%%%%%%+++++@@@@@@@@@@@@@@@@@&&&&&&&&&&&XXXXXoooooo@@@@@@@@@@@@@@@@......=====...........******,,,,,,,,,,,,,,,,======;;;;;;;;;;;;;;;;%%%%%%+++++###########$$$$$$ooooo@@@@@@$$$$$$$$$$$$$$$$&&&&&&XXXXX&&&&&&&&&&&XXXXXX;;;;;%",
"++######@@@@@######@@@@@&&&&&&oooooXXXXXX=====oooooo@@@@@@@@@@@&&&&&......=====%%%%%%+++++###########@@@@@@================%%%%%%+++++@@@@@@@@@@@@@@@@@&&&&&&&&&&&XXXXXoooooo@@@@@@@@@@@@@@@@......=====...........******,,,,,,,,,,,,,,,,======;;;;;;;;;;;;;;;;%%%%%%+++++###########$$$$$$ooooo@@@@@@$$$$$$$$$$$$$$$$&&&&&&XXXXX&&&&&&&&&&&XXXXXX;;;;;%",
"++$$$$$$@@@@@ooooooooooooooooo@@@@@======,,,,,======ooooo&&&&&&&&&&&...........%%%%%%+++++######$$$$$@@@@@@XXXXX......*****%%%%%%+++++@@@@@@$$$$$@@@@@@&&&&&&&&&&&#####@@@@@@XXXXX@@@@@@@@@@@***********...........======*****;;;;;;;;;;;******;;;;;;;;;;;;;;;;%%%%%%+++++######$$$$$@@@@@@ooooo@@@@@@@@@@@$$$$$$$$$$$&&&&&&XXXXXXXXXXXXXXXXXXXXXX;;;;;%",
"++$$$$$$@@@@@ooooooooooooooooo@@@@@======,,,,,======ooooo&&&&&&&&&&&...........%%%%%%+++++######$$$$$@@@@@@XXXXX......*****%%%%%%+++++@@@@@@$$$$$@@@@@@&&&&&&&&&&&#####@@@@@@XXXXX@@@@@@@@@@@***********...........======*****;;;;;;;;;;;******;;;;;;;;;;;;;;;;%%%%%%+++++######$$$$$@@@@@@ooooo@@@@@@@@@@@$$$$$$$$$$$&&&&&&XXXXXXXXXXXXXXXXXXXXXX;;;;;%",
"++$$$$$$@@@@@ooooooooooooooooo@@@@@======,,,,,======ooooo&&&&&&&&&&&...........%%%%%%+++++######$$$$$@@@@@@XXXXX......*****%%%%%%+++++@@@@@@$$$$$@@@@@@&&&&&&&&&&&#####@@@@@@XXXXX@@@@@@@@@@@***********...........======*****;;;;;;;;;;;******;;;;;;;;;;;;;;;;%%%%%%+++++######$$$$$@@@@@@ooooo@@@@@@@@@@@$$$$$$$$$$$&&&&&&XXXXXXXXXXXXXXXXXXXXXX;;;;;%",
"++$$$$$$@@@@@ooooooooooooooooo@@@@@======,,,,,======ooooo&&&&&&&&&&&...........%%%%%%+++++######$$$$$@@@@@@XXXXX......*****%%%%%%+++++@@@@@@$$$$$@@@@@@&&&&&&&&&&&#####@@@@@@XXXXX@@@@@@@@@@@***********...........======*****;;;;;;;;;;;******;;;;;;;;;;;;;;;;%%%%%%+++++######$$$$$@@@@@@ooooo@@@@@@@@@@@$$$$$$$$$$$&&&&&&XXXXXXXXXXXXXXXXXXXXXX;;;;;%",
"++$$$$$$@@@@@ooooooooooooooooo@@@@@======,,,,,======ooooo&&&&&&&&&&&...........%%%%%%+++++######$$$$$@@@@@@XXXXX......*****%%%%%%+++++@@@@@@$$$$$@@@@@@&&&&&&&&&&&#####@@@@@@XXXXX@@@@@@@@@@@***********...........======*****;;;;;;;;;;;******;;;;;;;;;;;;;;;;%%%%%%+++++######$$$$$@@@@@@ooooo@@@@@@@@@@@$$$$$$$$$$$&&&&&&XXXXXXXXXXXXXXXXXXXXXX;;;;;%",
"++$$$$$$@@@@@ooooooooooooooooo@@@@@======,,,,,======ooooo&&&&&&&&&&&...........%%%%%%+++++######$$$$$@@@@@@XXXXX......*****%%%%%%+++++@@@@@@$$$$$@@@@@@&&&&&&&&&&&#####@@@@@@XXXXX@@@@@@@@@@@***********...........======*****;;;;;;;;;;;******;;;;;;;;;;;;;;;;%%%%%%+++++######$$$$$@@@@@@ooooo@@@@@@@@@@@$$$$$$$$$$$&&&&&&XXXXXXXXXXXXXXXXXXXXXX;;;;;%",
"++$$$$$$@@@@@......=====oooooo=====@@@@@@XXXXXXXXXXX&&&&&******=====***********%%%%%%+++++$$$$$$@@@@@=================*****%%%%%%+++++@@@@@@$$$$$######XXXXX###########@@@@@@*****=================***********,,,,,,,,,,,,,,,,;;;;;;;;;;;,,,,,,*****;;;;;;;;;;;%%%%%%+++++######$$$$$@@@@@@#####@@@@@@@@@@@XXXXXXooooo...........XXXXXXXXXXX******;;;;;%",
"++$$$$$$@@@@@......=====oooooo=====@@@@@@XXXXXXXXXXX&&&&&******=====***********%%%%%%+++++$$$$$$@@@@@=================*****%%%%%%+++++@@@@@@$$$$$######XXXXX###########@@@@@@*****=================***********,,,,,,,,,,,,,,,,;;;;;;;;;;;,,,,,,*****;;;;;;;;;;;%%%%%%+++++######$$$$$@@@@@@#####@@@@@@@@@@@XXXXXXooooo...........XXXXXXXXXXX******;;;;;%",
"++$$$$$$@@@@@......=====oooooo=====@@@@@@XXXXXXXXXXX&&&&&******=====***********%%%%%%+++++$$$$$$@@@@@=================*****%%%%%%+++++@@@@@@$$$$$######XXXXX###########@@@@@@*****=================***********,,,,,,,,,,,,,,,,;;;;;;;;;;;,,,,,,*****;;;;;;;;;;;%%%%%%+++++######$$$$$@@@@@@#####@@@@@@@@@@@XXXXXXooooo...........XXXXXXXXXXX******;;;;;%",
"++$$$$$$@@@@@......=====oooooo=====@@@@@@XXXXXXXXXXX&&&&&******=====***********%%%%%%+++++$$$$$$@@@@@=================*****%%%%%%+++++@@@@@@$$$$$######XXXXX###########@@@@@@*****=================***********,,,,,,,,,,,,,,,,;;;;;;;;;;;,,,,,,*****;;;;;;;;;;;%%%%%%+++++######$$$$$@@@@@@#####@@@@@@@@@@@XXXXXXooooo...........XXXXXXXXXXX******;;;;;%",
"++$$$$$$@@@@@......=====oooooo=====@@@@@@XXXXXXXXXXX&&&&&******=====***********%%%%%%+++++$$$$$$@@@@@=================*****%%%%%%+++++@@@@@@$$$$$######XXXXX###########@@@@@@*****=================***********,,,,,,,,,,,,,,,,;;;;;;;;;;;,,,,,,*****;;;;;;;;;;;%%%%%%+++++######$$$$$@@@@@@#####@@@@@@@@@@@XXXXXXooooo...........XXXXXXXXXXX******;;;;;%",
"++@@@@@@@@@@@ooooooooooo======ooooo******=====******=====......=====......=====%%%%%%+++++$$$$$$@@@@@oooooo.....===========%%%%%%+++++@@@@@@@@@@@$$$$$$#####@@@@@@XXXXX&&&&&&*****=================***********;;;;;;;;;;;...........=====;;;;;;,,,,,;;;;;;*****%%%%%%+++++#################&&&&&@@@@@@XXXXXXXXXXX.....XXXXXXXXXXX......=====;;;;;;=====%",
"++@@@@@@@@@@@ooooooooooo======ooooo******=====******=====......=====......=====%%%%%%+++++$$$$$$@@@@@oooooo.....===========%%%%%%+++++@@@@@@@@@@@$$$$$$#####@@@@@@XXXXX&&&&&&*****=================***********;;;;;;;;;;;...........=====;;;;;;,,,,,;;;;;;*****%%%%%%+++++#################&&&&&@@@@@@XXXXXXXXXXX.....XXXXXXXXXXX......=====;;;;;;=====%",
"++@@@@@@@@@@@ooooooooooo======ooooo******=====******=====......=====......=====%%%%%%+++++$$$$$$@@@@@oooooo.....===========%%%%%%+++++@@@@@@@@@@@$$$$$$#####@@@@@@XXXXX&&&&&&*****=================***********;;;;;;;;;;;...........=====;;;;;;,,,,,;;;;;;*****%%%%%%+++++#################&&&&&@@@@@@XXXXXXXXXXX.....XXXXXXXXXXX......=====;;;;;;=====%",
"++@@@@@@@@@@@ooooooooooo======ooooo******=====******=====......=====......=====%%%%%%+++++$$$$$$@@@@@oooooo.....===========%%%%%%+++++@@@@@@@@@@@$$$$$$#####@@@@@@XXXXX&&&&&&*****=================***********;;;;;;;;;;;...........=====;;;;;;,,,,,;;;;;;*****%%%%%%+++++#################&&&&&@@@@@@XXXXXXXXXXX.....XXXXXXXXXXX......=====;;;;;;=====%",
"++@@@@@@@@@@@ooooooooooo======ooooo******=====******=====......=====......=====%%%%%%+++++$$$$$$@@@@@oooooo.....===========%%%%%%+++++@@@@@@@@@@@$$$$$$#####@@@@@@XXXXX&&&&&&*****=================***********;;;;;;;;;;;...........=====;;;;;;,,,,,;;;;;;*****%%%%%%+++++#################&&&&&@@@@@@XXXXXXXXXXX.....XXXXXXXXXXX......=====;;;;;;=====%",
"++@@@@@@@@@@@ooooooooooo======ooooo******=====******=====......=====......=====%%%%%%+++++$$$$$$@@@@@oooooo.....===========%%%%%%+++++@@@@@@@@@@@$$$$$$#####@@@@@@XXXXX&&&&&&*****=================***********;;;;;;;;;;;...........=====;;;;;;,,,,,;;;;;;*****%%%%%%+++++#################&&&&&@@@@@@XXXXXXXXXXX.....XXXXXXXXXXX......=====;;;;;;=====%",
"++@@@@@@&&&&&XXXXXXXXXXXXXXXXXXXXXXXXXXXX......................XXXXXXXXXXXXXXXX+++++++++++@@@@@@oooooXXXXXXXXXXXXXXXXXXXXXX+++++++++++@@@@@@@@@@@&&&&&&@@@@@&&&&&&XXXXXXXXXXXXXXXXXXXXXXXXXXXXXXXXX.....======***********XXXXXXXXXXXXXXXXXXXXXX***********.....+++++++++++######@@@@@@@@@@@XXXXX&&&&&&@@@@@XXXXXXXXXXXXXXXXXXXXXXXXXXXX...........XXXXX%",
"++@@@@@@&&&&&XXXXXXXXXXXXXXXXXXXXXXXXXXXX......................XXXXXXXXXXXXXXXX+++++++++++@@@@@@oooooXXXXXXXXXXXXXXXXXXXXXX+++++++++++@@@@@@@@@@@&&&&&&@@@@@&&&&&&XXXXXXXXXXXXXXXXXXXXXXXXXXXXXXXXX.....======***********XXXXXXXXXXXXXXXXXXXXXX***********.....+++++++++++######@@@@@@@@@@@XXXXX&&&&&&@@@@@XXXXXXXXXXXXXXXXXXXXXXXXXXXX...........XXXXX%",
"++@@@@@@&&&&&XXXXXXXXXXXXXXXXXXXXXXXXXXXX......................XXXXXXXXXXXXXXXX+++++++++++@@@@@@oooooXXXXXXXXXXXXXXXXXXXXXX+++++++++++@@@@@@@@@@@&&&&&&@@@@@&&&&&&XXXXXXXXXXXXXXXXXXXXXXXXXXXXXXXXX.....======***********XXXXXXXXXXXXXXXXXXXXXX***********.....+++++++++++######@@@@@@@@@@@XXXXX&&&&&&@@@@@XXXXXXXXXXXXXXXXXXXXXXXXXXXX...........XXXXX%",
"++@@@@@@&&&&&XXXXXXXXXXXXXXXXXXXXXXXXXXXX......................XXXXXXXXXXXXXXXX+++++++++++@@@@@@oooooXXXXXXXXXXXXXXXXXXXXXX+++++++++++@@@@@@@@@@@&&&&&&@@@@@&&&&&&XXXXXXXXXXXXXXXXXXXXXXXXXXXXXXXXX.....======***********XXXXXXXXXXXXXXXXXXXXXX***********.....+++++++++++######@@@@@@@@@@@XXXXX&&&&&&@@@@@XXXXXXXXXXXXXXXXXXXXXXXXXXXX...........XXXXX%",
"++@@@@@@&&&&&XXXXXXXXXXXXXXXXXXXXXXXXXXXX......................XXXXXXXXXXXXXXXX+++++++++++@@@@@@oooooXXXXXXXXXXXXXXXXXXXXXX+++++++++++@@@@@@@@@@@&&&&&&@@@@@&&&&&&XXXXXXXXXXXXXXXXXXXXXXXXXXXXXXXXX.....======***********XXXXXXXXXXXXXXXXXXXXXX***********.....+++++++++++######@@@@@@@@@@@XXXXX&&&&&&@@@@@XXXXXXXXXXXXXXXXXXXXXXXXXXXX...........XXXXX%",
"  oooooooooooooooooXXXXXXXXXXXXXXXXXXXXXXXXXXXXXXXXXXXXXXXXXXXXXXXXXXXXXXXXXXXX           oooooooooooXXXXXXXXXXXXXXXXXXXXXX           @@@@@@-----ooooooooooooooooooooooooooooXXXXXXXXXXXXXXXXXXXXXXXXXXXXXXXXXXXXXXXXXXXXXXXXXXXXXXXXXXXXXXXXXXXXXXXXXXXXXXXXXX           ######oooooooooooXXXXXXXXXXXXXXXXXXXXXXXXXXXXXXXXXXXXXXXXXXXXXXXXXXXXXXXXXXXX+"
};
